P3
400 225
255
182 194 193
205 215 225
203 213 220
200 211 220
186 197 197
100 127 77
98 126 76
96 123 73
95 122 73
97 124 75
95 123 74
99 126 76
97 124 74
98 125 75
97 125 75
92 119 71
99 126 76
100 128 77
98 126 76
99 126 76
97 125 75
96 123 74
95 122 74
98 125 76
99 127 76
97 125 75
99 127 76
98 125 75
99 126 76
96 123 74
95 122 73
95 122 73
156 171 162
197 207 214
204 214 223
206 215 223
207 217 227
211 220 229
199 210 219
203 212 222
204 214 222
206 216 226
207 217 226
208 218 226
207 216 224
174 188 184
130 150 121
92 119 71
98 125 75
93 121 74
97 124 74
96 124 75
97 124 75
94 121 72
97 124 74
98 126 76
96 123 73
96 124 75
98 125 75
92 119 71
97 124 74
166 181 176
208 217 227
205 214 223
201 211 220
207 216 225
206 216 226
206 216 225
208 217 226
200 210 218
201 212 221
213 221 230
213 221 230
204 214 222
208 217 226
210 219 229
215 223 235
213 221 230
211 220 229
199 209 216
204 213 220
202 211 220
207 217 225
210 219 227
203 212 220
206 215 224
204 214 224
212 221 231
209 219 229
203 213 222
205 214 222
102 127 83
102 129 77
97 124 75
92 119 71
95 122 73
97 125 75
94 121 72
94 121 72
97 125 75
96 123 73
96 124 74
98 126 76
96 124 75
97 124 75
93 120 71
121 142 113
143 160 143
181 194 194
203 213 221
202 212 221
209 219 229
202 213 223
209 217 227
208 218 229
207 216 225
199 210 218
201 212 222
204 214 224
208 218 229
206 215 225
102 128 82
96 124 74
96 124 74
92 119 71
97 125 76
96 123 74
100 127 76
93 121 72
94 121 72
95 123 74
96 124 75
100 128 77
99 126 75
96 123 74
97 124 75
97 125 75
99 126 75
98 125 75
95 122 72
97 124 75
97 124 74
96 124 75
96 123 74
97 125 75
93 120 71
97 125 76
98 125 76
97 124 75
96 124 75
95 122 73
190 201 205
205 215 225
202 212 221
210 219 230
190 202 209
202 212 219
202 212 220
202 213 224
199 210 219
203 214 223
205 215 224
206 216 227
204 214 223
204 213 220
212 221 229
208 217 225
208 216 224
206 216 225
200 210 219
204 214 223
212 221 230
205 215 224
201 212 223
196 207 214
209 219 229
206 216 225
203 213 220
213 222 231
213 222 231
202 212 221
149 165 149
97 124 75
94 121 73
97 125 75
98 126 75
97 124 74
97 124 74
98 126 76
97 125 75
96 123 73
96 124 75
94 122 73
99 127 77
96 123 75
95 122 73
94 121 73
96 124 74
101 129 77
96 123 73
97 124 75
105 130 85
128 148 122
145 162 145
154 170 160
183 195 196
205 215 224
210 219 229
206 216 226
193 204 209
199 209 217
130 149 127
95 122 73
94 121 73
96 123 74
96 124 74
96 123 74
99 127 77
97 124 74
98 126 76
98 125 75
99 126 76
95 123 73
97 125 75
97 123 73
97 125 75
98 126 75
95 123 73
99 126 76
98 125 75
96 124 74
95 121 72
95 122 73
98 126 76
99 127 76
98 125 75
97 124 74
94 122 73
95 122 73
96 124 75
135 154 131
208 218 230
205 214 222
198 209 216
201 210 216
209 218 226
212 220 229
202 212 220
204 214 224
209 218 227
205 215 225
207 216 225
200 211 220
200 210 218
205 214 224
207 217 225
208 217 225
212 221 230
211 220 230
207 216 226
192 203 210
201 210 218
211 220 230
208 217 227
200 210 218
209 218 227
202 213 221
201 211 218
213 221 231
172 186 184
98 125 75
97 124 74
98 126 75
93 120 72
98 125 75
94 121 72
96 124 75
95 123 73
97 124 74
97 124 74
94 121 72
98 125 75
97 124 74
99 127 76
97 124 75
95 123 73
97 124 75
96 124 74
96 124 75
96 124 74
95 122 74
101 128 76
95 122 73
96 124 75
96 123 74
98 125 74
100 128 77
124 145 118
209 218 226
210 220 230
198 208 217
210 219 227
204 213 222
203 214 225
207 216 223
200 211 219
205 214 224
208 217 226
206 216 226
205 215 224
206 215 224
201 212 221
206 216 226
204 214 223
205 215 224
202 212 221
203 213 222
205 215 223
203 212 220
205 214 223
202 212 220
206 215 225
202 213 222
206 215 224
207 216 224
100 127 82
100 127 77
96 124 74
97 124 74
94 121 72
98 126 76
97 124 74
96 124 75
98 126 75
96 123 74
98 125 74
99 126 76
96 123 74
97 124 74
94 121 73
91 118 71
92 120 71
100 128 77
97 125 76
97 124 74
96 124 74
98 126 75
96 124 74
95 122 73
97 124 74
105 130 88
203 212 218
211 220 231
204 215 225
205 215 224
207 216 225
211 219 227
209 218 226
206 216 225
205 215 226
202 212 220
211 221 231
205 214 223
199 210 219
205 214 222
209 218 228
196 207 214
203 214 223
208 217 225
208 217 225
201 210 218
198 209 217
203 213 220
208 218 227
210 219 228
193 204 212
93 120 72
97 124 75
98 125 76
94 122 73
96 123 74
94 121 73
95 122 74
99 126 75
95 122 73
93 120 72
94 121 72
97 124 75
96 124 74
100 128 77
97 124 75
94 121 72
98 125 75
96 123 73
99 126 75
98 125 75
92 119 70
95 123 74
95 122 73
181 194 195
99 127 77
112 136 101
167 180 177
202 211 218
184 196 199
97 124 74
96 123 74
96 123 74
96 124 74
96 124 74
101 128 77
98 125 75
97 125 76
97 124 75
98 125 75
95 122 73
101 129 78
98 125 75
97 124 74
98 125 75
94 121 72
97 125 75
97 125 75
97 124 75
96 124 75
96 123 74
96 123 73
100 127 76
94 121 72
95 122 73
95 123 74
96 123 74
139 158 140
203 213 221
206 216 225
198 209 217
202 211 218
203 213 223
207 216 225
204 214 223
206 215 225
200 210 219
204 213 220
200 211 219
214 223 233
197 207 214
212 221 231
199 209 217
163 178 169
119 142 111
96 123 74
96 124 75
95 123 74
95 123 74
99 126 76
96 123 74
97 125 75
94 122 73
95 122 73
98 126 75
97 125 75
165 180 173
205 214 223
205 215 226
206 215 223
205 215 224
201 211 220
208 217 226
211 219 228
210 218 227
201 211 220
209 218 226
203 213 220
200 211 217
212 221 232
208 217 226
201 212 223
204 214 224
211 220 230
208 217 228
206 215 224
206 215 225
203 212 220
206 215 225
195 206 213
205 215 225
209 219 229
203 213 224
205 214 221
209 218 228
201 211 219
95 122 73
95 122 73
95 122 73
100 128 77
99 126 76
95 123 73
94 121 73
92 118 69
95 122 73
94 121 73
95 122 72
94 121 73
96 124 74
97 124 74
96 123 73
97 124 75
95 123 74
96 123 74
105 131 88
137 156 137
171 184 180
205 214 221
203 214 223
205 214 222
202 212 221
200 209 216
204 214 223
208 218 229
202 212 221
200 210 217
95 123 74
97 124 74
99 127 77
96 123 74
96 123 74
93 120 71
95 122 74
95 122 73
96 124 74
97 124 74
97 125 74
95 123 74
98 126 75
95 122 73
97 125 76
93 120 72
98 126 75
97 125 76
94 120 72
95 122 73
94 121 73
97 125 75
96 123 74
97 124 74
96 123 74
99 127 77
97 124 75
95 123 74
97 124 74
107 132 86
209 218 228
206 216 224
211 219 229
196 207 215
207 216 226
203 213 220
206 215 223
209 219 231
209 218 227
212 220 229
207 216 227
209 218 228
201 211 221
199 210 219
203 213 223
208 217 226
210 220 231
200 210 220
204 214 222
202 212 222
210 219 230
201 210 218
202 212 222
205 214 223
206 215 223
206 215 224
214 223 235
206 216 225
211 220 230
198 208 215
108 132 93
95 123 73
97 124 75
98 125 75
98 125 75
96 124 74
94 121 72
96 123 73
96 123 74
97 125 75
97 125 75
98 126 75
99 126 76
98 126 76
97 125 76
93 120 71
92 119 72
97 124 75
99 127 76
94 121 73
93 120 72
98 125 75
96 124 74
97 125 75
95 122 73
99 126 77
131 151 128
137 155 134
162 175 167
181 193 192
124 145 115
97 125 76
94 122 72
98 126 76
96 123 73
100 128 77
99 127 76
99 127 76
96 123 74
95 122 72
95 122 73
98 125 75
97 124 74
99 126 75
94 121 73
94 122 73
97 125 75
96 123 74
99 126 76
99 126 75
97 124 74
97 125 76
90 117 70
93 121 73
95 123 74
93 119 71
94 121 73
96 123 74
94 121 73
168 182 177
204 213 220
208 217 225
205 215 224
205 215 224
200 210 219
202 212 222
206 216 226
204 214 225
209 218 225
203 213 223
202 211 217
215 223 234
212 221 230
195 206 215
205 214 223
204 214 225
197 208 218
196 207 214
205 214 221
208 217 227
201 212 221
198 208 216
205 215 225
211 220 231
197 207 214
204 213 220
209 218 229
208 217 225
131 151 131
97 124 75
94 121 72
93 120 71
99 126 76
98 125 75
94 122 73
93 120 72
95 122 73
94 121 73
98 126 76
94 122 73
95 122 73
94 122 73
96 122 73
96 123 73
92 119 71
98 126 76
96 123 74
97 125 75
94 121 72
95 122 73
94 121 73
97 124 75
94 121 72
96 124 74
95 123 74
92 120 71
181 193 190
204 213 221
207 217 227
207 217 227
203 213 221
206 217 227
199 209 216
202 212 221
208 217 226
207 217 226
208 217 226
206 215 224
209 219 229
208 217 226
202 212 221
211 219 228
206 215 223
201 211 220
205 215 225
206 215 225
212 221 232
200 211 220
205 215 225
194 205 212
208 217 226
203 214 225
207 216 226
152 168 157
98 125 75
97 125 75
95 122 73
98 125 75
98 125 75
98 126 75
98 125 75
98 126 76
96 123 73
96 123 74
99 127 77
93 120 72
93 120 72
94 121 72
95 122 73
95 123 74
96 123 74
96 123 74
96 122 73
94 121 72
98 125 74
98 125 75
93 119 71
96 123 74
96 123 74
162 176 167
203 213 224
210 219 228
209 218 228
203 213 221
205 215 223
212 220 229
206 215 224
210 219 230
205 215 225
207 216 225
199 209 218
208 218 228
202 212 221
203 213 222
210 220 231
204 214 224
199 209 216
204 213 220
203 213 221
200 211 220
200 210 219
202 212 221
196 207 214
200 210 221
122 144 117
91 118 71
95 122 73
98 126 76
97 125 75
99 127 76
99 126 75
98 126 76
97 124 75
97 125 75
94 121 72
94 121 72
97 124 74
98 126 76
98 126 76
98 126 76
92 119 72
97 124 75
97 124 74
97 124 74
98 125 75
96 123 74
96 123 74
148 164 150
208 217 224
97 125 75
96 123 75
96 123 74
103 127 88
140 159 143
123 145 117
95 122 73
95 122 73
98 126 75
97 125 75
87 113 67
97 125 75
96 123 74
100 127 77
97 124 75
95 122 73
94 122 73
99 127 76
96 124 75
98 126 75
96 123 74
95 122 73
94 122 73
96 123 74
96 123 74
97 125 75
94 122 73
100 127 76
96 124 75
98 126 76
98 126 75
97 124 75
137 156 138
212 220 229
207 216 225
204 214 225
208 217 226
207 217 227
202 210 217
204 215 225
197 207 216
207 216 224
202 213 221
206 216 225
202 212 220
203 213 222
202 211 219
200 210 218
208 217 225
209 218 227
186 198 200
141 160 143
96 122 76
95 123 74
97 124 74
97 124 74
96 124 75
95 122 73
98 126 75
97 125 75
96 123 74
159 175 166
208 218 228
210 220 231
202 212 221
207 217 225
211 220 229
202 212 221
203 213 224
209 220 231
193 204 212
202 212 222
209 219 228
201 211 219
206 215 225
210 219 230
206 216 228
206 215 224
204 213 222
202 213 222
207 216 223
198 208 217
200 209 215
206 216 226
204 213 222
200 210 218
204 213 222
200 211 220
212 222 232
209 217 225
189 201 204
94 122 73
96 124 74
99 126 75
96 123 74
93 120 72
97 125 75
99 126 76
97 125 76
101 128 77
98 126 75
98 125 75
96 124 75
96 124 74
98 125 75
96 124 74
95 122 73
96 124 74
99 127 76
95 123 73
98 126 76
94 122 73
95 122 76
121 142 111
164 178 169
193 204 207
199 209 218
202 212 222
199 210 220
210 219 227
182 195 194
98 125 75
96 123 74
100 127 77
96 123 73
96 124 75
96 124 74
97 124 74
97 125 76
99 126 75
96 124 74
101 129 77
96 123 74
96 123 74
95 122 73
97 125 75
97 124 75
100 127 77
95 121 72
94 121 73
94 121 72
98 125 75
99 126 76
97 125 75
96 123 74
97 125 75
97 125 76
96 124 74
95 123 74
96 123 74
124 145 119
203 213 223
202 211 219
199 209 218
203 214 222
200 210 218
203 212 217
211 220 230
211 220 230
205 215 224
205 215 226
205 216 226
202 213 222
202 212 220
201 212 220
203 213 223
204 214 223
197 208 216
205 215 225
201 211 219
205 214 223
204 214 223
198 208 215
208 218 229
203 213 220
209 219 230
204 214 220
205 215 225
205 214 222
206 216 226
189 200 204
98 126 75
98 125 75
95 122 73
95 123 74
97 125 75
99 127 76
96 124 75
94 122 72
97 125 74
98 126 75
95 123 74
95 123 73
98 125 75
96 123 73
95 122 73
98 125 75
94 122 74
95 123 74
96 124 74
94 121 73
100 128 77
97 124 74
97 125 75
95 122 73
95 122 74
92 119 71
100 127 77
96 124 75
96 124 75
138 155 135
207 216 224
212 221 232
190 202 204
178 192 192
157 173 162
135 154 132
117 140 108
96 124 75
95 122 73
96 122 73
97 124 74
95 123 74
97 125 75
94 121 73
93 120 72
97 124 74
96 123 73
97 125 75
96 124 74
97 125 75
94 121 72
98 126 76
96 123 74
93 120 71
99 126 76
98 126 76
97 124 74
94 121 73
106 132 89
194 205 210
205 216 227
204 213 221
208 217 225
204 214 224
205 215 223
210 219 229
204 214 224
200 211 220
201 211 219
198 208 215
204 214 223
202 212 218
207 216 225
208 217 226
206 216 224
211 220 229
209 218 227
201 211 219
203 213 222
205 214 224
208 216 224
212 221 232
203 213 221
213 221 231
202 213 222
203 214 225
206 215 223
193 204 207
94 122 73
98 125 75
95 122 73
95 123 74
97 125 75
96 123 74
98 126 76
98 125 75
99 127 76
99 127 76
97 125 75
95 122 73
99 127 76
96 123 74
96 123 74
96 123 74
98 125 75
94 120 72
95 122 73
94 121 73
95 122 74
99 127 76
94 122 73
96 124 74
94 121 72
96 124 74
99 126 75
110 135 99
206 216 225
197 207 213
201 211 220
206 216 226
204 214 223
204 214 224
196 206 214
208 218 229
205 216 225
205 214 224
203 213 221
208 218 228
202 213 222
207 217 226
203 213 222
208 217 226
198 208 216
207 217 227
210 219 228
209 218 227
207 217 226
207 216 226
212 221 229
204 213 221
204 214 225
204 213 222
200 210 216
96 123 74
97 124 74
97 124 74
96 124 74
97 124 74
99 127 77
96 124 75
98 126 76
97 125 74
96 123 74
98 125 76
98 125 75
96 123 74
98 126 76
99 126 76
95 122 73
94 122 73
94 122 73
96 123 75
94 121 72
96 124 74
98 126 76
97 125 75
98 125 75
94 121 72
120 142 113
204 214 222
203 214 224
203 213 222
208 217 225
199 209 216
208 217 227
209 219 230
204 215 224
212 222 233
206 215 223
207 216 224
199 210 219
202 212 222
208 217 226
204 213 221
207 216 226
207 216 224
210 219 227
210 219 229
207 217 226
201 210 218
203 213 223
203 213 223
208 218 229
169 183 178
96 123 74
93 120 72
97 125 74
100 128 77
96 124 74
99 126 76
95 123 74
95 122 73
97 124 75
98 126 75
98 125 74
96 124 74
98 125 76
100 127 76
97 124 75
97 124 74
96 123 73
96 123 73
98 125 75
96 123 74
98 126 75
99 127 77
116 139 104
199 209 217
202 212 221
96 124 74
96 123 75
96 123 74
96 124 75
94 121 73
202 212 218
181 193 192
133 151 132
97 124 77
92 120 72
99 126 76
98 125 75
96 123 74
100 127 77
97 125 74
96 124 74
97 125 75
98 125 75
100 128 77
100 128 77
96 123 74
97 124 74
96 123 72
98 125 75
97 125 75
98 126 75
98 126 76
94 122 73
94 121 72
96 124 74
100 128 77
97 124 74
121 143 111
213 221 231
210 219 229
207 216 225
206 216 226
212 220 228
202 213 223
206 216 225
209 219 230
208 218 229
207 216 224
207 217 226
199 210 218
205 215 225
199 209 216
203 214 225
208 217 227
205 214 224
207 216 225
197 208 216
198 208 214
177 190 189
138 156 135
93 121 72
98 126 75
95 123 73
90 117 70
101 128 77
97 124 74
160 175 168
206 217 227
206 216 225
201 212 220
206 215 224
207 217 227
201 212 221
209 218 227
207 217 227
203 213 221
209 218 228
209 219 230
204 214 223
209 219 229
201 211 218
204 214 223
198 209 217
210 219 228
210 219 228
210 219 228
203 213 222
206 216 226
205 214 223
205 215 225
209 219 228
204 214 224
206 216 225
201 211 218
207 217 227
196 206 212
97 125 75
99 126 76
96 124 74
94 122 73
97 125 75
95 123 74
97 124 74
95 123 74
97 125 75
94 121 72
91 117 69
97 124 74
93 119 71
95 122 73
97 125 74
95 122 73
97 124 74
99 127 77
98 125 75
95 122 73
94 121 73
93 120 72
96 123 74
94 121 73
94 121 72
121 142 114
162 177 166
182 194 194
207 217 227
168 182 179
97 124 74
99 126 75
95 122 73
95 123 74
97 124 75
98 125 75
95 122 73
97 124 74
94 122 73
95 123 74
96 123 74
98 126 76
99 126 76
98 126 76
98 126 76
96 123 74
95 123 74
93 120 72
99 126 76
97 124 75
97 124 75
97 124 74
96 123 74
97 125 75
93 120 72
95 122 73
95 122 72
94 122 73
95 122 73
155 170 160
213 221 231
202 213 222
203 212 219
202 212 222
202 212 220
207 217 226
198 209 216
198 209 218
203 213 221
199 209 219
204 213 222
206 216 225
203 213 222
208 217 226
210 218 226
207 217 226
205 216 227
209 219 231
202 212 220
206 216 226
203 213 222
207 217 227
204 214 223
207 216 224
208 218 227
209 218 226
200 211 218
200 210 217
204 214 224
167 182 178
98 126 76
97 124 75
96 124 75
94 121 73
95 123 74
97 125 75
97 125 75
98 125 75
96 123 74
94 122 73
94 121 72
97 125 76
93 120 72
97 125 75
99 126 76
98 126 75
96 123 74
94 120 71
95 122 73
96 124 74
99 126 76
97 124 75
97 125 74
96 123 73
98 125 75
96 123 74
94 121 72
97 124 74
98 126 76
176 189 187
205 215 225
205 215 222
200 210 219
205 215 224
202 213 222
203 212 219
196 206 212
200 210 217
191 203 208
168 182 178
159 174 163
135 155 134
110 134 98
97 123 79
93 120 72
100 127 77
97 124 74
95 123 74
95 122 73
95 123 73
96 124 75
96 123 73
94 121 73
95 122 72
92 119 71
98 125 75
96 124 74
93 120 72
131 151 131
211 221 232
203 213 222
207 216 225
203 213 223
211 221 231
209 218 228
204 214 222
210 219 230
206 215 223
204 214 222
203 213 222
208 217 225
199 211 220
207 217 227
199 209 215
203 213 221
211 219 227
204 213 219
205 215 224
205 215 223
198 209 215
204 214 225
201 212 222
205 214 222
205 214 221
212 221 232
201 212 220
207 217 228
157 171 158
95 123 74
96 124 74
95 122 73
98 125 75
97 124 74
95 122 73
98 125 75
98 125 75
97 125 76
100 128 77
95 122 74
98 126 76
93 121 73
97 124 74
95 123 74
94 121 72
98 125 75
96 123 74
94 121 72
94 121 73
95 122 73
97 124 75
97 124 75
98 125 75
97 125 75
98 125 75
97 125 74
168 182 177
208 217 227
203 213 223
209 218 227
214 223 233
202 212 221
205 215 224
206 216 227
205 214 223
204 215 227
209 219 230
204 214 224
202 212 221
207 216 225
204 214 223
207 217 227
202 212 224
210 219 229
208 217 227
207 216 224
206 216 225
198 208 217
199 210 219
200 210 217
207 216 226
204 214 222
209 218 227
145 163 151
94 121 72
98 126 76
93 120 71
95 122 74
93 121 73
95 122 73
96 123 74
99 127 76
98 126 76
93 120 72
95 122 73
97 124 74
97 125 75
100 128 77
100 128 77
94 121 72
97 124 75
95 122 73
97 125 75
96 123 73
97 124 74
95 122 73
95 123 74
95 122 73
97 124 74
194 205 210
202 211 219
207 217 226
204 213 223
205 215 224
202 212 221
208 217 226
208 217 227
209 218 228
200 211 220
212 221 231
209 219 229
207 216 227
203 212 219
203 213 222
206 216 226
206 216 226
203 213 222
209 219 231
205 216 226
204 214 222
205 215 224
198 209 219
209 219 230
197 208 215
107 132 88
95 122 73
99 126 76
95 123 74
99 126 76
98 126 76
98 126 76
98 126 76
94 121 72
98 125 75
96 123 73
98 125 75
97 124 74
96 124 75
94 122 73
94 121 73
95 122 72
94 121 72
100 127 76
99 126 76
96 123 74
94 121 72
97 125 75
183 195 196
208 217 225
208 216 224
95 123 73
96 123 74
99 127 76
97 123 73
94 121 72
194 205 208
207 216 224
204 214 225
194 205 210
153 169 152
98 124 79
97 124 74
96 123 74
99 127 76
97 124 75
94 122 73
95 123 74
94 121 73
95 122 72
98 125 75
95 122 73
96 123 73
97 125 75
94 121 73
99 127 76
99 126 76
96 124 75
97 124 74
97 124 74
95 123 73
96 123 73
98 126 76
105 130 87
204 215 224
206 215 224
205 215 224
204 214 223
200 209 217
201 212 220
205 215 224
205 215 226
206 216 227
202 211 220
201 211 218
217 225 235
205 215 223
207 215 222
211 220 228
202 211 218
208 218 228
196 206 214
206 215 225
205 215 225
207 216 224
211 220 231
192 203 206
163 177 169
121 142 112
94 121 72
96 123 73
99 126 76
155 171 161
205 215 223
212 220 229
206 216 226
206 215 225
202 213 221
200 210 220
207 216 226
204 213 223
202 212 221
205 215 223
203 213 221
200 209 216
204 215 225
206 216 224
210 219 227
203 213 220
206 215 223
211 220 231
209 219 229
194 205 211
213 221 230
195 206 212
204 214 223
203 212 221
208 217 226
207 217 226
207 217 227
208 218 227
181 194 196
100 127 77
96 124 75
94 121 73
97 124 75
96 123 74
95 122 73
97 125 76
95 122 73
96 124 74
97 125 75
99 126 76
94 121 71
95 123 74
95 122 73
95 122 72
94 121 72
96 123 73
99 127 76
95 122 74
97 124 75
96 123 73
93 120 72
95 122 73
96 123 74
99 126 76
96 124 74
96 124 75
97 125 75
101 126 83
144 160 147
158 174 165
102 128 84
98 126 76
97 124 75
99 127 77
95 122 72
95 123 74
98 125 75
92 119 71
97 124 75
91 119 71
97 125 76
96 123 74
97 125 75
95 122 73
98 125 75
97 123 74
95 122 73
95 122 74
98 126 76
97 125 75
98 125 75
97 124 74
94 121 72
98 125 75
96 123 73
95 123 74
95 122 74
96 123 74
147 164 150
207 215 223
203 213 222
208 218 227
205 215 223
206 216 225
209 219 229
199 209 217
203 213 220
195 206 214
206 216 225
199 209 218
205 215 223
213 221 230
207 217 227
209 219 230
198 208 215
207 218 229
198 209 217
203 212 221
206 215 224
203 213 222
208 218 230
202 212 220
202 212 219
203 213 222
199 209 217
201 212 222
207 217 226
209 218 228
153 169 156
93 120 72
98 126 75
95 123 74
97 125 75
95 122 73
96 123 74
94 121 72
97 125 75
97 125 75
96 123 74
96 124 75
95 123 73
94 122 74
94 122 73
96 123 74
96 124 75
95 122 73
96 124 75
96 123 74
99 127 76
94 121 73
97 125 75
96 124 75
98 125 75
97 124 75
96 124 75
96 124 75
96 124 75
99 126 79
196 207 214
205 214 224
200 209 218
206 215 225
206 217 228
202 212 221
206 216 224
213 221 229
203 213 220
202 211 219
207 216 226
206 215 224
208 217 226
198 209 216
208 217 225
199 210 216
174 187 184
160 175 168
140 158 140
130 150 128
105 130 90
97 123 76
95 123 74
98 125 75
99 126 76
95 123 74
95 122 73
95 122 73
96 124 74
173 187 184
204 213 221
201 212 221
202 211 219
206 214 221
208 217 227
210 220 230
204 214 222
200 211 220
207 217 226
201 212 221
209 218 228
205 214 224
213 221 231
208 217 227
207 217 227
209 219 229
201 211 220
203 212 220
209 218 226
203 212 221
205 216 227
198 209 217
209 217 224
197 207 214
205 215 224
203 214 224
202 212 221
195 207 216
107 132 95
99 126 76
97 125 75
95 122 73
95 123 74
92 119 71
96 124 75
94 122 73
95 122 73
96 123 74
98 125 75
96 123 74
97 125 75
96 123 74
96 123 74
96 123 73
94 121 72
95 122 74
96 123 74
95 123 73
97 124 74
97 125 76
95 123 73
96 123 74
93 121 72
100 128 77
96 124 74
110 134 98
194 205 212
203 213 223
203 213 222
204 213 221
203 213 222
204 214 223
206 216 226
212 221 231
200 211 219
201 212 221
202 212 220
203 213 223
207 217 230
205 215 224
200 209 216
207 216 224
201 210 217
210 219 229
203 213 220
197 207 212
203 213 221
208 218 229
202 212 221
203 214 224
204 214 224
209 218 227
189 201 206
98 125 77
95 122 73
97 125 75
94 121 72
98 126 76
99 127 77
98 126 75
95 123 73
98 126 76
96 123 74
99 127 76
98 125 75
96 124 75
99 127 76
95 122 74
97 124 74
97 125 76
95 123 74
97 124 75
94 121 72
98 125 75
95 122 73
96 124 75
92 119 71
97 124 74
128 148 120
213 221 230
206 215 224
204 214 221
206 216 226
204 214 222
206 215 223
213 221 231
190 201 207
200 210 216
198 209 217
206 215 223
203 213 221
197 209 218
207 216 225
200 210 219
210 219 230
209 218 226
204 213 221
207 217 228
207 217 229
201 212 221
205 215 224
203 212 221
202 212 220
122 144 116
97 125 75
96 123 74
100 128 77
98 125 75
96 122 73
96 123 73
99 126 75
96 123 74
99 127 76
97 125 75
95 122 74
96 123 73
97 125 75
97 124 74
98 126 76
98 125 74
96 124 74
98 126 76
96 123 74
95 123 74
94 122 74
96 124 75
143 161 143
205 214 224
208 218 227
205 215 224
95 122 73
97 125 76
98 125 75
99 127 77
97 125 75
175 189 187
204 215 225
206 215 224
201 212 221
208 218 228
200 210 219
164 178 171
129 149 126
96 123 74
100 128 77
97 124 74
94 121 72
95 122 73
97 125 76
98 126 75
95 123 74
97 125 75
97 124 74
92 120 72
97 125 76
95 123 74
94 121 73
96 123 74
96 124 74
96 124 74
99 126 76
95 122 73
96 123 76
201 211 220
206 216 225
207 216 225
202 211 220
199 209 217
205 214 222
199 209 217
209 218 228
204 214 223
201 212 221
199 210 218
201 211 219
209 218 226
206 216 226
207 216 225
214 222 231
203 213 221
207 216 224
207 217 228
205 214 223
203 214 224
201 212 221
201 211 218
204 214 224
206 216 224
190 201 204
154 169 158
112 136 97
153 168 157
200 211 219
203 214 224
203 214 223
200 210 218
205 214 222
202 212 222
199 209 216
206 216 225
209 218 226
211 219 229
200 210 219
207 216 225
207 217 226
208 218 229
209 219 229
204 214 224
202 212 220
204 214 223
198 209 217
210 219 228
209 218 229
199 209 216
210 219 228
206 216 225
206 216 225
201 210 219
197 208 213
199 209 216
179 192 189
95 122 73
97 124 75
98 125 76
97 125 75
95 122 73
94 122 73
97 125 75
94 121 73
94 122 73
94 121 72
95 122 73
96 123 74
92 120 72
98 125 75
94 122 73
96 123 74
95 122 73
96 124 75
97 124 74
98 125 74
95 123 74
97 124 74
96 124 74
94 121 73
96 123 73
91 118 71
96 124 74
96 123 74
96 123 73
174 187 185
208 217 226
208 218 227
187 199 206
177 190 185
128 148 121
101 127 83
97 124 74
93 120 72
98 125 75
97 125 75
96 123 73
96 123 74
97 124 74
96 123 74
96 124 75
96 122 73
96 123 74
99 126 76
99 126 76
97 125 75
93 120 72
97 124 75
96 123 74
94 121 72
98 125 75
98 125 75
97 124 75
97 124 75
94 121 72
180 192 190
203 212 220
206 215 223
206 215 224
203 213 220
207 217 229
209 218 228
207 217 226
203 214 224
201 211 219
196 207 215
205 215 224
201 211 220
201 212 221
208 218 230
206 216 225
209 219 229
201 212 221
205 214 221
207 216 227
201 211 219
209 218 227
196 206 212
199 209 218
211 220 229
204 215 225
202 211 217
208 217 227
204 214 222
203 213 222
104 130 90
90 117 70
97 124 74
98 125 76
96 123 74
97 124 75
93 120 71
94 121 73
100 127 76
98 126 76
99 127 77
94 122 74
96 123 73
97 125 75
96 123 74
97 124 73
94 121 72
96 123 74
96 124 74
98 125 75
99 127 76
94 121 73
97 123 74
98 126 76
98 125 75
100 127 77
97 124 75
95 122 73
95 122 73
137 156 135
208 218 227
207 218 228
198 209 216
204 214 223
203 213 221
205 215 225
207 216 224
210 220 230
199 209 217
201 210 217
207 217 227
199 209 216
204 213 221
201 211 218
204 214 224
208 217 225
199 208 216
203 213 222
207 216 224
205 215 225
209 219 229
197 208 214
188 199 200
172 186 184
163 177 170
152 169 157
126 145 120
114 139 101
107 131 90
208 217 225
206 215 225
207 217 228
212 221 230
208 217 227
194 204 210
206 214 222
203 213 223
199 208 214
197 208 216
209 218 226
204 215 225
199 210 219
211 220 229
203 213 222
208 217 225
206 216 225
203 213 222
204 215 224
209 218 228
210 220 230
202 212 222
203 212 218
207 217 227
200 210 216
199 210 219
201 211 219
210 219 231
165 179 175
96 124 74
98 126 76
95 123 73
99 126 76
97 124 75
97 124 74
95 122 74
97 124 74
98 126 75
94 121 72
99 127 77
97 124 75
94 122 72
97 124 74
94 121 72
96 123 74
98 126 75
97 124 75
99 126 76
96 124 74
97 124 74
97 124 74
96 123 73
98 125 75
94 122 73
97 124 74
95 123 73
171 184 181
209 218 228
204 213 221
202 211 222
206 216 224
204 215 224
208 217 225
208 217 226
204 214 224
204 214 222
205 215 223
205 214 223
208 217 227
210 219 228
206 215 224
200 209 216
201 212 221
201 211 220
200 211 220
201 211 219
204 213 222
205 214 221
206 217 229
203 213 221
206 217 227
204 214 224
207 216 225
137 156 134
96 123 73
95 122 74
93 120 71
97 124 75
94 122 73
96 123 74
100 128 76
95 123 73
93 120 71
96 123 74
93 120 72
93 120 71
94 121 72
99 126 76
95 122 73
101 129 78
98 125 75
98 125 75
95 121 72
96 123 74
97 124 74
99 126 76
90 116 69
95 123 74
101 127 84
185 197 200
201 211 220
208 216 224
203 213 222
196 207 215
207 217 229
204 213 222
206 215 225
206 215 224
205 215 224
207 217 227
201 211 221
204 215 226
204 213 223
201 210 220
203 213 221
204 213 221
207 216 224
201 211 221
191 203 213
206 215 224
205 214 223
201 211 220
208 216 225
177 190 188
95 122 73
93 121 73
93 120 73
94 122 73
96 124 75
97 124 75
95 122 73
98 126 76
97 125 75
98 125 75
97 124 75
97 125 75
94 121 73
94 121 72
97 125 75
97 125 75
94 121 72
96 123 74
99 127 77
94 122 74
97 125 75
93 120 71
113 135 104
210 219 228
203 213 222
201 211 217
205 214 223
98 125 75
96 123 73
95 123 74
98 126 76
96 123 74
150 167 155
204 212 218
211 220 232
206 214 223
211 221 232
200 210 220
210 218 227
213 221 231
186 198 200
141 160 141
97 123 77
95 122 72
94 122 73
97 124 74
95 122 73
98 126 75
94 121 72
95 122 73
94 122 73
93 121 73
94 121 72
99 127 77
100 127 76
96 123 73
97 124 74
95 123 74
97 124 74
96 124 74
201 211 218
207 217 226
199 209 216
204 213 221
208 217 226
207 216 224
211 220 229
211 220 230
207 216 226
202 212 221
203 212 219
199 209 217
211 221 231
194 204 211
202 211 218
202 212 221
201 211 221
205 215 224
203 213 219
204 214 222
209 218 229
205 216 226
206 216 228
202 212 222
206 215 225
204 214 224
206 216 225
208 216 225
177 190 188
171 185 179
202 212 220
208 217 227
205 215 226
211 220 230
202 212 220
205 215 225
205 215 225
208 217 228
193 204 210
206 215 223
200 210 217
204 214 222
209 218 228
206 215 222
205 214 223
207 217 225
208 217 227
209 218 226
204 214 223
205 215 225
200 210 217
207 216 226
203 212 221
210 219 228
208 218 230
205 215 224
205 215 223
177 190 188
93 120 72
99 126 76
98 126 75
97 125 75
98 126 76
96 123 74
95 122 73
93 119 71
98 126 76
102 130 78
97 125 74
95 122 73
100 127 76
92 119 70
97 124 74
95 123 74
91 117 70
97 124 74
97 124 75
97 124 74
97 123 73
96 123 73
98 126 75
96 123 74
97 124 75
95 122 73
96 123 74
96 123 74
94 122 73
182 195 198
202 212 220
203 214 223
205 215 222
202 211 219
208 218 229
199 209 216
188 199 202
138 157 138
109 133 97
94 121 72
98 125 75
95 122 73
95 122 73
97 125 76
98 126 77
95 123 73
92 119 71
94 122 73
98 125 75
94 121 72
97 124 74
97 125 75
96 124 74
97 124 75
93 120 71
93 120 71
100 127 77
100 128 77
95 123 73
197 207 214
202 213 223
213 222 232
204 213 223
201 211 218
206 215 223
199 208 214
202 212 221
212 221 233
203 212 221
211 221 230
202 211 218
200 210 219
205 215 223
208 218 227
201 211 220
208 217 226
207 217 227
204 213 219
205 215 225
205 215 226
209 218 228
211 219 229
201 211 219
204 214 224
205 215 225
205 216 226
207 217 227
207 217 228
194 204 209
94 121 72
95 122 74
94 122 72
96 124 75
97 124 74
97 125 75
96 124 75
96 124 75
97 125 75
94 120 72
98 126 75
92 120 72
94 121 73
96 123 73
96 124 75
97 124 75
97 124 74
95 122 74
96 124 75
97 124 74
96 124 74
94 121 72
98 126 76
95 123 74
96 124 75
96 123 74
95 123 74
96 124 74
96 124 74
169 183 180
204 214 223
211 220 231
208 218 229
201 211 218
201 212 221
203 212 220
209 218 228
200 210 219
204 213 222
199 209 216
209 218 229
209 219 229
199 210 219
200 210 220
200 209 215
201 212 222
208 217 227
205 215 225
205 214 225
201 211 221
198 208 216
195 206 213
210 218 228
203 213 224
203 213 221
204 214 224
199 209 217
204 212 218
171 185 181
118 141 112
133 152 132
155 171 164
159 173 168
178 191 191
186 198 204
199 209 217
204 214 221
202 212 221
204 213 221
211 219 228
212 221 232
201 212 221
208 218 228
200 210 219
202 212 220
205 214 223
207 217 227
202 212 220
210 219 229
195 206 213
200 210 218
204 213 220
200 210 219
210 219 229
201 212 221
208 218 229
214 222 231
125 146 122
97 124 74
96 123 74
95 122 73
97 125 75
99 126 76
95 123 74
96 123 74
95 122 73
93 120 72
96 123 74
95 123 74
98 125 75
97 125 74
98 125 75
96 124 75
97 124 74
97 125 75
99 126 76
97 124 74
97 124 74
97 124 74
97 124 74
96 123 75
97 124 74
96 123 74
94 122 73
118 140 107
199 208 214
208 217 225
210 219 229
201 212 222
210 219 229
195 206 214
210 220 230
207 216 224
205 215 225
211 220 229
204 214 222
205 215 224
210 219 229
208 217 226
201 211 219
195 206 215
204 213 223
206 215 223
209 219 229
202 213 223
206 216 226
201 211 218
197 207 213
203 213 219
204 214 224
205 215 225
186 197 198
97 124 74
94 121 73
97 124 75
97 125 76
98 125 75
99 126 76
98 126 76
97 124 74
92 118 71
92 119 71
94 121 72
95 122 73
92 120 72
98 126 76
96 123 74
96 123 73
97 124 75
97 124 74
93 120 71
97 124 74
97 124 75
94 121 73
98 126 76
94 121 72
95 123 74
161 176 169
203 214 225
201 211 220
198 209 217
201 211 219
197 207 214
202 211 218
212 221 232
210 219 227
211 219 227
192 203 210
209 217 225
209 218 228
203 212 220
209 218 227
204 214 224
205 215 223
206 216 226
208 218 227
207 217 227
204 214 222
206 216 226
199 210 219
198 208 216
197 208 215
109 134 96
95 123 73
94 122 73
100 128 77
98 126 76
96 124 74
95 122 73
97 125 75
94 121 72
96 123 74
96 123 74
97 125 75
99 126 76
101 128 77
96 124 75
95 122 73
95 122 73
98 125 75
95 122 73
97 125 74
96 123 74
114 137 104
130 151 125
156 173 161
161 176 166
141 159 143
123 144 115
108 133 92
96 123 74
95 123 74
97 124 75
93 120 72
95 123 74
145 163 147
205 214 222
200 211 221
202 212 222
204 214 224
202 212 221
204 214 223
206 215 223
200 210 217
202 212 220
191 202 205
146 164 149
108 132 93
95 122 73
98 126 76
94 122 74
99 126 76
96 123 74
98 125 75
95 122 73
93 120 72
97 125 75
98 125 75
94 121 72
96 123 74
94 121 72
94 121 72
92 119 71
192 204 210
204 214 223
199 209 216
208 217 226
205 215 225
200 211 220
207 217 226
204 215 225
210 218 226
198 208 216
201 212 221
205 215 223
210 220 231
206 215 224
199 209 217
205 215 224
202 212 221
207 216 224
205 214 222
196 206 213
200 210 217
207 217 228
207 216 224
203 213 222
209 217 225
196 206 212
209 219 229
196 206 214
165 179 173
95 123 74
112 136 101
141 159 148
180 193 192
201 211 219
205 215 225
205 215 225
201 211 219
210 220 232
209 218 228
204 214 223
198 208 214
204 214 224
202 212 218
203 213 222
206 217 227
198 208 217
203 213 222
207 216 225
208 219 232
203 213 222
204 214 223
207 216 226
203 213 220
207 217 227
205 215 223
204 214 222
212 221 230
176 189 188
95 122 74
98 126 75
95 122 73
96 123 73
98 125 75
96 123 74
97 124 75
95 123 75
96 123 74
99 126 76
98 126 76
96 123 74
95 122 73
93 121 73
92 119 71
94 121 73
97 124 75
96 124 75
95 122 73
95 122 73
96 123 74
100 127 76
96 123 74
97 124 74
97 124 75
92 119 70
96 123 74
97 125 75
95 122 73
191 201 203
207 216 225
211 220 231
207 217 227
213 222 233
205 215 225
211 220 231
208 218 228
209 218 229
202 213 222
187 198 202
162 177 170
143 161 143
101 128 81
97 125 75
95 123 74
97 125 75
95 122 73
96 124 74
97 124 75
95 122 73
97 125 75
97 125 76
91 118 70
97 124 74
95 122 72
96 124 75
93 120 71
96 123 74
110 133 97
200 210 218
199 210 218
207 216 227
201 211 218
208 218 227
203 213 221
205 215 223
201 212 222
206 216 226
198 208 215
205 215 223
196 207 215
211 221 231
210 220 230
204 213 221
203 213 222
207 217 228
209 218 227
212 221 231
196 207 215
203 213 221
201 211 220
200 210 219
201 211 217
212 221 229
210 219 230
205 215 226
206 215 224
205 214 222
172 186 182
97 124 74
94 121 73
94 122 73
97 124 74
97 124 74
99 127 77
97 124 75
97 124 74
99 126 76
96 123 74
97 125 75
96 123 73
96 123 74
96 123 74
95 122 74
98 126 76
98 126 76
97 124 74
95 122 73
100 127 77
98 125 75
101 128 77
96 124 75
95 123 74
98 126 76
94 122 73
96 124 75
98 125 75
96 123 74
197 207 215
208 218 228
204 214 224
200 208 215
207 217 228
211 220 231
199 209 218
203 213 224
203 212 220
197 208 216
209 218 227
202 213 223
205 215 225
209 218 228
207 216 224
206 216 225
212 221 230
205 216 225
204 214 222
208 217 226
200 210 217
202 212 223
206 216 224
205 215 223
206 215 223
209 218 228
203 213 221
203 213 221
202 212 222
131 150 128
96 123 74
97 124 75
96 124 75
95 122 73
96 123 74
90 117 70
96 123 73
101 126 85
108 134 94
146 163 147
147 164 148
151 166 156
167 182 176
194 205 209
180 192 193
204 214 224
200 211 221
206 217 227
205 214 223
199 210 217
212 221 231
208 218 229
208 217 225
198 209 219
202 212 220
202 212 221
203 214 225
173 187 187
94 121 72
96 123 73
96 123 74
96 124 75
96 124 74
93 121 72
96 123 74
98 126 76
96 123 74
97 124 74
98 125 75
94 122 73
94 121 73
98 125 75
98 126 76
94 121 72
98 126 76
99 127 76
97 124 75
96 123 74
94 121 72
94 121 72
98 125 75
96 123 74
96 123 74
99 127 76
98 125 74
158 174 165
202 212 221
204 214 221
209 218 228
206 215 224
206 215 225
203 213 221
200 211 220
202 211 220
205 215 224
204 214 222
198 209 216
205 215 225
194 205 215
206 216 225
201 210 217
202 211 219
205 215 225
201 210 218
203 213 223
203 213 222
203 213 222
203 213 223
204 213 221
202 213 223
208 218 229
201 210 217
137 156 135
97 125 74
96 123 74
97 124 74
95 123 74
97 125 75
99 127 77
96 123 73
97 124 75
95 122 73
97 125 75
94 120 72
92 120 71
94 121 72
98 125 75
99 126 75
97 124 75
98 126 76
98 126 76
96 123 74
96 123 74
96 124 75
94 121 72
98 125 75
98 126 75
119 141 111
211 220 229
205 215 223
204 214 224
208 217 225
201 211 217
197 208 217
209 219 231
210 219 228
204 214 226
203 213 222
195 206 214
203 213 220
207 217 226
203 213 221
209 218 226
205 215 225
204 214 224
203 213 221
207 216 226
201 211 220
205 214 224
202 212 220
202 212 222
200 210 218
143 161 146
94 121 72
96 123 74
95 123 74
96 124 74
98 126 77
99 127 76
100 128 77
92 119 70
96 123 74
96 124 74
96 122 73
97 124 74
103 128 89
124 145 118
135 153 132
155 171 159
165 180 173
168 181 177
179 191 189
192 203 207
211 220 228
208 218 229
160 175 165
96 123 73
97 124 74
95 122 73
95 122 72
98 125 76
98 126 76
98 126 76
98 125 75
99 126 76
98 126 76
119 141 110
204 214 223
193 205 213
202 212 220
203 212 219
210 218 228
198 209 217
206 216 226
205 214 220
203 213 222
200 209 217
211 220 230
206 216 225
169 183 178
138 157 138
97 124 74
95 122 73
93 121 72
97 125 75
95 122 74
96 123 73
95 123 74
98 125 76
96 123 74
96 123 74
96 123 74
93 120 72
98 126 75
183 195 195
204 214 223
206 216 226
204 214 222
200 210 216
208 218 229
200 211 220
200 211 219
205 215 225
211 219 228
203 213 221
207 217 226
195 206 214
206 216 225
210 218 227
203 212 220
205 215 224
203 213 221
207 216 226
206 216 224
204 215 226
203 214 225
199 209 214
204 214 222
206 215 223
207 216 226
208 218 227
204 214 223
162 178 169
96 123 74
100 127 77
89 117 70
96 124 74
110 134 96
157 173 164
189 200 202
206 216 225
206 216 227
211 220 230
205 215 224
209 218 226
204 215 224
205 214 222
204 214 222
203 213 222
206 216 226
202 213 224
202 212 219
198 209 219
201 212 222
202 212 220
202 212 220
200 211 220
200 211 221
204 214 223
195 206 212
205 215 224
171 184 180
98 125 75
99 127 75
95 122 72
94 121 73
96 123 74
97 124 74
96 124 75
96 123 74
97 124 75
98 125 75
96 124 74
97 124 74
96 123 73
97 125 76
97 124 74
96 123 74
96 123 74
95 122 73
99 127 76
94 121 72
96 123 74
97 125 75
96 124 75
95 123 73
96 123 74
98 125 76
94 121 72
98 125 75
100 127 78
210 219 229
204 214 224
204 214 224
206 216 225
203 214 224
203 213 223
209 218 229
209 219 228
207 216 227
202 212 221
196 207 217
205 214 222
205 215 226
207 217 226
180 193 194
157 173 163
133 152 129
101 128 79
97 125 76
95 123 74
96 124 74
98 126 76
95 122 73
96 123 73
96 123 74
96 123 74
96 123 74
97 125 75
96 123 74
127 147 123
205 214 221
202 212 222
205 215 223
204 213 221
205 216 226
205 215 223
207 217 227
205 214 222
201 211 220
202 212 221
206 216 225
208 218 229
204 213 221
201 211 218
200 210 219
207 216 225
208 217 226
204 213 220
203 212 220
207 216 225
201 211 218
208 218 229
208 217 227
203 213 223
207 217 226
207 216 226
205 215 225
205 215 224
214 223 233
141 160 144
98 126 76
97 125 76
93 120 71
95 122 73
96 123 74
93 121 72
97 125 76
97 125 75
97 125 75
98 125 75
93 120 72
96 124 75
98 125 75
97 124 75
96 124 75
96 123 74
93 120 72
96 124 74
99 126 76
94 122 73
95 122 73
93 121 72
95 123 74
95 123 74
95 122 73
98 125 74
96 124 75
95 123 73
116 139 106
204 214 223
207 217 227
208 218 230
203 213 220
205 215 224
205 214 222
199 209 217
204 213 221
203 213 222
197 208 216
204 214 223
203 212 219
208 218 226
206 215 222
206 216 226
200 211 220
201 210 216
211 221 232
205 215 223
206 215 223
207 216 225
197 207 213
206 215 224
203 213 222
211 220 230
207 216 226
209 218 225
203 213 221
189 200 204
95 122 73
96 124 74
96 123 73
98 126 76
98 126 75
96 123 73
95 122 73
99 127 76
97 125 75
97 125 75
97 124 74
97 124 75
95 122 73
98 125 75
97 125 75
96 124 74
96 123 74
106 130 94
121 141 112
137 156 134
143 162 144
158 173 164
177 191 189
177 190 187
189 200 203
187 199 202
199 210 219
201 212 221
142 159 141
99 127 76
95 122 73
99 126 76
97 124 74
93 120 72
96 123 74
97 124 74
96 124 74
95 122 73
95 122 73
96 124 74
95 122 73
98 125 75
98 126 76
98 125 75
96 123 74
99 126 75
98 125 75
96 124 74
95 122 74
96 124 75
97 124 74
97 124 74
97 124 74
94 121 73
97 124 74
108 133 94
195 205 212
204 213 221
203 213 221
207 216 227
206 216 225
202 212 223
202 212 221
197 208 213
212 220 229
212 221 232
203 213 222
207 217 227
201 210 217
207 216 224
209 219 229
208 217 224
203 214 223
206 216 225
204 213 223
206 215 225
202 213 223
203 213 223
202 212 220
205 215 226
198 209 216
202 212 221
170 183 179
97 125 75
97 124 74
98 126 76
97 124 75
97 124 74
97 125 75
98 125 75
96 124 75
96 123 74
96 123 74
100 128 77
94 122 73
96 123 73
97 124 75
94 121 72
94 122 73
97 124 74
97 124 74
99 126 76
96 123 74
97 125 75
99 127 76
98 126 76
99 127 77
94 121 73
180 193 190
199 208 215
205 214 222
205 216 226
197 208 217
210 219 227
209 218 228
204 214 222
204 214 222
206 215 222
204 213 223
206 216 226
196 206 213
200 210 218
202 212 220
207 216 224
213 222 232
207 216 226
201 211 219
209 219 230
205 215 225
200 211 220
202 212 221
205 214 222
181 193 191
98 126 76
98 126 75
95 122 73
101 126 82
114 138 108
116 139 108
127 146 121
147 164 149
152 169 155
171 184 179
176 189 188
192 204 209
202 212 219
205 215 225
207 217 227
201 211 219
204 213 222
215 223 234
203 213 220
203 213 222
197 208 216
211 221 231
170 184 180
98 125 80
95 122 73
96 124 74
97 124 74
94 121 73
97 124 74
94 122 73
92 119 70
95 123 73
98 125 75
96 123 74
103 128 86
205 214 221
196 206 214
205 214 224
202 211 219
202 212 223
203 213 221
207 216 226
208 217 225
206 216 225
206 215 223
201 212 222
210 219 227
207 217 228
208 218 228
194 206 213
153 169 157
106 130 92
95 123 74
97 125 75
95 122 72
96 123 74
95 123 74
96 123 74
95 123 74
93 120 72
97 124 74
93 120 72
177 190 188
198 209 217
207 216 227
197 209 217
198 209 217
211 220 231
205 214 222
204 214 222
208 218 227
201 211 218
205 215 223
199 209 217
207 216 226
209 218 227
211 220 230
198 209 217
202 212 222
199 209 217
203 212 219
210 219 230
205 214 223
204 214 223
205 214 221
200 210 218
205 214 222
203 212 221
201 212 221
200 211 222
165 179 176
96 123 74
98 126 76
96 123 74
98 125 75
97 125 76
95 121 72
96 123 73
122 145 114
175 188 186
193 204 208
199 209 217
197 208 216
215 224 235
203 213 222
206 215 225
205 214 223
201 211 219
203 213 222
207 216 224
202 212 221
207 216 224
208 218 229
206 215 224
206 215 225
203 213 223
204 214 222
202 212 219
207 217 228
164 178 171
96 123 74
98 125 75
96 123 73
98 126 76
97 125 75
98 126 76
98 125 75
100 127 77
94 121 73
95 122 74
95 123 74
98 125 75
95 122 73
98 126 75
96 124 75
95 122 73
96 123 73
99 126 75
95 122 73
97 124 75
97 124 74
96 123 73
94 121 73
98 126 75
98 126 75
98 125 75
97 124 75
93 121 73
109 133 97
205 215 225
209 218 228
207 217 227
205 215 224
213 221 229
199 210 218
208 217 226
203 214 224
205 214 223
203 213 223
200 210 216
202 211 219
204 214 223
209 219 230
203 214 224
201 211 221
205 215 224
206 215 222
182 195 194
148 165 150
123 143 116
94 121 73
91 119 72
95 123 74
94 121 72
95 123 74
96 123 74
97 124 74
97 124 75
167 181 175
200 211 221
198 208 217
196 207 215
209 219 229
199 209 217
199 210 220
202 212 219
208 217 226
199 210 218
203 213 222
205 215 223
201 212 221
206 216 226
204 215 225
196 207 217
211 220 229
204 214 224
207 216 226
208 218 229
211 220 229
202 212 220
206 215 224
204 214 222
207 217 226
200 209 217
204 213 221
202 212 220
206 216 226
211 220 230
110 134 94
97 124 75
101 128 77
96 124 75
96 123 73
95 122 73
96 124 75
97 125 75
97 124 74
97 124 74
96 122 73
95 123 74
95 123 73
95 123 74
94 121 73
96 123 73
94 122 73
95 122 73
94 121 72
96 123 73
98 125 74
99 126 76
94 122 74
94 121 71
95 123 74
100 127 76
94 121 72
99 126 75
98 126 76
154 169 157
206 216 227
196 207 213
210 219 230
206 216 225
207 217 227
206 216 225
199 209 215
211 220 230
206 215 223
207 216 225
199 211 220
205 214 222
207 216 226
206 216 224
200 210 218
201 210 219
207 217 228
205 215 224
205 215 225
208 217 226
209 218 230
210 218 226
204 213 221
200 209 217
204 213 222
201 210 218
210 219 230
202 212 221
150 165 153
100 128 77
97 124 75
97 125 75
97 124 75
95 122 73
94 121 73
95 122 73
99 127 77
96 124 75
98 125 75
94 122 73
98 125 75
97 125 76
97 124 75
97 125 75
95 122 73
98 125 75
96 123 75
96 123 74
99 126 76
96 124 74
95 123 74
97 124 74
95 122 73
95 123 74
95 122 73
88 114 68
125 147 121
199 208 213
183 196 199
190 201 201
177 188 185
152 168 157
159 174 165
140 158 141
145 162 145
124 145 119
114 138 102
113 137 99
97 124 76
95 121 72
97 125 75
99 126 76
99 126 76
96 123 75
92 119 71
96 123 74
98 125 75
94 121 73
97 124 74
96 124 74
98 125 75
98 125 75
97 124 75
90 117 70
155 171 162
202 212 221
208 218 228
196 207 215
206 215 223
207 216 225
205 215 223
208 218 228
197 208 215
203 213 222
207 217 227
203 212 222
201 212 222
195 206 213
204 214 224
203 213 222
207 217 226
207 217 226
198 210 220
210 219 229
207 217 227
209 218 227
208 218 230
204 214 224
207 217 228
203 212 220
200 210 217
115 138 102
93 120 72
91 118 70
98 126 76
96 123 74
98 125 75
97 124 75
93 121 72
97 125 75
98 126 77
93 120 73
100 128 77
96 123 74
98 126 76
93 120 71
97 124 74
92 119 70
96 124 75
96 123 74
96 123 73
98 126 75
96 123 74
98 126 75
97 125 75
93 121 72
126 147 123
201 211 218
202 212 220
211 221 232
212 221 232
203 213 222
206 215 224
200 210 218
203 212 219
205 214 224
198 208 215
203 214 224
207 217 227
199 210 217
203 213 220
209 217 225
207 216 226
199 210 217
193 204 210
189 200 204
181 194 195
182 194 196
167 181 176
159 174 165
152 168 160
184 196 198
174 187 184
196 206 210
195 206 212
203 213 224
203 212 221
201 211 219
198 209 216
209 219 229
209 217 226
203 212 221
200 210 217
205 215 224
208 217 225
204 214 224
212 221 231
203 212 221
208 217 226
204 214 224
205 215 223
208 216 223
198 208 217
198 208 215
114 138 99
96 124 74
96 123 73
94 121 72
98 125 75
96 124 75
94 121 72
94 122 74
98 125 75
96 124 74
95 122 73
97 124 75
97 124 75
204 214 221
208 218 228
201 211 218
212 221 231
196 207 215
200 209 217
195 205 212
200 210 218
210 219 229
210 220 231
199 209 217
206 216 225
199 209 217
199 209 217
209 218 226
206 215 224
196 207 213
173 186 184
129 149 122
95 123 74
93 120 72
92 120 71
96 123 73
93 120 71
97 125 75
98 125 75
98 125 75
163 177 172
206 216 226
203 212 219
204 214 223
186 198 203
209 218 227
207 216 224
203 212 220
194 205 211
203 213 222
206 216 225
207 216 225
207 217 227
203 213 222
200 210 215
203 212 220
209 218 228
199 209 218
204 214 224
206 216 227
207 217 226
207 216 224
204 214 222
207 216 225
206 216 224
205 214 221
204 214 222
201 211 221
171 184 178
95 122 73
96 123 73
94 122 73
99 127 76
96 124 75
98 125 75
94 121 72
98 126 75
97 124 75
95 123 74
131 151 128
161 176 169
201 211 217
206 216 225
201 212 222
199 210 217
202 212 221
211 219 228
200 210 218
205 215 224
209 218 229
205 215 226
205 214 223
205 215 224
202 212 221
208 217 226
211 220 229
204 214 224
148 165 150
99 127 78
98 125 75
97 124 74
97 124 74
99 127 76
98 126 76
96 123 73
95 122 73
94 120 72
94 121 72
95 122 73
97 125 75
97 125 76
94 121 72
95 122 73
97 124 74
97 124 74
95 123 73
97 124 74
97 124 75
95 123 74
98 125 75
97 124 75
94 121 72
95 123 74
94 121 73
95 122 73
98 126 76
119 139 112
197 208 216
203 213 220
199 209 218
208 218 229
200 210 218
202 212 221
206 216 224
203 213 221
207 216 224
206 216 228
205 214 222
205 214 223
205 214 222
199 209 218
214 222 232
198 208 214
208 218 228
206 215 224
212 221 231
198 208 216
202 213 221
199 209 216
182 195 194
144 160 146
110 133 97
96 124 74
93 121 73
92 120 72
97 125 75
178 190 189
201 211 219
205 215 224
206 216 225
199 209 217
201 212 223
209 219 230
200 210 219
199 209 217
199 208 215
204 214 223
208 218 228
203 213 221
203 213 221
197 208 216
206 216 225
194 205 213
212 221 232
206 215 223
203 213 222
195 206 216
208 217 226
204 214 223
203 213 221
204 213 221
205 215 225
209 218 225
201 211 219
201 212 221
192 203 206
95 121 72
94 122 74
95 123 75
99 126 75
94 121 72
92 119 71
96 123 74
95 123 74
94 121 73
94 121 72
97 125 75
95 123 74
93 120 72
95 122 74
94 121 72
96 123 74
94 121 72
99 126 76
95 122 73
97 125 75
97 125 75
94 121 73
94 121 72
93 121 73
97 124 75
96 123 74
98 125 75
95 123 74
98 126 75
180 192 192
199 210 218
198 207 213
200 210 220
207 216 224
201 211 219
207 217 227
207 216 226
213 221 231
201 212 220
210 219 229
201 211 220
209 219 230
201 211 218
200 209 217
205 215 224
195 206 213
204 213 221
201 212 221
206 215 225
203 213 222
202 211 219
206 215 224
203 212 220
197 208 216
195 206 215
208 218 229
207 216 225
201 211 219
121 143 113
97 123 73
95 122 73
98 126 75
93 121 72
98 126 76
94 121 72
94 121 72
95 123 74
95 123 75
96 124 74
96 123 74
100 128 77
95 122 73
92 120 72
99 127 76
93 120 72
95 122 74
94 121 72
98 125 75
98 125 75
94 120 72
98 125 75
98 125 75
94 121 73
95 122 73
96 124 75
98 125 75
168 182 178
207 217 227
209 218 229
203 214 224
201 211 219
205 214 223
201 211 219
196 207 213
206 215 223
204 214 222
201 212 222
205 215 225
208 217 226
202 212 222
192 203 207
187 198 200
190 201 203
185 197 198
169 183 179
171 184 178
166 181 175
161 177 170
140 159 141
147 163 148
141 159 142
136 155 134
125 145 119
125 145 119
197 207 211
204 214 221
200 210 216
204 214 221
209 218 228
206 215 225
206 216 225
208 217 227
201 211 219
208 217 226
208 217 226
204 214 222
202 212 220
192 203 211
206 216 226
205 214 223
207 217 229
201 211 217
194 205 211
204 214 223
202 213 223
205 214 222
199 210 218
203 213 222
207 216 224
207 217 228
172 186 180
94 121 72
98 125 75
98 125 75
96 123 74
99 126 76
98 125 76
99 126 76
97 124 74
98 126 75
100 127 77
96 124 75
96 124 74
96 123 74
94 121 73
97 124 74
94 122 73
97 125 75
96 123 74
98 125 75
98 125 75
93 120 72
99 126 76
98 125 75
96 123 74
98 125 75
185 196 197
200 210 218
194 206 214
198 208 215
192 203 209
177 189 189
186 198 202
172 186 181
162 176 172
167 181 174
158 173 166
144 161 146
139 157 140
131 151 127
126 147 120
119 140 110
104 128 86
92 120 72
97 124 75
96 123 73
95 122 73
97 123 74
95 122 73
93 120 72
160 176 167
203 212 220
209 217 226
193 205 213
199 209 218
204 213 221
205 215 223
210 219 229
201 211 219
212 220 230
209 218 227
205 216 225
207 216 225
205 214 223
207 216 224
202 211 218
204 213 221
208 216 224
198 208 215
202 211 218
200 210 216
208 217 224
203 213 221
153 170 159
95 122 73
97 125 75
95 123 73
98 125 75
94 121 72
98 126 76
95 122 74
94 121 73
95 121 72
99 127 76
94 121 72
96 123 74
96 123 74
172 185 181
204 214 223
202 212 221
203 214 224
200 210 216
207 217 226
209 218 229
212 220 230
206 216 226
204 214 221
208 216 222
208 217 226
200 210 219
199 210 218
202 212 221
194 205 212
204 214 225
207 216 223
203 211 218
182 194 194
142 160 144
104 129 87
95 123 74
94 122 73
98 125 74
97 124 75
94 122 74
169 183 179
201 211 219
199 210 221
208 217 226
208 217 228
209 218 228
204 214 222
202 211 218
206 215 225
204 213 221
200 210 220
203 212 220
206 216 225
209 218 226
208 217 226
200 210 217
205 214 223
201 211 222
198 208 214
202 212 220
202 211 219
209 217 226
200 211 221
201 211 220
204 214 223
209 219 230
197 207 213
196 207 216
167 182 177
95 122 73
95 123 74
98 125 75
96 123 74
95 122 73
96 123 73
96 124 74
98 125 75
95 122 73
94 121 72
96 123 74
94 121 73
100 127 78
128 148 128
163 178 172
191 201 206
203 213 220
198 209 219
202 212 221
207 216 225
213 221 230
202 213 223
208 217 226
203 213 221
198 208 215
201 211 221
205 214 222
207 217 226
147 164 145
97 125 75
96 123 73
95 122 72
91 117 70
97 124 74
98 126 75
98 125 76
92 119 71
98 125 74
96 123 74
100 128 77
96 123 74
97 124 75
98 126 75
94 121 72
95 122 73
97 124 74
95 123 73
97 125 75
95 122 73
92 119 72
94 121 73
97 124 74
98 125 75
93 119 71
94 121 73
96 124 74
92 119 71
146 164 148
201 211 219
206 215 225
205 214 222
205 214 221
210 219 231
208 217 226
211 221 231
202 212 219
202 212 220
210 218 226
202 212 219
208 218 230
205 214 221
209 219 231
205 215 226
205 214 223
203 213 222
193 205 212
196 207 216
209 218 227
204 214 224
201 211 220
209 218 228
196 207 215
204 215 225
190 201 206
167 183 182
142 159 146
121 142 114
186 199 201
206 215 224
203 213 222
198 208 216
205 215 224
201 211 219
204 214 223
200 210 218
204 214 225
201 211 220
206 216 225
203 213 222
206 215 224
203 213 223
201 211 222
200 210 216
202 212 222
209 217 226
205 215 226
198 208 215
211 220 230
206 216 225
198 209 217
198 208 215
213 220 228
202 211 219
207 216 225
204 214 224
203 212 220
169 182 177
95 122 73
97 124 74
99 126 76
97 125 76
97 124 74
96 124 75
94 122 73
100 128 77
94 121 72
96 124 75
96 124 74
97 124 75
97 124 75
96 123 74
98 126 76
97 125 75
98 125 75
96 123 73
97 124 75
95 122 72
95 122 73
98 125 75
97 124 75
96 123 73
93 120 72
94 121 73
95 122 73
95 123 74
102 127 84
207 216 225
205 214 222
206 216 227
201 211 219
207 216 224
204 214 221
204 214 223
205 215 225
211 220 230
213 221 230
205 214 222
201 212 222
191 202 208
197 208 216
205 215 224
202 213 221
206 215 223
202 212 222
202 212 219
206 215 224
206 216 225
207 217 226
208 218 228
203 213 223
211 221 231
200 210 218
207 217 227
205 216 227
186 199 203
93 120 72
94 121 72
100 127 76
94 121 72
92 119 70
93 120 72
97 124 75
97 125 76
94 121 73
98 126 76
96 123 74
94 121 72
94 121 72
92 119 71
98 125 75
98 125 75
93 121 72
94 122 73
97 124 75
96 124 75
95 123 73
99 126 76
94 121 73
98 125 74
97 125 75
98 125 75
97 124 74
96 122 75
199 209 215
205 215 226
203 213 222
201 212 222
206 216 227
206 216 224
201 211 218
205 215 224
210 218 226
203 214 224
202 212 221
199 209 218
201 212 223
212 220 228
205 215 223
199 210 218
207 217 227
201 211 219
192 203 208
211 220 229
208 218 228
205 215 224
202 212 220
198 208 217
202 212 222
209 219 229
205 214 222
158 173 163
97 125 76
93 120 72
98 125 77
104 130 85
104 129 89
119 141 112
122 144 116
129 149 125
132 152 128
135 154 134
140 158 139
143 160 144
147 164 149
137 156 134
147 164 149
143 160 146
159 174 164
154 169 158
158 175 167
150 165 153
161 177 167
159 174 167
156 171 159
151 168 158
158 173 163
158 173 166
166 181 175
154 169 156
151 168 159
164 178 173
151 168 153
164 179 173
166 180 174
163 177 168
159 174 165
152 169 158
151 167 155
166 179 170
181 193 192
173 187 186
181 194 192
179 192 190
181 193 192
178 191 189
187 198 200
177 189 188
188 200 204
190 201 205
187 199 202
199 210 216
197 208 214
158 173 165
93 120 71
94 121 72
96 122 73
95 122 73
96 123 74
94 121 72
98 125 75
93 120 72
95 122 72
98 126 75
96 123 73
97 125 75
98 126 75
93 120 72
95 122 73
95 122 72
96 124 75
99 127 76
93 121 72
94 121 72
99 127 76
98 125 75
97 124 74
132 152 129
196 207 214
204 215 225
201 211 218
209 218 228
202 212 221
203 212 220
208 218 227
208 217 227
208 217 225
202 212 221
202 212 220
210 219 228
211 220 230
202 212 220
197 207 214
209 218 227
202 212 219
210 218 227
195 206 214
204 214 222
209 218 225
205 215 223
192 203 206
98 125 75
96 123 74
102 129 78
97 124 74
94 121 72
94 121 73
95 123 74
94 121 73
95 123 73
93 120 72
94 121 72
94 121 72
96 123 73
99 126 76
160 176 169
203 212 221
205 214 221
200 211 219
202 213 223
200 210 218
209 219 229
201 211 220
196 206 213
202 212 219
195 206 215
204 214 222
207 216 226
205 214 223
206 215 225
211 220 229
201 211 219
211 220 230
200 210 217
207 217 229
207 216 225
196 206 214
172 185 180
126 146 121
96 123 74
96 123 74
96 123 75
161 176 167
205 214 223
208 218 228
206 214 221
200 210 218
206 215 224
204 214 225
210 219 231
207 216 224
199 209 217
212 220 229
205 215 225
195 206 213
199 208 214
201 211 221
203 213 224
199 209 217
205 214 222
204 215 225
205 215 224
203 214 224
202 211 218
211 221 232
207 216 225
210 219 228
207 217 226
208 217 225
195 205 211
162 177 171
94 121 72
96 123 74
94 121 73
97 124 74
95 122 74
95 121 73
93 120 72
94 121 73
97 125 76
95 122 73
96 123 73
93 119 71
94 121 73
96 123 74
95 123 74
94 121 72
132 152 127
162 177 173
194 205 212
207 216 224
207 216 225
204 215 226
202 212 220
199 210 218
205 214 223
203 212 219
206 216 226
204 213 222
140 158 140
94 121 72
96 123 74
94 120 72
93 120 72
96 123 73
94 121 72
97 124 75
98 126 77
95 122 73
95 122 73
98 126 76
96 122 73
93 120 72
92 119 71
97 125 75
100 128 77
97 124 74
96 123 74
96 123 74
92 119 72
98 125 76
92 119 71
93 120 72
98 125 75
96 123 74
100 127 77
96 124 74
95 123 74
145 162 148
207 217 225
199 209 216
203 213 222
206 216 225
199 208 213
205 214 222
204 214 222
212 221 232
207 217 227
200 211 221
205 215 223
208 217 227
205 215 224
201 212 223
203 213 223
211 219 228
201 212 220
205 214 222
203 212 220
199 209 217
199 209 218
207 216 226
206 215 225
204 213 223
203 213 220
196 207 214
203 212 220
212 220 229
209 218 225
108 132 92
143 161 146
185 197 198
192 203 208
200 211 219
204 213 221
198 208 217
201 211 219
212 220 230
209 218 227
206 215 222
200 210 218
207 216 227
206 216 225
206 216 226
206 216 225
205 215 226
205 215 224
201 211 219
211 219 228
204 214 225
204 214 224
205 216 227
205 215 224
202 213 222
202 213 223
207 216 226
206 215 224
201 211 218
150 166 153
96 124 74
94 122 73
95 123 74
94 121 73
94 121 72
98 125 75
97 125 75
97 125 76
98 125 75
98 125 75
97 124 74
95 122 73
94 120 71
96 124 74
94 121 72
93 120 72
96 124 74
97 124 75
96 124 75
96 123 73
94 121 72
95 122 74
97 124 75
96 123 74
96 123 74
100 127 76
95 122 74
98 125 76
138 157 139
204 214 221
201 211 220
201 210 217
200 211 221
208 218 229
209 219 229
210 219 227
203 213 223
201 212 221
206 216 226
202 211 220
206 215 223
204 214 223
201 210 219
200 210 218
201 211 219
204 214 224
201 211 217
204 214 223
205 215 224
199 209 214
206 216 226
202 213 224
202 211 218
204 213 223
199 209 217
202 212 219
207 217 226
152 169 157
96 124 75
96 123 74
97 124 75
97 124 74
98 125 75
101 128 77
99 126 76
96 123 74
100 127 76
96 123 74
97 124 75
95 122 74
93 120 72
96 124 75
98 126 76
95 123 74
97 124 74
97 124 74
93 121 73
95 122 74
98 126 76
96 124 74
97 124 74
97 124 75
98 126 76
96 123 74
93 119 71
142 160 143
201 211 220
205 214 223
202 212 221
207 216 225
206 215 225
205 214 221
204 213 220
201 211 219
202 211 220
198 209 218
203 213 223
210 219 228
208 217 227
199 210 219
204 214 222
204 214 222
199 209 217
209 218 228
207 217 226
199 210 219
209 219 231
209 218 226
207 217 227
198 209 216
211 220 229
205 214 222
193 203 207
101 127 84
98 125 75
98 125 75
95 122 73
98 125 75
98 126 75
93 120 71
93 121 73
96 124 74
95 122 73
97 124 74
96 123 74
95 123 74
98 126 76
95 122 73
93 120 71
95 123 74
94 121 72
94 121 73
95 123 74
95 122 73
97 125 75
96 123 74
94 120 72
99 127 77
95 123 73
164 178 170
209 218 227
202 213 222
200 209 216
207 216 225
206 216 225
210 219 227
200 211 218
193 203 210
201 211 218
197 207 215
203 214 223
208 218 227
193 204 214
204 213 222
207 217 226
199 209 218
199 209 217
196 207 215
205 214 224
208 218 228
206 215 224
202 212 220
199 209 217
196 207 215
195 205 211
102 128 81
97 124 74
96 123 74
97 125 74
91 117 70
95 122 72
99 126 76
96 124 75
96 123 73
96 123 73
94 122 73
96 123 74
100 127 77
95 122 73
98 126 76
94 121 72
94 122 73
98 125 75
97 124 75
94 121 72
96 123 74
97 125 75
94 121 73
99 125 80
190 200 202
196 206 213
208 218 228
202 212 220
210 219 228
213 221 230
203 213 220
203 214 222
196 207 216
200 211 219
202 212 221
199 209 215
199 209 216
205 214 222
208 218 228
198 209 216
202 212 221
200 209 215
197 208 216
203 213 220
203 213 222
201 211 217
195 206 211
114 136 102
97 125 75
94 121 72
97 125 75
96 123 74
98 125 76
96 123 74
96 123 74
100 127 77
96 124 74
94 120 72
98 126 76
95 122 73
91 118 70
97 124 75
139 157 140
201 212 222
203 212 220
206 215 224
197 207 214
190 201 208
199 210 218
199 209 217
208 217 228
205 214 223
208 217 224
203 213 220
198 209 217
210 219 230
207 217 228
208 217 224
198 209 217
200 210 216
207 216 226
206 215 225
194 205 211
198 208 216
207 217 225
200 211 221
192 203 208
151 167 157
102 128 86
144 161 147
208 217 227
207 217 227
199 210 218
206 216 225
201 211 219
197 207 212
208 216 224
206 216 226
207 216 225
204 213 222
205 215 225
206 216 226
204 213 221
200 210 218
204 215 225
199 209 217
200 210 219
203 212 220
215 223 233
202 212 221
208 217 225
204 214 223
204 214 223
209 218 226
204 213 222
199 209 216
200 211 220
173 185 182
97 124 75
97 124 74
98 126 76
97 124 75
98 125 75
96 123 74
98 125 74
97 125 75
96 123 73
96 124 75
92 119 71
98 126 75
96 124 74
95 122 73
96 124 75
99 127 76
99 126 76
95 122 72
102 129 80
124 145 119
170 183 180
192 202 206
211 221 232
201 211 220
199 210 217
205 214 223
204 213 220
204 214 222
129 149 124
96 123 74
92 120 72
95 122 73
95 123 73
99 127 77
96 123 74
97 124 75
95 122 73
95 123 73
96 123 74
99 127 76
95 123 75
93 120 72
95 122 73
95 122 72
95 123 74
94 121 73
95 122 73
96 123 74
98 126 76
98 126 76
94 121 72
97 124 74
95 122 73
97 124 74
97 124 75
92 119 71
97 124 75
172 184 182
207 217 228
200 210 218
207 216 226
210 219 228
210 219 228
210 218 226
207 217 228
207 216 227
207 216 225
208 217 226
204 213 221
202 212 221
200 211 220
204 214 224
212 221 231
207 217 225
211 221 233
206 216 224
204 213 222
207 217 227
210 219 228
200 210 219
204 214 224
207 216 223
201 211 218
207 216 225
198 209 217
199 209 216
184 195 195
96 123 74
93 120 72
96 124 74
93 120 72
111 135 99
140 158 139
166 180 172
187 199 202
206 215 224
201 211 220
206 216 225
204 214 222
208 217 225
204 214 222
210 219 229
203 213 221
192 203 209
207 216 226
210 220 231
201 212 222
202 212 221
201 211 220
198 208 217
207 216 222
201 211 220
208 217 227
203 213 221
202 212 221
198 209 219
114 138 104
95 123 73
96 124 74
94 121 72
94 121 73
97 125 75
95 123 74
97 124 74
92 119 70
93 119 71
92 119 71
96 123 73
96 124 74
99 126 76
97 124 74
96 123 74
97 125 75
98 125 75
97 125 75
97 124 75
97 124 75
98 126 75
94 121 73
95 123 74
96 123 74
95 122 73
95 123 73
95 122 73
99 127 76
176 190 191
201 211 220
203 213 222
203 213 220
206 216 225
205 215 225
197 207 215
205 215 223
203 212 220
204 214 223
201 210 218
204 213 220
206 216 226
206 215 224
202 212 222
202 212 220
201 211 220
205 215 226
204 214 223
203 213 224
209 218 228
199 210 220
204 215 226
201 210 217
201 211 220
204 214 221
203 213 223
209 218 228
208 218 227
100 125 84
98 126 76
96 123 73
92 119 70
96 123 74
97 124 74
96 124 74
98 126 75
93 120 72
93 120 72
93 120 71
99 127 76
94 121 73
98 125 76
97 124 74
98 126 75
96 122 73
94 121 72
94 121 73
96 123 73
93 121 73
99 127 76
95 124 76
96 124 75
94 121 73
97 125 75
96 123 74
96 123 73
187 198 201
201 211 220
206 215 222
204 213 222
205 214 224
207 217 226
207 217 226
202 212 221
196 207 214
209 218 229
210 219 229
204 213 221
210 219 228
195 207 217
210 218 227
201 211 220
201 211 221
208 218 228
198 209 218
205 215 224
201 211 220
204 214 224
206 216 225
205 215 224
199 210 219
201 212 220
205 214 222
167 181 177
97 125 75
96 124 75
96 123 74
93 120 72
97 124 75
96 123 74
95 122 73
95 122 73
98 125 75
93 121 72
96 123 74
97 125 75
99 127 76
97 124 75
95 122 74
93 121 73
96 124 75
94 121 73
96 123 74
95 123 74
95 123 73
99 126 75
95 123 74
96 124 74
97 125 75
113 137 101
197 208 213
205 214 223
210 219 229
202 212 221
203 212 220
207 215 223
199 209 216
197 206 213
212 221 232
206 216 226
200 210 218
205 215 224
204 213 221
205 215 226
210 218 226
202 213 222
203 213 222
207 216 225
204 214 221
197 207 214
210 220 231
206 215 225
203 212 220
208 217 226
201 212 222
142 160 145
93 120 72
95 122 73
96 123 74
94 122 74
94 121 71
95 122 73
96 123 74
97 125 75
100 127 76
97 124 74
94 121 72
96 123 73
97 125 76
95 122 73
97 125 75
97 124 75
98 126 75
96 123 74
94 121 72
96 123 74
94 122 73
98 125 75
94 121 72
166 180 174
203 214 224
196 207 214
203 214 223
197 207 214
205 215 224
201 211 220
199 210 217
208 217 227
199 208 214
205 214 221
202 212 220
210 219 227
198 210 218
202 212 221
202 213 223
193 205 214
207 216 225
211 220 229
208 217 226
199 210 220
197 208 215
198 209 218
134 153 131
97 124 75
93 120 72
94 121 73
97 125 75
92 119 71
98 126 76
95 122 73
94 121 72
97 125 75
98 126 75
95 122 72
93 120 72
94 121 72
94 121 73
98 125 75
134 154 134
206 216 226
199 210 218
207 216 224
197 208 216
203 213 223
207 216 226
207 216 225
205 214 222
203 213 222
209 218 229
199 209 217
204 213 221
203 214 224
200 211 221
209 219 230
205 215 226
195 207 217
204 214 223
195 206 214
204 213 223
203 213 223
208 217 227
201 211 218
209 218 227
199 208 215
198 208 214
183 195 196
184 196 197
200 210 217
197 206 213
202 212 220
201 211 219
206 216 225
203 214 223
199 209 218
197 208 218
206 215 223
205 215 225
202 212 222
207 217 227
195 207 215
201 211 220
209 218 227
203 212 221
202 212 221
197 206 212
197 207 213
211 219 228
199 210 218
202 213 224
202 212 221
204 214 222
206 216 225
200 210 219
169 182 176
95 122 73
97 125 75
98 125 76
97 124 74
93 120 72
94 121 73
97 125 75
95 122 73
97 124 75
97 124 75
95 122 72
95 122 73
98 126 75
97 125 75
98 125 75
95 123 73
96 123 74
96 123 73
97 124 74
97 125 75
95 122 73
96 122 76
127 147 120
174 186 186
182 195 200
207 216 225
199 209 214
205 214 222
127 147 121
95 123 74
97 124 75
98 126 75
98 126 76
98 126 76
96 123 73
98 125 75
97 124 74
95 123 74
99 126 76
99 127 76
94 121 73
97 125 75
94 121 72
93 119 70
95 122 73
98 126 76
92 118 70
96 124 75
98 125 75
97 124 74
95 122 73
94 122 73
98 125 75
94 121 72
97 124 75
97 124 75
94 122 74
186 198 200
204 214 221
209 218 227
207 216 225
194 205 212
206 215 223
208 218 227
202 212 219
203 213 223
201 211 220
207 217 227
211 219 227
193 204 209
206 215 223
202 213 223
203 213 223
208 216 223
195 205 211
201 211 219
202 212 220
202 213 222
213 222 232
203 211 217
202 212 220
197 208 217
211 221 232
204 213 221
211 220 230
198 209 217
176 190 188
97 124 74
91 117 69
96 123 74
95 123 74
93 120 72
97 124 74
97 124 74
99 126 76
111 136 94
138 156 137
145 163 151
195 205 210
204 213 221
203 213 222
202 213 224
200 211 217
204 214 223
206 215 224
201 211 218
205 215 224
207 216 224
201 213 224
201 212 220
205 214 222
194 205 213
206 215 224
202 211 218
202 211 219
197 207 214
94 121 72
93 121 73
95 122 73
96 123 73
99 127 76
96 123 73
97 125 75
96 124 75
98 125 75
96 124 75
95 122 73
95 123 74
97 125 76
97 124 75
97 124 74
91 118 70
91 118 70
97 124 75
97 124 75
97 124 74
97 124 74
95 122 73
97 125 75
94 121 72
98 125 75
92 118 71
97 125 74
96 123 74
103 130 83
207 216 223
203 213 221
192 202 207
198 208 216
207 217 228
203 213 221
196 207 214
201 211 220
196 206 213
206 216 226
204 214 223
202 212 222
205 215 225
209 218 228
204 213 222
207 217 227
202 212 221
206 216 225
205 214 222
203 213 222
195 204 209
198 208 216
201 211 220
207 216 224
204 214 223
199 208 214
201 212 221
205 215 226
175 187 184
96 124 75
95 123 74
94 121 72
93 120 73
98 126 76
100 127 76
93 120 72
95 122 73
96 124 75
95 122 73
95 122 72
99 126 76
93 120 72
95 122 73
97 124 75
95 122 73
98 125 76
98 126 76
96 123 74
97 125 75
96 123 74
96 123 74
93 120 72
95 121 73
94 122 73
93 120 72
95 123 74
140 158 140
202 212 220
205 214 221
203 213 221
205 215 225
198 208 217
204 213 222
200 210 217
209 219 229
204 214 222
204 213 220
211 220 229
199 209 219
204 214 226
206 216 226
207 216 225
194 205 213
199 210 219
207 217 227
197 207 214
194 204 212
209 219 231
204 213 220
203 213 224
208 218 228
207 216 226
200 211 219
196 206 214
101 125 87
96 123 74
95 123 74
93 120 72
96 124 74
96 123 73
95 123 73
98 126 76
99 127 76
95 123 74
100 128 77
93 120 72
93 121 73
97 125 75
96 123 74
96 123 74
97 124 75
97 124 75
95 122 73
97 124 75
97 125 75
95 122 73
100 127 76
98 125 75
95 123 74
95 123 74
169 184 178
209 218 228
200 211 220
201 212 221
208 218 229
208 217 226
208 217 225
203 213 221
197 207 215
204 214 221
199 209 217
204 214 225
206 215 224
198 209 216
203 214 222
208 218 228
200 210 219
204 214 223
208 217 226
202 213 222
204 214 222
202 213 222
208 217 226
201 212 222
202 211 219
179 191 191
94 121 73
99 127 76
97 124 74
93 121 73
97 124 74
97 125 74
93 120 72
95 122 73
94 122 73
97 124 74
91 118 70
93 120 72
97 124 75
96 123 73
94 122 73
99 126 76
95 122 73
97 125 75
94 121 73
94 121 73
97 124 75
94 122 72
97 125 75
127 148 118
203 213 222
196 208 218
194 206 215
206 216 226
202 211 218
204 213 222
201 211 221
201 212 223
203 213 222
204 213 219
198 208 216
203 213 222
205 214 223
209 219 231
202 213 222
206 216 225
199 209 216
197 207 213
194 205 211
205 215 223
190 202 213
200 210 217
161 176 167
97 124 74
97 124 74
93 121 73
92 119 72
96 123 73
96 123 74
97 124 75
95 122 73
93 120 73
96 124 74
98 126 76
96 123 74
97 123 73
96 123 73
95 123 73
97 125 75
106 129 91
208 217 226
199 210 219
204 214 224
198 209 216
205 215 224
208 217 226
207 216 223
206 215 222
201 211 221
198 208 215
205 214 223
207 217 228
208 216 225
200 211 221
205 214 223
205 214 224
208 217 227
206 216 225
203 213 223
203 212 220
203 213 223
200 210 219
198 207 216
207 217 227
193 204 212
203 213 222
177 189 190
97 124 75
129 149 124
161 176 168
198 207 213
206 215 224
208 218 228
202 212 219
202 213 223
204 213 221
209 217 224
202 211 218
209 218 226
205 215 224
211 220 229
208 216 225
206 216 225
199 210 217
206 215 223
200 209 217
206 215 224
199 210 220
205 215 224
199 209 217
208 217 225
203 213 222
208 217 227
205 215 225
167 181 175
99 126 76
97 125 75
93 119 71
97 124 75
96 124 74
95 122 73
95 122 73
97 124 75
95 122 73
96 123 73
92 119 71
97 125 76
96 123 74
96 123 74
96 123 74
98 126 76
96 123 74
95 122 73
95 122 73
99 126 76
97 125 75
94 122 73
96 124 74
96 124 74
97 124 75
113 135 104
167 181 176
196 207 212
125 146 114
95 123 74
99 127 76
90 117 70
93 120 72
97 125 75
97 125 76
95 122 73
96 123 72
96 123 73
95 123 74
97 124 75
94 121 72
97 124 74
92 119 71
92 119 71
98 125 75
97 124 75
92 120 72
95 122 73
98 125 75
98 125 75
96 123 74
96 123 74
98 125 75
96 124 74
95 122 73
97 125 75
95 122 73
182 194 196
199 209 217
211 220 230
207 217 227
200 211 220
203 214 223
204 214 224
199 210 219
199 209 219
201 211 219
204 213 219
203 213 222
205 215 224
207 216 224
199 210 219
205 214 224
206 215 224
201 210 218
199 209 216
196 207 214
200 211 219
201 211 219
200 210 217
202 212 220
204 214 225
202 212 220
198 208 214
204 213 221
201 211 220
165 178 171
98 125 75
97 125 75
96 124 74
99 126 76
93 121 74
97 125 76
96 123 73
97 124 75
97 125 75
95 122 73
96 123 74
93 120 71
97 124 74
124 145 116
147 165 153
178 190 190
196 207 211
205 215 227
200 211 220
202 212 221
201 212 220
204 215 224
206 216 226
201 211 219
197 208 216
197 208 215
209 218 226
203 211 219
172 185 183
93 120 72
93 120 72
96 124 74
98 125 75
98 126 75
97 124 74
95 122 73
92 119 71
93 120 71
96 123 73
98 126 75
93 121 72
99 127 77
93 119 71
97 124 74
97 125 75
96 124 75
96 124 74
96 124 75
96 123 74
98 126 76
97 124 75
95 121 72
97 124 74
95 122 73
92 118 70
99 127 77
98 125 75
131 152 130
200 210 218
195 206 213
199 209 215
201 211 218
195 207 216
206 216 225
199 209 216
209 217 227
209 219 229
198 208 217
198 208 216
204 214 223
201 211 220
205 215 223
204 214 225
208 217 226
207 215 222
205 215 226
199 209 215
206 215 224
199 210 218
200 211 218
211 220 230
207 217 226
195 206 213
198 208 217
209 217 226
203 212 219
130 151 125
98 125 75
96 124 75
96 123 73
96 124 75
96 123 74
94 122 74
97 125 75
97 124 75
94 121 73
96 123 73
94 122 73
98 125 75
95 122 73
96 124 74
97 125 75
94 121 73
96 123 74
92 119 71
92 119 71
94 121 72
98 125 74
95 122 73
98 125 75
99 126 75
95 122 73
93 121 73
95 122 73
178 191 191
208 218 227
206 216 226
208 217 228
197 207 215
198 209 217
203 213 222
208 217 226
201 211 220
205 214 222
206 216 226
199 209 217
205 215 224
202 212 220
206 216 226
194 205 214
203 214 225
200 210 220
203 212 218
205 214 222
198 209 216
201 211 218
206 216 225
202 212 221
201 211 220
206 216 226
202 213 223
165 180 175
96 124 75
98 125 74
96 123 74
98 126 76
97 125 75
93 120 72
98 126 75
96 123 73
90 117 69
94 121 72
97 125 75
99 127 76
93 120 71
95 122 73
96 123 74
97 125 75
95 122 73
97 124 74
98 125 74
97 124 74
93 120 72
97 125 75
98 126 76
98 125 76
97 125 75
128 148 119
200 211 219
195 206 215
208 218 229
207 216 225
204 214 222
203 212 221
200 210 219
209 218 228
199 210 219
207 217 227
198 208 215
209 218 228
205 214 223
199 209 217
200 210 219
206 215 225
198 208 218
204 213 220
201 211 219
204 213 221
204 213 221
198 208 214
207 216 225
210 219 229
200 210 219
117 140 106
95 122 74
97 125 75
95 123 73
98 126 76
97 125 74
94 121 72
97 124 75
93 120 72
98 125 75
95 122 73
93 120 73
94 121 72
98 125 74
99 126 75
97 125 75
96 123 74
93 119 71
95 123 73
93 121 72
96 124 74
95 122 73
92 119 71
90 117 70
181 194 195
205 214 223
199 210 219
206 216 224
209 218 229
208 217 226
209 218 229
205 215 223
204 214 222
204 213 220
208 217 225
204 214 224
208 216 223
205 216 227
202 211 219
199 209 216
197 206 213
205 215 224
202 212 219
205 216 227
203 213 220
200 210 217
187 199 200
96 123 76
96 124 75
98 125 75
97 124 75
96 124 75
98 125 74
96 123 73
94 120 72
99 126 76
91 119 72
96 123 73
127 147 122
92 119 71
96 123 73
96 123 75
94 121 72
96 123 73
96 123 74
201 211 218
200 210 217
203 213 222
204 213 220
205 215 225
207 216 226
204 214 224
206 216 225
197 207 214
203 213 220
206 216 225
193 204 213
204 214 223
201 211 220
207 216 225
195 206 213
208 217 225
202 212 221
209 218 227
200 210 217
201 212 222
199 209 216
207 217 226
202 213 221
206 214 222
202 211 218
184 196 200
99 126 76
95 122 73
95 122 73
99 126 81
137 156 137
177 190 188
198 208 216
204 214 222
199 211 223
197 207 214
192 204 210
201 212 222
198 209 218
207 216 225
203 213 221
207 215 224
199 209 218
210 219 229
203 214 224
209 218 228
205 215 224
209 218 228
204 213 220
200 210 216
203 213 220
203 213 220
202 212 219
161 177 174
97 124 74
95 122 73
96 123 73
95 122 73
93 120 71
94 121 73
95 123 74
97 124 75
93 119 71
96 123 74
97 124 75
94 121 72
96 124 74
94 121 73
94 121 73
98 125 76
93 119 71
97 124 74
93 120 73
99 126 76
92 119 71
96 123 74
96 124 75
96 123 74
95 122 73
98 126 76
91 117 69
95 122 72
179 191 192
160 175 168
129 148 123
96 122 76
96 123 73
97 125 76
92 119 71
98 125 75
97 124 74
94 121 73
97 124 74
95 122 73
93 120 72
93 120 72
97 124 75
96 123 74
98 125 75
97 124 75
97 124 74
94 121 73
91 117 70
96 123 74
94 121 73
95 122 73
95 122 73
97 125 75
91 117 70
96 123 73
100 126 80
203 213 222
198 208 216
199 209 217
204 213 222
208 217 226
207 216 226
204 214 223
206 215 223
203 213 222
206 215 224
201 211 221
206 215 224
202 211 220
208 217 227
209 218 229
201 211 218
206 216 227
204 213 221
199 209 217
204 214 222
201 211 219
206 216 226
206 217 228
208 217 225
211 220 229
203 213 221
201 210 217
208 217 226
202 212 220
133 154 130
98 125 75
97 124 74
95 123 75
95 122 73
96 123 74
94 122 73
95 122 74
92 119 72
97 124 75
96 124 74
97 124 74
97 125 75
98 125 75
94 121 72
98 125 76
98 126 76
95 122 73
93 121 72
135 154 138
157 172 164
190 201 203
205 215 223
196 206 212
201 211 217
207 215 222
203 213 223
200 210 219
206 216 224
154 169 156
99 126 76
97 125 75
95 122 73
94 120 72
94 122 73
95 122 73
96 123 73
94 121 73
96 123 74
95 122 74
96 123 74
97 125 76
98 125 75
93 120 72
97 124 74
90 117 70
93 120 73
99 126 76
96 123 74
94 121 73
97 125 76
93 120 72
97 124 74
94 121 72
96 124 74
99 126 75
96 124 74
94 121 73
182 194 194
203 214 225
208 217 225
202 212 221
207 216 226
205 214 223
205 215 226
207 215 224
200 209 216
205 214 222
199 209 215
202 212 223
203 213 223
211 219 227
206 216 224
206 216 226
202 212 222
197 208 218
199 210 219
206 215 225
207 216 227
201 211 221
200 211 221
200 210 220
208 217 226
204 213 221
199 210 219
203 212 221
193 204 208
94 121 72
95 122 72
95 122 73
97 124 75
95 122 73
95 122 73
95 122 73
94 121 72
95 123 74
96 124 75
98 125 75
96 123 74
97 125 75
95 122 73
94 122 73
96 123 74
96 123 73
99 127 76
93 121 72
97 125 76
95 122 73
99 126 76
98 126 76
94 121 72
97 124 75
92 119 71
95 123 74
109 132 96
207 216 226
207 218 230
192 203 212
196 206 214
206 215 224
202 213 221
203 213 223
207 216 225
206 215 224
208 218 229
198 208 215
201 211 218
204 214 225
201 212 223
206 215 225
203 212 220
197 209 219
205 215 225
203 213 223
202 212 222
206 215 223
210 219 229
210 219 227
194 205 214
203 213 221
202 213 221
200 209 216
110 134 96
99 127 77
88 115 69
94 121 73
94 121 72
93 120 72
100 127 76
93 120 72
93 120 72
97 124 74
96 123 73
97 124 75
99 127 76
97 125 75
95 123 73
92 119 72
99 126 76
94 121 73
91 117 70
97 125 76
93 120 72
90 117 69
93 120 72
96 123 74
95 122 73
96 124 74
176 189 188
199 210 218
208 218 228
203 212 221
206 215 223
202 212 222
199 209 216
203 213 220
200 211 219
206 216 227
200 211 220
198 210 219
205 215 225
201 212 221
190 201 208
203 213 223
200 211 218
201 211 221
202 212 219
203 213 222
210 218 228
204 214 222
206 215 225
206 216 226
208 217 226
154 170 161
96 123 74
95 122 73
95 122 74
97 125 76
97 124 74
94 121 72
98 125 76
93 120 72
98 126 76
92 119 71
95 123 74
95 123 73
95 122 73
98 126 76
98 126 75
95 123 74
92 120 72
93 120 71
93 121 72
96 123 73
93 120 71
95 122 73
97 124 75
164 179 172
202 212 222
202 212 222
194 205 212
206 215 224
206 215 223
202 213 223
212 220 228
204 214 221
203 213 224
201 211 219
207 217 225
199 210 218
208 217 227
203 213 221
202 212 220
204 214 222
198 209 217
197 208 216
207 216 225
201 212 221
198 208 215
203 213 221
122 143 116
92 119 71
97 124 74
92 120 72
97 124 74
98 125 75
99 126 76
95 122 73
97 125 75
93 121 72
94 121 72
97 124 75
206 215 224
179 191 191
144 161 145
94 120 75
96 123 74
96 123 74
95 122 73
199 210 217
210 219 229
204 214 224
209 218 226
203 213 221
205 214 223
205 215 223
198 209 217
200 210 219
205 215 223
199 209 218
199 209 218
211 219 228
199 209 216
205 215 225
201 211 220
201 211 220
198 209 218
194 205 213
202 212 219
195 205 210
201 211 220
197 208 216
202 211 219
201 212 221
196 206 214
191 202 207
98 126 75
96 124 75
96 123 74
95 122 74
94 121 72
97 125 75
105 130 88
152 168 157
182 194 197
209 218 227
206 215 223
196 208 217
201 211 218
195 206 214
199 209 216
209 219 229
199 210 218
203 213 220
198 207 215
203 212 221
204 214 222
203 214 223
211 219 227
209 218 227
199 210 218
203 214 226
199 210 218
177 189 187
95 123 73
93 121 72
93 120 72
93 119 71
95 122 73
95 123 74
95 122 73
96 123 74
94 122 73
98 125 76
96 124 75
96 124 75
93 120 71
98 126 77
96 123 74
97 125 75
96 124 75
97 125 75
95 122 73
94 121 73
94 121 73
96 123 73
92 119 71
97 125 75
97 125 74
96 123 74
93 120 72
97 124 75
203 213 220
205 215 225
210 219 229
198 208 216
168 182 178
135 154 137
98 125 78
94 121 72
96 123 73
94 122 73
94 122 74
95 122 74
95 122 73
96 123 74
93 120 72
95 122 73
94 122 73
97 124 74
93 120 73
98 125 75
95 122 74
97 125 75
96 123 74
96 123 74
96 123 74
98 125 75
97 125 75
91 118 70
109 134 94
203 214 223
201 212 223
207 215 223
206 215 223
210 217 225
204 214 222
193 205 213
202 213 220
205 214 221
206 215 226
203 213 220
207 216 223
201 211 219
206 215 225
204 214 222
197 207 216
199 209 215
208 218 226
203 213 221
203 213 222
203 213 222
204 215 227
201 211 221
196 208 218
202 213 222
207 217 226
199 209 215
202 212 219
198 208 216
96 121 78
97 124 74
96 124 74
97 124 74
94 121 72
96 123 74
96 123 74
96 123 73
92 119 72
95 122 73
96 123 73
96 123 74
97 124 74
94 120 72
94 121 72
96 123 74
96 124 75
97 125 75
93 121 73
94 121 72
95 123 74
94 121 72
99 126 78
114 137 104
147 164 152
168 182 179
192 203 206
205 216 227
204 213 222
116 139 102
94 120 72
95 122 73
95 122 73
97 124 74
99 127 77
93 121 73
98 126 76
98 125 75
95 122 73
97 124 74
96 123 74
96 123 74
94 121 73
94 121 72
93 120 72
96 124 75
96 124 74
96 124 75
94 122 73
95 123 74
97 124 73
96 123 74
95 122 73
97 124 75
97 124 75
98 125 75
95 122 72
103 129 83
197 207 211
193 203 210
203 212 221
202 213 223
204 214 221
208 218 228
208 217 225
205 215 224
206 215 224
206 216 225
199 209 218
201 212 222
207 217 226
206 216 226
204 214 222
205 215 224
200 210 220
202 213 221
210 219 228
202 212 219
198 209 217
200 211 220
196 206 214
203 213 221
195 205 212
205 214 222
210 219 230
204 213 221
158 173 165
94 122 73
95 122 73
95 122 73
92 119 71
94 121 73
95 122 72
94 121 73
96 123 73
97 124 74
97 124 74
94 121 72
96 123 74
98 126 76
97 124 74
93 119 71
96 124 74
95 122 73
91 118 70
94 121 72
98 126 76
101 129 78
96 123 74
97 124 75
95 122 73
96 123 74
95 122 73
94 121 73
162 176 171
206 215 224
205 215 225
199 209 218
205 215 225
205 215 225
205 215 225
202 212 221
203 213 224
202 212 220
205 214 222
207 216 223
208 217 224
203 213 222
202 212 219
201 211 219
194 205 211
204 214 224
202 212 220
199 210 218
198 209 220
206 215 225
209 218 227
198 208 216
202 212 221
198 208 214
201 211 220
169 183 177
94 121 73
95 123 73
95 122 73
94 121 73
96 123 73
94 122 74
95 122 73
95 123 74
94 121 73
94 120 72
93 120 71
97 124 74
93 121 72
94 122 73
98 126 75
98 126 76
97 124 74
98 125 75
91 118 70
97 125 75
95 122 73
97 124 74
92 119 71
93 119 71
98 125 75
126 145 124
204 214 223
199 209 216
206 215 223
199 209 217
199 209 217
203 214 225
208 217 225
206 216 226
200 212 222
204 214 222
209 218 227
208 218 229
205 215 226
198 207 216
198 209 218
207 217 226
204 213 221
201 211 220
212 220 229
209 218 227
205 215 226
200 210 218
206 215 224
208 218 228
182 194 199
99 124 79
96 123 74
96 123 73
94 122 74
98 126 76
99 126 76
99 127 76
96 123 73
100 128 77
97 125 74
94 121 72
97 124 75
96 123 73
97 125 75
97 125 75
95 123 74
95 122 73
97 125 75
94 122 73
94 121 72
95 122 73
96 123 75
96 124 75
124 143 119
211 221 232
205 215 223
207 215 224
206 215 224
208 216 223
207 216 224
198 208 214
202 213 221
200 210 217
204 213 222
202 212 221
204 213 220
204 214 222
206 216 228
200 210 220
204 214 221
204 214 222
200 210 219
203 212 220
204 214 221
203 213 222
205 215 224
143 160 140
95 122 73
94 121 72
95 123 74
96 123 73
94 121 73
95 122 72
94 121 73
94 122 73
96 123 73
96 123 74
95 122 74
94 122 73
203 213 222
205 214 223
209 218 228
197 207 215
158 173 162
104 129 87
98 125 75
180 191 190
206 216 226
198 208 216
202 212 221
203 212 220
206 215 224
204 213 222
201 212 222
204 214 222
204 213 220
203 212 221
204 213 223
205 214 222
203 213 222
207 216 225
202 212 221
201 211 220
203 212 219
203 213 222
206 215 223
199 209 217
200 210 220
207 216 226
206 215 225
200 210 218
198 209 218
203 213 223
96 123 76
94 121 73
96 123 74
94 121 72
95 123 73
98 126 76
98 125 75
96 124 75
94 121 73
121 143 113
168 182 174
189 200 204
207 217 228
202 212 221
201 210 218
199 209 216
200 210 217
208 217 225
206 216 226
208 217 226
206 216 225
206 217 229
197 208 217
199 210 219
199 209 217
199 209 218
204 214 224
178 190 186
97 124 75
94 121 73
99 126 76
95 123 74
92 120 71
94 121 73
96 123 74
95 122 72
97 124 74
92 119 71
94 121 72
94 121 72
91 118 70
95 122 73
92 119 71
99 126 76
95 122 73
96 123 74
94 122 73
95 122 72
95 122 73
97 125 74
97 125 76
95 122 73
94 121 73
92 119 71
94 121 73
100 126 82
202 213 222
209 218 228
209 218 227
204 214 222
198 209 219
197 208 216
199 209 217
173 187 186
146 163 147
104 129 87
93 121 72
95 122 73
93 120 71
94 122 73
94 121 73
94 121 72
98 125 75
93 121 73
98 126 76
93 119 70
96 123 74
95 122 72
93 120 72
97 125 75
96 123 73
97 124 75
95 123 73
93 120 71
117 139 108
209 218 227
199 209 216
199 209 218
197 208 216
198 208 217
200 210 218
209 217 224
200 210 218
202 211 218
204 215 225
202 212 221
205 215 227
210 219 229
199 210 219
201 211 220
204 214 222
207 216 225
207 216 223
208 217 226
199 209 217
199 210 218
206 215 223
202 212 220
203 213 223
207 216 223
209 218 229
202 212 219
211 221 231
194 204 209
97 125 76
94 121 73
91 118 70
98 126 76
96 124 74
95 123 74
91 118 70
97 124 75
94 121 73
97 124 75
96 123 74
97 124 74
95 122 73
94 121 73
95 123 74
97 125 75
97 124 74
94 121 72
97 125 75
93 120 72
96 123 74
96 124 75
99 125 75
95 123 74
97 124 74
94 121 73
96 124 74
104 129 89
150 166 155
169 183 177
145 162 148
133 152 131
98 125 77
98 126 76
95 122 73
96 123 74
96 122 73
97 124 74
94 121 72
93 121 72
94 121 72
95 123 74
96 124 75
96 124 75
96 123 73
97 124 75
96 123 74
97 125 75
91 118 70
97 124 74
94 121 72
91 118 70
94 121 72
96 123 73
99 127 76
95 121 72
94 121 73
129 148 124
202 212 221
199 210 218
206 216 225
205 214 224
205 215 225
203 214 222
201 211 219
205 214 222
201 211 220
204 213 222
206 216 224
202 212 219
208 218 228
197 208 214
205 214 222
204 213 223
202 212 220
199 209 217
201 212 221
209 218 226
198 209 219
206 216 227
206 215 224
202 212 222
207 217 227
212 221 230
208 217 227
208 218 229
118 140 108
97 124 74
96 124 75
95 121 72
95 123 73
94 122 73
95 122 73
97 124 75
96 123 75
99 127 76
97 125 76
95 122 73
91 119 71
96 124 75
98 125 75
95 123 74
96 123 74
93 120 72
99 126 76
89 116 68
92 118 70
99 126 76
101 128 77
98 125 74
96 123 74
96 123 74
94 121 72
102 129 83
203 213 222
204 214 224
203 212 220
200 210 217
198 208 215
206 216 225
206 215 224
203 212 221
203 212 221
202 213 222
204 214 225
209 217 225
198 207 213
206 215 223
207 216 226
203 213 220
203 213 221
204 214 224
207 216 224
204 214 224
209 218 229
198 208 216
206 216 226
200 209 218
208 217 226
203 213 222
206 216 226
111 134 98
95 122 73
93 120 72
95 122 73
96 124 74
93 120 72
93 121 72
97 124 74
96 123 74
95 122 73
98 126 76
95 123 74
93 119 71
94 121 73
93 120 72
96 123 74
97 124 74
94 121 72
97 124 75
95 122 73
97 124 75
97 124 74
94 122 72
98 125 75
96 124 75
95 123 73
180 193 194
207 217 229
205 216 227
205 216 226
200 210 217
199 209 216
203 213 221
204 214 222
201 211 219
203 212 219
202 213 223
200 210 218
202 213 224
206 215 225
202 213 221
206 216 225
207 216 224
209 219 228
204 215 226
206 215 223
202 212 222
204 214 224
196 208 218
202 212 220
209 219 228
130 149 125
93 120 72
96 124 74
95 123 74
97 124 74
93 121 72
92 119 71
94 121 73
96 123 74
96 124 75
94 121 72
96 123 74
94 121 73
93 120 72
97 124 74
91 118 70
96 123 74
92 118 70
97 124 75
95 122 73
95 122 73
95 122 73
93 120 71
105 130 92
184 197 201
203 213 222
200 210 220
192 204 212
205 215 224
206 216 226
204 214 225
195 205 210
206 215 223
201 211 219
203 213 223
207 215 224
203 213 222
197 208 216
212 220 229
193 203 210
203 213 222
205 215 225
202 212 220
209 217 226
200 211 219
203 212 219
184 196 195
97 124 74
94 121 72
98 126 75
93 120 72
92 119 72
93 120 71
93 120 71
98 125 74
97 125 76
93 120 71
97 124 74
100 128 77
95 122 73
201 211 221
199 209 216
211 220 229
202 212 220
199 208 215
199 209 218
172 186 183
166 180 174
200 211 219
204 214 224
201 211 218
204 214 224
204 214 222
203 213 222
196 207 214
198 208 215
201 212 222
209 218 227
208 217 226
203 213 222
205 214 221
198 208 217
194 204 211
205 213 222
214 222 231
210 219 228
205 214 223
201 211 220
197 207 215
201 211 221
202 211 219
206 216 225
201 211 220
199 209 216
102 127 86
96 123 73
96 124 74
96 123 74
96 123 74
95 123 74
97 124 75
92 120 72
94 121 72
93 120 73
97 125 75
95 122 76
126 147 118
169 183 181
201 211 219
204 214 224
200 210 219
205 215 224
199 209 217
200 210 219
204 214 221
205 214 224
207 217 226
194 205 212
205 214 223
203 214 225
205 214 222
188 199 200
96 123 73
98 125 75
97 124 75
93 120 72
98 125 75
94 121 72
96 124 74
92 119 71
95 122 73
96 123 74
94 121 72
94 122 73
98 125 75
94 121 72
94 121 73
98 126 76
97 124 75
93 120 72
98 125 75
97 124 74
96 123 74
95 122 73
96 123 73
97 124 75
99 126 76
95 122 73
96 124 74
101 125 84
199 210 217
202 212 220
211 220 229
206 215 224
199 211 221
198 209 217
210 219 228
203 212 219
209 219 228
204 213 222
172 186 186
150 166 156
119 141 112
97 124 75
95 123 74
98 125 76
95 122 73
96 123 74
95 123 74
96 124 74
91 118 70
98 125 75
92 119 71
94 122 73
95 123 73
96 123 74
97 125 75
96 123 74
139 157 140
199 210 219
195 206 213
202 212 221
205 215 226
193 204 212
201 211 220
204 214 225
205 215 226
205 214 223
207 217 227
207 216 225
209 218 227
204 214 222
202 211 219
202 212 220
207 217 225
201 211 219
207 216 225
198 209 217
209 219 231
205 214 222
210 218 227
192 203 208
200 209 216
204 215 225
199 209 217
209 218 228
204 214 222
176 189 188
95 122 74
95 122 74
92 119 71
94 122 73
97 125 75
97 125 75
93 120 72
93 120 72
96 123 74
99 127 76
98 125 74
98 125 75
96 123 73
94 121 72
95 122 73
93 120 72
96 123 74
92 119 71
98 126 75
94 121 73
93 120 71
95 123 73
97 124 74
98 125 75
93 120 73
95 122 73
93 120 72
99 126 76
138 157 137
201 212 222
202 212 222
206 217 227
199 209 215
190 199 202
167 180 176
148 165 150
123 144 115
101 127 81
95 122 73
96 123 74
95 122 74
96 123 74
93 120 71
96 124 74
97 125 75
95 123 74
96 123 74
97 124 75
97 124 73
96 123 74
96 123 73
93 121 72
93 120 72
97 124 74
95 123 73
93 120 72
96 123 74
169 182 177
205 215 224
207 216 226
202 212 220
201 211 219
203 212 221
212 221 233
211 219 226
206 216 226
207 216 224
204 215 226
193 204 212
200 211 221
205 216 226
204 214 224
205 215 223
202 212 222
200 211 220
200 210 219
204 214 223
202 212 218
204 214 222
208 217 227
204 213 221
198 208 214
200 210 219
203 213 221
195 206 214
177 190 190
95 122 74
93 120 72
93 120 71
96 124 75
97 124 74
94 121 73
96 124 75
95 122 73
97 124 74
96 123 74
96 123 73
95 122 72
98 126 76
95 122 73
97 125 75
97 124 74
95 122 73
95 123 74
97 124 75
95 122 73
97 125 75
94 122 73
96 124 74
94 121 73
97 124 74
99 126 75
98 126 76
154 169 159
207 217 228
202 212 220
208 218 227
203 214 223
205 215 224
207 215 223
201 211 220
206 215 223
210 220 230
212 221 232
211 220 230
200 209 215
200 210 218
201 212 220
199 209 217
202 212 222
201 212 221
206 215 225
201 210 215
197 207 215
214 222 230
197 207 215
207 216 225
204 213 222
208 217 226
201 211 219
161 175 168
96 123 74
95 122 74
94 122 73
94 122 73
96 124 74
94 121 72
92 119 71
94 121 72
96 123 73
95 122 73
95 123 75
88 115 69
96 124 75
92 119 71
96 123 73
98 126 75
94 121 72
93 121 73
92 119 71
96 123 75
96 123 73
97 125 75
96 123 73
97 125 75
97 125 75
144 162 147
198 208 217
203 213 221
202 213 222
208 217 228
208 218 228
209 217 226
198 209 216
208 217 228
199 209 217
208 218 229
202 211 220
202 212 221
201 211 218
203 213 221
206 216 226
194 204 210
205 215 225
201 211 220
200 210 218
200 210 218
202 212 220
202 212 220
205 215 224
196 206 214
176 188 187
92 119 71
96 123 73
96 123 73
96 123 73
95 122 73
90 116 69
100 127 76
96 123 74
95 123 74
97 124 75
99 126 76
89 116 69
97 125 76
94 121 73
95 122 73
95 122 74
97 125 75
96 123 73
94 122 72
94 121 72
94 122 74
95 122 73
96 122 73
159 173 164
208 217 227
201 210 216
198 208 215
203 213 222
201 211 219
206 216 225
197 207 216
200 210 219
200 211 220
210 219 227
201 212 222
201 211 219
205 214 223
202 211 219
204 214 223
201 211 219
207 216 225
202 211 217
192 203 210
204 214 223
204 214 223
194 205 211
110 134 94
95 122 73
97 124 74
99 127 77
96 123 75
95 122 73
95 122 73
92 120 72
94 121 73
92 120 71
98 126 76
97 125 75
93 119 71
96 123 74
203 212 219
204 214 222
197 208 217
206 215 224
200 210 218
197 208 216
201 210 218
177 189 186
130 151 123
165 179 175
188 200 205
201 212 221
204 214 222
203 214 223
196 206 215
212 220 228
204 214 223
201 211 219
197 208 213
194 204 210
196 206 214
201 212 222
200 210 217
203 212 221
199 209 216
199 209 218
196 207 215
195 206 215
202 212 221
201 210 217
205 215 224
204 214 225
207 217 226
200 211 221
127 147 123
91 118 71
99 127 76
95 122 73
95 122 72
98 125 75
93 121 72
95 122 72
94 122 73
94 121 72
93 121 72
95 123 74
96 123 74
95 122 73
97 122 80
141 159 142
182 194 193
199 211 220
199 209 218
198 208 215
194 205 214
203 213 222
204 214 223
202 212 222
196 206 214
200 209 217
207 217 228
168 182 178
96 123 74
96 123 73
94 121 72
95 122 74
97 124 74
95 122 73
100 128 77
98 125 75
95 122 73
97 125 75
97 124 75
94 121 73
95 122 73
95 122 73
100 127 77
98 126 75
96 123 74
97 125 75
100 127 76
93 120 72
96 123 73
97 124 75
97 124 74
94 121 73
93 119 71
94 121 72
94 122 73
112 136 100
199 209 217
207 217 226
205 215 224
200 210 219
201 211 220
202 212 220
205 214 222
202 211 217
199 210 219
202 212 221
198 209 220
207 216 225
204 214 224
195 206 210
162 177 170
129 148 129
94 121 75
96 124 74
96 123 74
92 119 72
98 126 76
98 125 75
96 123 74
94 121 72
93 119 71
94 121 72
97 124 75
94 121 73
148 164 149
206 216 224
205 215 225
200 209 217
196 207 214
201 211 219
203 213 221
204 214 224
202 212 220
209 217 225
205 214 222
204 213 223
198 210 220
201 211 219
202 212 219
200 210 218
203 214 224
208 218 227
205 215 225
204 214 224
200 210 217
204 213 220
204 214 223
194 205 212
208 217 227
197 208 215
205 216 227
203 212 222
207 217 227
166 180 171
94 122 73
97 124 74
92 119 71
94 121 73
96 124 74
96 123 74
100 128 77
95 122 73
99 126 75
99 127 76
95 122 73
94 121 72
96 124 74
94 121 72
94 122 73
96 124 75
96 123 74
94 121 72
92 119 71
98 126 76
98 126 76
93 121 73
96 123 74
93 120 72
92 119 71
98 125 75
94 122 73
96 124 75
167 181 177
204 214 224
195 207 217
204 213 222
200 211 221
205 215 223
201 211 219
201 211 220
202 211 218
204 215 223
184 196 198
167 181 176
147 164 150
129 149 124
110 133 97
93 121 72
97 125 75
94 122 73
96 123 73
98 126 75
96 123 73
94 121 73
94 121 72
98 125 75
96 123 74
98 125 75
92 119 72
94 121 72
97 122 78
193 204 211
203 213 223
200 210 219
203 213 222
203 213 222
209 218 228
202 212 220
196 206 212
205 215 222
204 214 222
203 213 223
200 210 219
200 211 222
201 211 220
204 214 222
206 215 224
205 214 224
203 213 222
202 212 221
203 213 222
198 208 215
201 211 220
194 204 210
207 216 227
199 209 216
203 213 222
204 213 222
209 219 229
152 168 157
95 122 73
96 123 73
98 125 75
97 124 74
96 123 74
97 125 75
97 125 75
94 121 72
93 120 72
95 122 73
96 123 74
96 123 74
96 123 74
92 119 71
94 122 73
94 121 72
94 120 72
93 120 73
94 121 72
97 125 75
95 122 73
96 123 74
91 119 72
93 120 72
95 123 75
96 124 74
97 124 79
191 202 207
202 212 220
210 219 231
202 212 220
207 216 225
206 216 226
195 206 213
203 214 224
203 213 222
196 207 216
203 212 221
202 213 222
195 206 215
200 210 218
204 214 224
216 224 235
197 207 216
204 214 223
207 217 227
193 204 210
195 206 213
185 196 199
196 206 214
206 215 224
205 215 224
201 212 221
200 210 216
105 130 89
97 125 75
94 121 72
97 125 75
93 120 72
95 122 72
95 122 73
96 123 74
97 124 75
96 124 74
98 125 75
95 123 74
92 119 71
98 125 75
97 125 75
93 120 71
97 125 75
94 122 73
98 126 75
97 124 75
95 122 73
96 123 73
100 127 76
96 124 75
97 125 75
107 133 89
191 202 206
199 210 218
203 213 221
204 214 224
207 216 225
203 213 221
204 213 223
207 216 225
198 208 214
201 211 220
198 209 218
200 211 219
202 212 222
197 207 214
203 213 222
197 207 217
201 211 219
202 212 220
201 211 221
195 205 210
207 216 226
204 214 223
207 216 224
206 215 223
203 213 220
110 133 97
93 120 71
96 123 74
92 119 71
95 123 74
94 121 73
94 122 74
98 125 75
91 118 70
96 123 74
92 120 72
92 119 71
99 127 76
94 121 72
96 124 74
97 125 75
92 119 71
96 123 74
94 121 72
97 125 75
93 120 72
92 119 71
96 124 74
125 145 124
198 208 217
197 207 215
203 213 222
204 214 225
206 216 227
200 210 218
202 213 222
201 212 221
203 213 219
203 213 222
203 213 221
206 216 225
211 219 227
202 211 221
201 212 222
206 216 224
197 207 214
195 206 214
201 211 220
199 209 217
195 206 213
196 207 214
135 155 133
96 123 74
93 120 72
100 127 77
96 123 74
92 119 71
99 126 76
93 120 72
93 120 71
95 122 73
95 123 73
95 122 74
96 123 74
93 120 72
99 127 77
200 210 217
208 217 226
210 219 229
201 211 221
196 207 215
200 210 217
197 207 216
190 202 205
97 124 74
94 121 72
107 132 93
149 165 153
194 205 209
196 206 212
200 211 219
202 211 219
207 217 226
203 213 220
206 216 225
203 213 223
204 214 224
199 209 217
205 213 221
199 210 220
202 212 220
204 214 222
199 210 220
197 207 216
200 210 218
200 210 217
204 215 225
205 214 222
191 203 211
203 214 224
139 158 138
95 123 73
93 120 73
93 120 72
93 120 72
97 124 75
95 122 73
92 119 71
94 122 73
94 122 73
96 123 74
94 121 73
98 126 76
91 118 71
95 122 73
94 121 72
93 119 71
117 141 103
150 165 152
190 201 202
208 217 225
202 212 220
206 216 226
205 214 223
203 213 222
204 214 223
205 215 225
180 191 191
95 122 74
95 123 74
91 118 71
94 122 73
93 120 72
99 126 76
98 125 76
94 121 73
94 121 72
95 122 73
95 122 73
98 125 75
95 122 73
96 123 73
97 125 76
95 122 74
97 125 75
98 126 75
97 124 75
92 119 72
94 120 71
94 121 73
93 120 72
94 121 73
96 124 75
100 128 77
93 120 72
131 151 131
203 212 220
207 215 223
204 214 223
200 210 218
208 217 225
206 215 223
202 211 219
205 216 226
204 214 224
198 208 215
202 212 219
194 205 213
200 211 221
206 215 223
208 217 225
200 211 219
198 208 216
168 183 179
144 161 148
106 129 90
95 123 74
93 120 72
96 123 74
96 123 73
95 122 73
96 123 73
95 122 73
97 125 74
174 187 184
209 218 227
203 214 224
203 214 225
203 213 221
200 209 215
202 212 220
197 208 217
211 220 231
205 215 226
200 210 218
198 208 218
203 213 222
204 214 224
205 214 223
205 215 224
205 214 224
199 209 217
201 212 220
207 217 226
209 218 226
210 219 229
209 218 227
196 208 219
205 215 223
204 214 224
203 213 222
204 214 225
202 212 220
130 148 126
95 123 73
93 120 72
94 121 73
96 123 73
97 124 75
94 122 73
93 120 72
94 122 72
97 125 76
95 122 74
94 121 72
93 120 72
96 124 75
92 120 72
93 120 71
96 123 74
94 122 73
91 118 70
95 123 74
95 122 73
95 123 74
96 124 74
93 120 72
97 124 74
95 123 75
95 121 72
93 120 72
91 118 70
193 203 209
204 214 223
205 214 221
198 209 217
200 210 217
205 215 224
213 222 231
201 211 218
201 211 220
197 208 216
207 216 225
197 207 215
201 211 220
206 216 226
201 211 219
192 203 210
170 184 181
158 173 163
134 153 133
114 136 104
98 125 77
96 123 74
96 124 75
95 122 73
96 123 74
95 122 73
93 120 72
94 121 72
134 154 133
198 208 217
207 217 227
200 211 219
205 215 224
203 213 222
203 214 225
202 212 219
205 214 224
202 212 220
193 204 211
211 219 228
202 212 222
204 214 222
204 213 221
206 215 224
202 212 218
203 213 221
202 211 219
207 217 228
211 220 229
196 207 215
203 213 222
209 219 230
203 213 223
201 211 219
202 212 222
202 212 219
184 196 202
101 127 83
95 122 72
96 123 73
91 118 70
96 124 75
95 123 73
92 119 71
96 122 73
96 123 74
95 122 73
96 124 75
96 123 74
96 123 74
95 122 73
96 124 74
94 121 73
95 123 74
98 125 75
96 123 74
94 121 73
92 119 71
96 123 74
94 121 72
95 123 75
97 124 75
97 124 74
97 125 75
131 150 127
204 214 224
205 214 223
202 213 222
198 209 218
204 214 223
207 216 224
201 211 220
202 211 218
203 213 222
200 210 219
199 208 214
200 210 218
201 211 221
200 210 219
201 212 223
205 214 224
197 207 215
201 211 220
205 214 224
201 210 219
202 212 221
199 210 219
206 216 224
206 215 225
196 207 216
200 211 219
165 180 177
96 123 74
94 121 72
95 122 73
97 125 75
98 125 75
96 123 75
95 122 73
96 123 74
96 124 75
94 121 72
96 123 74
96 123 74
95 122 73
96 124 74
97 124 75
95 122 73
98 125 75
93 120 72
95 122 73
96 124 75
95 123 74
95 122 73
94 121 72
93 120 72
95 122 73
162 177 169
211 220 230
204 215 226
204 214 225
203 213 221
196 208 217
201 210 217
207 216 224
198 208 214
200 210 218
205 214 223
205 215 224
202 212 220
206 215 223
207 217 228
207 217 228
201 211 219
212 220 230
197 207 214
202 212 221
201 211 219
200 211 220
202 212 221
197 207 215
196 207 215
147 163 153
97 125 75
97 125 75
92 119 71
94 121 72
96 123 73
95 122 73
96 124 74
95 122 73
96 123 74
94 121 72
97 125 75
98 126 76
96 123 73
96 122 73
93 120 72
97 124 74
95 123 73
97 125 75
98 125 75
97 125 75
95 122 72
94 121 72
104 129 90
197 207 212
206 216 225
201 211 220
197 208 216
200 211 221
198 209 220
203 214 224
203 213 223
207 217 227
206 216 226
201 210 218
203 213 221
198 208 216
205 214 222
199 209 216
204 214 224
198 209 220
200 210 219
201 211 221
196 206 213
207 216 225
207 216 226
152 167 153
94 121 73
97 124 75
94 121 73
94 122 73
93 121 72
98 125 75
98 125 75
95 122 73
94 121 73
96 123 74
98 125 75
93 119 71
92 120 72
95 122 73
100 128 77
199 210 221
201 211 221
200 209 218
204 214 223
206 215 225
202 212 221
205 215 223
193 203 208
94 121 72
96 123 73
95 122 73
95 122 73
96 123 73
137 154 138
184 195 195
198 209 216
202 212 221
207 216 225
204 213 221
203 213 222
210 220 231
201 211 219
200 209 217
206 216 227
201 211 219
203 213 221
204 215 226
197 209 220
199 208 214
208 217 227
203 212 220
199 209 218
203 213 221
203 213 222
134 151 132
97 124 74
96 123 74
95 122 73
92 119 71
96 124 75
93 120 71
96 123 74
97 124 74
93 121 72
97 124 74
93 120 71
93 119 71
92 119 71
95 122 73
94 121 73
96 123 74
94 121 72
92 119 70
93 120 72
113 136 103
150 166 152
198 209 217
201 212 221
197 207 215
204 213 223
205 215 225
180 192 191
97 124 74
96 122 73
92 119 71
98 126 75
95 122 72
97 125 75
94 121 72
97 124 74
96 124 75
94 120 71
94 121 72
93 120 72
93 121 72
97 124 75
92 120 71
94 122 73
97 124 74
92 120 72
95 121 72
93 120 72
96 123 74
93 120 71
96 124 74
95 122 73
94 121 72
92 119 72
95 123 74
138 155 139
194 205 212
199 209 216
205 215 224
205 214 220
201 212 222
202 212 222
205 215 225
202 211 220
206 215 223
202 212 220
200 210 217
208 217 228
203 213 223
203 213 221
201 211 220
204 213 220
209 218 226
206 215 222
204 214 222
208 217 228
178 191 190
148 165 153
136 154 131
100 126 81
93 120 72
92 120 72
92 119 71
93 120 72
192 203 205
206 215 225
202 211 219
201 211 219
205 215 225
198 208 217
199 209 218
206 216 225
204 213 221
206 214 223
201 211 217
204 214 223
204 214 224
199 208 216
201 211 219
200 211 219
203 214 223
196 208 217
207 216 226
203 213 223
201 212 220
197 209 218
205 215 223
207 217 226
210 218 226
206 216 224
195 205 212
202 211 217
201 211 220
99 124 84
94 121 73
96 124 74
92 118 71
96 123 74
95 122 74
98 125 74
93 120 71
94 122 73
96 123 75
95 123 74
94 121 73
95 123 73
92 119 71
94 121 72
94 121 72
97 124 74
95 123 74
98 125 75
98 125 75
95 122 73
98 125 75
96 123 74
94 121 73
98 126 76
97 125 75
98 125 76
92 120 71
127 147 120
202 212 222
205 214 222
198 208 214
201 211 220
208 217 227
205 215 223
197 208 217
199 209 217
193 204 209
210 219 227
205 214 222
200 210 218
207 217 227
205 214 223
204 214 224
201 211 218
200 211 221
203 213 223
198 209 218
197 208 218
191 202 208
189 200 206
171 185 183
154 170 160
128 147 124
119 141 110
95 122 72
94 121 72
157 172 163
192 203 211
206 215 224
204 214 224
198 208 216
197 208 217
201 211 220
204 214 224
200 210 218
207 217 227
201 212 220
204 213 221
208 218 227
202 212 220
197 207 216
210 218 226
197 208 215
203 213 224
206 215 225
207 216 223
196 208 217
200 209 216
194 204 209
200 210 220
202 212 220
200 210 217
201 211 219
202 212 220
158 172 165
97 124 75
90 117 70
98 125 75
96 124 74
94 122 72
93 120 72
92 119 72
99 126 76
96 123 74
94 121 73
93 120 71
95 122 73
93 120 72
92 119 71
96 124 74
94 121 72
94 121 73
99 127 76
91 118 70
96 123 74
93 120 72
92 120 71
94 121 72
95 123 74
97 124 75
95 122 73
94 121 73
186 198 200
198 209 216
202 213 221
205 214 224
208 217 226
198 208 217
202 211 219
206 216 226
203 212 219
202 213 223
200 210 218
197 207 215
200 210 219
200 210 218
202 212 221
204 214 223
208 218 226
205 215 223
195 206 213
204 214 223
207 216 226
202 211 218
205 215 226
202 213 223
193 205 213
201 212 221
203 213 220
105 128 90
94 121 73
94 121 73
96 123 74
96 123 73
94 121 73
94 121 72
93 120 70
100 127 76
93 121 72
95 123 74
95 123 74
97 125 75
92 119 72
96 124 74
96 124 75
95 122 73
97 125 75
94 122 73
95 122 72
95 122 72
95 122 73
96 123 73
96 124 75
96 124 75
112 133 101
202 212 220
205 215 226
193 204 212
205 214 223
213 222 231
193 204 210
205 215 224
205 215 223
202 212 221
203 212 220
204 213 219
205 214 223
199 209 217
206 217 227
207 216 225
204 213 222
197 207 215
206 215 223
201 211 219
201 210 217
199 209 219
199 209 217
201 211 220
200 210 217
183 195 197
93 120 71
96 123 74
99 126 76
93 120 72
98 125 75
95 122 73
95 123 74
96 123 74
93 120 71
94 121 73
95 122 73
94 121 73
96 124 75
95 122 73
96 123 74
96 123 73
92 118 70
95 122 74
94 121 72
94 122 73
95 122 73
94 121 72
93 120 72
161 176 169
200 211 219
199 209 216
205 215 225
203 213 222
203 213 220
201 210 219
206 215 223
203 213 223
205 214 221
204 214 225
197 207 213
204 214 223
202 212 221
206 216 224
201 210 217
208 217 227
201 211 220
201 211 217
199 210 219
203 213 222
200 210 219
176 189 186
97 124 77
93 121 73
91 117 70
96 123 73
92 119 71
93 120 72
94 122 73
93 120 72
96 123 73
97 124 75
91 118 70
93 120 72
90 117 69
98 125 75
95 122 73
96 123 75
141 157 142
146 164 146
148 164 151
134 152 133
141 157 140
151 167 154
157 174 163
149 165 150
169 183 178
167 181 177
167 181 177
167 181 177
164 177 171
167 181 175
160 175 169
173 185 182
189 202 210
166 182 177
156 171 161
148 164 151
154 169 160
156 171 161
151 167 153
158 174 165
157 172 164
162 177 169
165 180 171
153 168 158
166 180 174
155 171 163
166 181 175
162 177 169
154 171 160
164 178 173
154 170 157
157 172 162
142 160 142
155 170 161
147 163 149
144 161 146
154 170 160
148 164 152
144 162 144
153 168 156
142 159 141
154 170 159
149 165 153
150 167 152
133 152 134
141 159 142
155 171 160
145 162 147
141 159 145
137 156 142
146 163 148
157 172 160
143 161 143
165 180 173
202 212 219
178 189 188
169 182 178
168 182 176
135 154 133
155 171 158
137 155 140
146 163 147
144 162 144
154 169 155
132 150 130
134 152 134
133 152 130
152 167 153
127 147 125
139 157 135
143 161 147
135 153 135
138 156 139
131 150 128
142 158 140
140 157 141
121 142 115
142 160 145
134 153 134
144 161 146
139 158 138
143 161 145
132 151 134
134 154 132
132 152 131
157 171 162
174 186 185
180 192 192
178 190 190
184 196 196
173 187 185
178 191 191
178 191 192
178 191 190
169 182 181
174 187 185
178 191 192
184 196 197
187 199 202
182 194 193
182 194 194
177 190 193
182 194 194
173 186 184
180 192 190
189 201 205
177 190 191
178 190 190
185 197 199
185 196 194
145 162 148
119 140 112
112 136 103
118 139 112
178 191 189
190 201 203
179 193 194
180 193 193
195 206 211
186 197 200
184 195 199
184 196 199
183 195 198
180 191 190
178 190 191
182 193 192
175 188 189
184 196 200
182 194 196
178 190 192
187 199 203
188 200 206
186 198 201
181 193 196
195 205 211
181 193 195
190 202 206
184 196 195
193 204 208
181 192 193
178 191 192
189 200 202
184 196 197
120 141 113
134 154 131
116 139 105
125 146 120
125 145 119
133 152 128
117 138 111
114 136 104
126 147 123
116 137 108
113 137 104
113 136 102
120 142 113
125 146 117
125 146 118
123 144 117
120 141 112
118 139 109
117 139 109
125 146 120
127 146 122
116 139 106
113 136 105
111 133 101
118 140 109
118 140 110
126 147 120
119 142 113
159 174 161
191 202 207
186 199 202
174 186 188
190 200 203
198 208 215
188 200 203
192 203 207
190 201 205
187 199 204
182 195 199
191 202 206
192 203 208
191 202 208
191 202 208
192 203 209
191 201 204
189 200 204
189 201 206
186 199 204
187 199 203
190 201 205
190 201 206
194 205 209
187 199 203
193 203 207
193 203 209
189 200 203
175 189 189
157 172 161
162 177 174
184 197 200
200 210 215
194 206 214
188 200 203
185 197 200
188 200 206
186 198 201
203 212 218
188 199 204
195 205 211
191 203 207
190 202 205
192 202 206
190 201 203
184 196 198
187 199 203
196 206 212
182 194 195
189 201 206
189 200 204
189 201 205
197 207 212
191 202 206
189 200 205
184 196 199
194 205 210
147 165 149
120 141 110
123 145 113
117 140 108
117 139 108
123 144 115
125 146 120
112 135 102
126 147 120
130 149 124
126 146 121
135 154 133
123 143 117
127 147 122
121 143 111
108 132 94
122 143 115
105 129 93
118 140 112
121 143 113
122 143 112
130 151 131
122 143 115
108 133 98
116 136 108
126 146 119
126 146 123
134 152 129
186 197 201
194 205 209
194 204 209
179 193 197
187 199 204
192 203 207
185 197 199
186 197 199
193 203 207
191 201 205
180 193 194
190 201 205
188 198 199
192 203 207
186 197 201
188 199 204
183 195 197
181 193 196
180 192 194
183 196 200
185 197 198
180 192 192
183 195 196
187 199 203
187 198 200
182 194 194
168 182 179
118 140 110
122 144 117
120 140 115
126 146 120
137 156 136
130 150 126
127 148 120
133 151 130
134 154 134
129 149 124
133 151 131
125 145 120
139 157 137
136 155 134
135 153 131
138 156 137
130 150 129
130 149 131
126 147 122
128 148 125
133 151 129
132 150 130
134 152 130
133 152 131
140 159 141
146 163 150
177 189 189
179 191 194
179 192 193
176 189 189
187 198 201
176 189 188
164 178 175
182 195 196
182 193 196
182 194 193
163 179 175
178 190 189
168 181 178
173 186 184
182 194 195
172 185 181
176 189 188
176 188 186
179 191 188
171 184 182
169 182 176
174 188 187
171 185 180
174 187 183
156 171 162
137 155 141
139 158 140
142 159 143
140 158 141
140 158 142
148 164 152
147 163 152
145 162 148
148 164 149
140 158 141
158 173 160
152 168 155
159 174 165
161 176 166
154 170 161
155 170 160
158 173 162
158 173 161
155 170 159
150 167 154
149 164 154
145 161 147
138 156 137
164 180 171
161 177 169
161 176 169
163 178 171
162 177 170
160 174 166
151 167 157
165 179 175
164 178 171
159 175 166
163 178 171
162 177 172
149 165 152
153 169 156
147 164 150
159 175 166
163 177 168
158 174 166
152 169 157
153 169 158
152 168 156
161 176 169
171 184 179
161 175 166
160 176 169
162 176 166
164 179 174
163 177 170
167 181 176
167 181 179
168 182 177
164 179 173
175 188 187
169 181 178
174 187 184
168 182 176
168 182 175
142 159 145
142 160 144
96 123 74
95 122 73
94 121 73
98 125 76
93 120 71
97 124 74
96 123 74
97 125 75
179 191 191
201 211 219
201 211 220
197 208 216
203 213 223
204 214 223
196 207 215
204 214 224
203 213 222
201 210 219
179 192 192
140 157 137
108 132 94
98 125 75
95 122 73
96 123 73
97 125 75
94 122 73
97 124 74
96 124 75
95 122 73
94 122 73
95 123 73
96 123 75
96 124 74
96 123 73
163 177 170
202 212 220
198 209 217
197 207 215
195 206 214
198 208 218
202 212 220
201 210 216
195 205 211
203 213 220
202 212 220
201 211 218
203 213 221
204 214 223
200 210 218
202 212 220
198 208 215
209 217 225
202 213 222
202 211 220
210 219 230
204 213 221
199 209 217
201 210 218
210 220 231
200 210 217
180 193 194
160 174 166
203 213 222
200 210 217
195 206 215
199 210 219
197 207 213
203 212 221
202 211 220
201 210 218
198 208 216
204 213 221
199 209 216
210 220 231
194 205 211
204 213 222
203 213 222
204 213 222
196 206 211
202 213 223
201 211 220
204 214 224
206 215 223
200 211 221
203 213 223
209 218 229
206 215 223
198 209 218
206 215 225
161 176 171
94 121 72
96 123 74
96 124 75
94 121 73
94 122 73
97 124 74
95 122 73
95 123 75
96 122 73
97 124 74
92 119 71
94 122 73
97 125 75
92 119 71
94 121 72
95 122 73
93 120 71
93 121 73
96 123 74
95 122 73
94 122 74
93 120 72
97 125 75
92 119 71
97 124 75
95 122 73
93 120 72
123 144 119
163 177 168
140 158 143
100 126 83
95 122 73
93 121 73
96 123 74
94 121 73
94 121 72
95 123 73
96 123 74
97 124 75
92 119 71
93 120 72
96 123 74
95 122 73
92 119 71
95 122 73
97 125 75
94 121 73
97 124 75
92 119 72
100 128 77
95 122 73
93 119 71
96 124 74
98 125 75
95 121 72
94 122 74
132 151 128
205 215 224
211 220 230
206 216 224
206 216 226
201 211 218
202 211 219
199 209 218
204 214 222
210 221 233
199 210 218
202 212 220
201 210 217
195 206 214
202 212 221
203 213 221
207 217 226
205 215 223
194 204 210
208 218 230
201 211 219
202 212 219
197 207 214
204 214 222
207 217 227
207 217 226
202 212 220
194 205 212
207 217 226
138 156 136
95 122 72
98 126 75
92 118 70
97 125 75
92 119 70
98 125 76
98 125 75
97 125 75
97 125 75
96 122 73
94 121 73
93 120 71
91 118 70
96 123 74
94 121 72
97 125 75
99 126 76
98 126 75
91 118 71
94 121 72
93 120 72
95 122 73
92 119 71
95 123 74
95 122 73
96 123 74
94 121 72
130 150 126
204 214 223
209 218 228
211 220 229
204 214 223
204 214 221
186 198 200
181 193 194
162 176 168
140 159 141
131 151 127
108 133 94
93 120 71
93 120 72
95 123 73
95 123 74
94 121 73
95 122 73
95 122 73
93 121 72
95 123 73
96 124 75
98 126 75
94 121 73
96 124 75
95 122 73
96 123 74
97 124 74
121 142 115
207 216 226
198 208 214
204 213 220
201 211 219
203 211 219
209 219 229
196 207 214
203 213 222
202 212 221
208 218 228
203 212 222
199 210 218
204 214 222
199 209 216
205 215 225
202 211 219
202 212 223
208 218 228
201 211 220
203 213 221
207 217 226
196 207 214
199 210 219
200 209 216
203 213 221
204 214 223
193 204 211
137 156 136
96 124 74
98 126 76
92 119 72
94 121 73
95 122 72
92 119 72
97 125 75
100 127 77
95 122 73
96 124 74
95 122 73
93 120 72
94 121 72
93 120 72
93 120 72
93 120 72
93 120 71
95 122 74
93 120 72
97 125 75
97 124 74
94 121 72
95 123 74
98 125 75
94 122 73
102 127 86
197 207 213
203 214 223
204 215 225
202 212 222
206 216 225
198 207 213
196 206 213
202 212 222
206 215 223
210 219 228
200 210 218
204 213 221
204 214 224
205 215 224
195 205 212
205 215 223
202 212 221
192 203 209
203 212 220
196 207 215
205 214 223
201 211 218
203 212 220
198 208 216
198 209 217
176 189 190
98 124 79
97 125 75
95 123 74
95 123 74
97 124 74
96 123 74
95 122 73
97 125 75
96 123 74
96 123 74
97 125 75
95 122 73
96 124 75
99 126 76
95 122 73
96 123 73
95 122 73
96 123 74
93 120 72
94 121 73
97 125 75
98 125 75
95 122 73
96 123 74
150 166 154
206 216 225
195 205 211
210 219 229
201 212 222
198 208 214
203 213 222
196 207 215
203 212 220
195 206 215
202 213 224
202 212 221
203 213 221
200 210 217
207 216 225
202 212 222
199 209 216
201 211 219
202 212 219
202 212 221
195 206 213
202 212 221
201 211 219
194 205 211
108 132 97
96 123 74
91 117 69
92 119 71
96 124 74
100 127 77
93 120 71
94 121 72
99 127 76
94 121 72
97 124 75
97 124 74
97 124 74
96 123 74
94 121 72
97 124 74
95 122 73
95 123 73
94 122 74
98 126 76
97 124 74
94 121 75
181 193 195
194 205 212
202 212 221
204 214 224
198 208 215
196 207 216
193 204 211
207 216 226
201 211 221
207 217 226
183 194 194
170 183 179
161 177 167
138 157 138
124 144 120
95 121 75
96 124 74
95 122 73
92 120 72
96 123 74
98 126 76
93 119 71
91 119 71
96 123 74
95 121 73
92 119 71
168 181 176
195 206 212
194 205 214
201 212 220
206 216 227
205 214 222
199 209 217
203 213 223
207 215 222
201 210 218
204 214 222
202 212 221
196 207 213
154 168 162
110 133 99
95 122 73
97 125 75
94 121 73
95 122 73
93 120 72
96 123 74
96 123 73
98 125 74
94 121 73
95 122 73
98 125 75
146 163 150
196 206 213
203 213 221
204 213 223
203 213 222
205 215 225
200 209 215
205 214 223
198 208 216
198 208 216
196 207 213
204 214 223
204 214 224
206 215 224
207 217 227
196 207 214
201 211 219
202 212 220
201 211 218
206 216 224
201 211 218
201 212 221
203 213 222
206 216 226
201 210 217
199 209 217
205 215 226
168 181 177
100 125 80
139 157 140
168 182 175
197 208 215
197 207 213
207 217 225
207 217 226
200 211 219
202 213 223
205 215 224
210 219 228
201 211 219
209 219 229
195 206 215
214 222 232
206 214 223
206 215 223
202 212 219
199 210 219
205 215 225
201 212 222
200 210 216
202 212 220
199 210 218
198 209 219
207 216 225
196 206 213
162 177 168
95 123 74
91 119 71
97 125 74
96 124 75
97 125 75
97 124 73
97 124 74
95 122 73
94 121 73
97 125 76
88 115 68
93 120 72
97 125 75
94 121 73
94 122 73
95 122 73
95 122 73
98 126 76
97 124 74
96 123 74
94 121 73
95 122 74
96 123 73
93 120 72
96 123 74
98 125 75
95 122 73
104 129 89
191 202 208
200 210 217
197 208 214
175 188 188
146 163 149
108 132 97
97 124 77
95 121 72
91 118 70
93 120 71
93 120 72
96 123 74
97 125 75
96 123 73
94 121 72
97 125 75
92 119 71
95 122 73
97 125 75
95 123 74
96 124 74
93 120 72
95 122 73
94 121 72
96 123 74
95 123 74
93 120 71
93 120 72
164 178 171
208 218 228
199 209 216
208 217 226
196 207 215
201 211 220
197 207 215
201 211 219
209 218 226
205 215 223
208 217 226
204 214 222
203 212 219
206 215 222
193 204 210
196 206 214
201 211 219
198 209 217
195 206 214
205 214 223
204 213 223
201 211 220
196 206 213
186 198 202
201 211 220
200 209 216
207 216 225
203 213 221
199 210 218
111 135 96
92 119 71
97 124 75
99 126 76
97 124 75
94 121 73
96 123 75
96 123 74
93 120 72
95 123 74
95 122 73
93 120 72
97 124 75
96 123 74
97 124 75
92 119 71
92 119 71
95 122 74
93 120 72
98 125 75
95 121 73
95 122 72
93 120 72
95 122 73
94 121 72
95 122 73
94 121 72
96 123 74
163 177 171
196 207 215
203 212 222
203 213 223
198 208 216
210 218 228
199 210 219
194 206 214
205 215 223
205 215 224
203 213 223
203 214 223
196 206 213
185 196 198
174 188 184
160 175 165
145 162 145
139 157 139
113 135 102
97 123 76
93 120 72
96 123 74
92 118 70
94 121 73
94 121 72
96 123 74
97 124 75
93 120 72
148 164 154
204 214 223
199 209 217
198 208 217
205 216 227
202 212 220
208 217 228
203 213 222
203 213 223
198 208 217
207 217 226
205 215 224
195 205 214
201 211 218
207 216 225
200 209 217
203 213 221
201 210 217
200 209 217
199 210 218
204 213 220
207 216 225
202 212 221
200 210 220
199 209 217
201 210 216
208 216 225
188 200 207
95 122 73
98 126 76
99 126 75
97 125 75
93 120 71
92 119 71
93 120 72
93 120 71
94 121 73
95 122 73
96 123 74
95 122 73
93 120 72
98 126 76
95 122 72
100 128 77
96 122 73
97 124 75
95 122 73
94 121 72
97 123 73
96 123 73
91 118 70
93 120 72
98 125 75
95 123 73
142 158 145
198 209 217
198 209 217
204 214 222
192 204 211
206 216 226
200 210 219
205 215 224
204 213 222
204 214 223
196 207 216
201 211 219
202 213 221
203 213 225
199 210 219
200 210 220
195 206 213
203 213 223
203 212 221
200 210 219
196 207 214
196 207 215
201 211 218
205 215 224
203 213 221
203 213 222
125 145 122
98 125 75
96 123 74
97 124 74
95 122 73
94 121 73
93 120 72
93 121 73
97 123 73
96 124 74
96 123 74
93 120 73
96 123 74
96 123 73
93 120 72
97 124 74
94 121 72
96 123 74
94 122 73
95 122 73
96 124 74
93 120 72
95 123 74
94 121 73
116 139 107
207 216 223
202 211 220
203 213 222
212 221 232
203 214 224
205 215 224
205 215 223
206 216 224
203 212 220
202 212 221
209 218 227
190 201 209
205 215 225
199 209 218
200 210 219
205 216 226
205 214 222
207 216 224
206 216 225
198 208 216
208 217 227
201 211 218
188 199 203
139 157 139
97 124 75
93 120 72
94 121 72
94 121 72
93 120 71
90 117 69
95 123 74
92 119 71
94 121 72
94 121 73
96 123 74
94 122 73
95 122 73
94 121 73
95 123 74
94 121 72
92 119 71
92 119 71
94 121 72
95 122 73
97 124 74
164 179 171
208 217 226
208 218 229
199 209 215
196 206 212
171 185 183
158 174 167
152 168 158
133 152 130
113 136 100
96 123 76
93 120 71
95 123 74
93 120 72
94 121 72
96 123 74
98 125 76
91 118 71
97 124 74
91 118 71
95 122 73
93 120 71
95 122 73
91 118 70
94 121 72
93 121 72
95 122 73
155 170 158
201 211 219
213 222 232
203 214 224
204 213 222
203 212 221
199 209 217
198 209 217
203 212 218
205 216 227
200 210 217
199 210 218
198 209 216
200 210 217
200 210 218
176 189 189
136 155 138
90 116 72
92 119 71
95 121 73
94 121 72
96 123 74
95 122 74
93 120 72
93 120 72
99 127 76
135 154 137
200 209 217
198 208 216
208 217 226
194 205 213
203 212 220
206 216 226
203 212 221
204 214 224
197 207 215
196 206 213
203 213 224
202 211 220
206 216 225
206 216 225
200 210 219
198 208 216
199 209 215
192 203 211
204 213 221
204 214 224
208 217 225
195 206 215
196 206 212
207 217 227
201 211 219
201 212 222
171 185 186
97 124 74
93 120 72
94 120 72
98 123 81
138 157 138
164 178 171
191 201 207
203 213 222
205 215 225
203 212 221
202 211 219
203 213 221
201 211 218
208 217 225
197 208 217
200 211 220
197 208 217
202 211 219
201 211 220
198 209 217
199 210 217
201 212 221
199 208 216
203 213 222
205 214 224
195 205 211
198 209 219
155 171 161
90 117 70
91 118 70
94 121 72
97 125 75
93 120 71
94 121 73
93 120 72
91 117 69
94 121 73
96 123 73
96 123 73
93 120 72
97 124 74
95 122 73
94 121 72
94 121 72
95 122 73
95 122 73
93 120 72
94 122 73
96 123 74
93 120 71
94 121 72
96 124 75
94 121 72
95 122 73
93 120 72
123 143 118
208 216 224
205 215 224
205 214 222
201 211 220
199 210 220
196 207 216
202 212 221
170 185 181
151 167 155
120 139 115
97 124 75
98 125 76
93 120 71
99 127 76
92 119 71
93 120 72
94 122 73
92 119 71
95 122 73
93 120 72
96 124 75
95 123 74
93 120 71
97 124 75
94 121 73
98 125 75
97 125 75
96 123 74
183 195 195
200 210 221
200 210 219
202 211 220
197 207 215
207 216 225
207 217 228
202 212 220
200 210 219
197 207 214
200 210 219
208 217 227
207 216 225
205 215 224
197 208 218
205 215 225
202 211 218
202 212 220
201 211 218
198 208 215
197 207 214
205 215 224
206 215 224
203 212 219
199 210 219
207 216 225
207 217 226
195 206 214
182 194 198
96 124 75
95 122 73
96 123 74
96 124 74
92 119 71
93 121 72
95 123 74
94 121 72
96 123 74
95 122 73
96 124 74
98 126 76
96 123 74
93 120 72
92 120 72
94 122 73
88 115 68
96 123 74
96 123 74
95 123 74
93 120 71
95 122 73
95 123 73
97 124 74
95 122 73
96 124 74
90 117 69
96 124 75
193 203 206
194 205 215
205 215 224
200 210 217
201 210 216
203 212 222
193 204 211
198 209 218
201 211 218
204 214 224
195 206 215
205 216 227
196 207 215
207 217 228
204 214 225
200 210 219
211 220 229
202 213 223
198 208 215
195 206 215
189 200 203
172 185 183
173 186 184
151 168 156
140 159 140
124 145 114
106 129 92
96 123 74
195 205 211
195 206 215
204 213 222
205 215 224
202 212 222
203 212 220
204 213 222
205 216 228
203 213 222
197 208 218
203 213 221
200 210 218
198 208 216
198 208 215
196 207 215
204 214 222
203 213 219
204 214 222
206 216 226
199 209 217
199 209 217
201 211 220
198 208 216
208 217 226
200 211 221
202 212 220
212 221 231
155 170 161
93 120 71
96 124 74
90 117 70
95 122 73
97 124 75
99 126 76
96 123 74
95 122 74
92 119 71
92 119 71
95 123 74
95 121 72
96 123 74
93 120 72
94 121 72
94 122 73
92 119 71
96 124 74
94 122 73
93 120 72
95 122 73
98 125 75
95 122 74
95 123 74
95 122 73
106 130 91
194 204 211
199 209 217
199 210 218
200 210 215
206 215 223
207 216 224
205 216 227
201 210 217
200 210 218
200 210 219
205 214 224
207 217 228
201 211 220
205 215 227
203 213 221
196 206 212
200 210 217
197 207 215
188 200 207
202 212 221
199 210 219
196 207 214
199 209 217
198 208 214
204 214 223
181 193 195
97 124 75
95 121 72
92 119 71
91 118 70
96 124 74
92 119 71
91 118 70
91 118 70
89 115 69
92 119 71
92 119 71
92 119 71
97 125 75
94 121 72
94 122 74
94 121 72
97 125 75
94 121 73
97 124 75
97 124 74
91 118 71
93 119 71
96 123 74
97 124 74
174 187 186
199 210 217
202 212 219
202 212 221
204 214 223
199 209 217
202 212 220
201 211 218
205 214 222
203 213 221
201 212 221
209 219 230
200 210 219
202 212 221
200 210 217
195 206 214
204 213 220
200 210 218
198 209 218
188 200 206
205 215 226
208 217 225
193 204 212
174 186 184
98 125 75
92 119 71
95 122 73
92 119 71
94 121 72
94 122 72
93 120 71
93 121 73
95 122 74
94 120 72
93 120 72
93 120 72
97 124 74
96 124 74
93 119 71
95 122 73
97 125 75
94 120 71
104 128 92
128 147 123
136 154 134
137 155 135
149 166 155
116 138 105
117 140 108
95 123 76
91 118 70
96 123 74
93 119 71
95 123 73
93 120 72
95 122 73
94 121 73
98 125 75
94 122 73
95 122 73
96 124 75
93 120 71
92 119 71
96 123 74
97 124 75
96 123 73
93 120 72
98 125 75
96 123 74
92 119 71
92 120 72
95 122 73
92 118 70
143 161 144
199 209 216
196 206 212
197 207 215
201 211 219
198 208 215
197 207 216
200 210 217
199 209 219
200 210 218
203 213 221
196 206 213
198 209 217
206 216 226
205 214 222
199 208 216
212 220 228
196 207 213
176 188 188
129 149 125
94 121 72
94 121 72
93 121 72
92 119 71
96 123 74
95 123 73
140 158 139
195 206 212
204 213 222
197 208 218
194 205 211
201 211 220
206 215 225
196 207 215
198 208 218
205 215 223
208 218 229
204 214 224
198 209 218
200 210 216
212 221 231
198 209 220
210 219 229
197 207 215
209 217 226
194 205 214
204 213 222
204 214 222
197 208 215
197 208 216
197 207 215
205 215 225
201 212 222
183 195 197
97 124 74
95 123 74
96 123 74
98 125 75
91 118 71
96 123 74
102 128 86
139 157 139
174 187 187
202 213 223
207 216 227
202 212 220
203 214 226
193 205 211
204 214 222
202 212 221
201 211 221
198 209 217
206 215 222
199 209 218
210 218 226
197 207 214
206 216 224
204 213 221
202 213 221
203 213 221
197 207 216
150 167 154
97 124 74
93 120 72
95 122 74
92 119 72
91 118 71
93 120 71
96 124 74
97 125 75
95 121 73
96 123 74
93 120 72
98 125 75
94 122 73
94 121 73
92 119 71
95 122 73
88 115 68
94 121 73
94 121 73
94 121 73
95 123 74
93 121 73
97 124 75
96 123 73
94 121 72
97 125 75
97 125 75
138 155 137
203 213 221
200 210 218
201 211 219
199 209 216
202 212 221
197 207 214
204 214 225
202 212 219
198 208 214
199 208 215
196 207 213
175 188 187
148 164 151
99 124 85
95 123 74
96 123 73
91 117 70
94 121 72
93 120 72
95 122 73
94 121 72
92 120 71
96 123 74
96 123 74
97 124 74
96 123 74
93 120 71
94 121 73
200 210 218
200 209 218
200 211 222
199 210 220
210 218 228
199 209 217
206 216 224
204 214 221
210 219 229
203 212 221
194 205 210
206 216 225
205 215 225
202 211 220
203 213 222
200 210 221
197 207 215
203 213 221
206 215 224
203 213 221
207 217 228
195 206 214
200 211 220
206 215 225
206 216 225
200 209 215
203 212 220
196 206 214
154 170 159
97 125 76
93 120 72
96 123 74
97 124 75
95 121 72
96 123 74
93 120 72
95 122 73
98 126 76
95 123 73
95 122 74
98 125 75
97 125 76
97 124 74
90 117 69
96 124 75
93 120 73
91 118 71
97 125 75
93 120 72
95 122 73
88 115 68
91 118 69
94 121 73
93 120 71
93 120 72
94 120 71
123 144 117
205 215 225
198 209 218
197 207 214
205 214 223
204 214 225
196 207 216
204 213 223
199 210 218
193 203 210
204 214 225
200 210 218
200 210 219
203 212 221
206 216 227
205 214 223
197 208 217
193 204 211
200 210 218
205 215 225
199 209 217
204 214 223
203 214 223
205 214 224
204 213 222
196 206 212
194 206 217
206 215 224
168 182 177
107 131 94
129 148 128
143 160 142
159 175 168
178 190 188
179 191 192
192 204 210
198 208 215
206 217 228
208 218 228
201 211 219
198 209 216
199 209 217
197 208 215
195 206 215
192 202 209
199 208 215
206 216 225
200 210 217
198 208 215
203 213 221
206 216 227
201 211 218
195 205 210
197 208 217
202 212 219
194 205 211
103 128 88
96 123 74
96 124 75
93 120 72
93 120 70
96 122 73
95 122 73
97 124 75
97 125 76
91 118 70
98 125 75
88 115 68
97 125 75
98 125 76
95 123 74
91 118 70
93 120 72
93 120 72
96 123 73
94 122 73
95 123 73
95 122 74
92 119 71
96 123 73
93 120 71
94 121 73
143 160 145
206 215 224
198 209 220
201 212 221
198 208 215
198 208 216
198 209 217
198 208 217
204 213 220
204 214 222
187 200 206
203 213 221
198 208 216
202 212 220
201 211 219
196 207 215
204 213 221
200 210 218
202 212 219
193 203 209
201 212 222
206 216 225
204 214 224
203 212 221
203 214 223
206 216 224
125 146 118
96 123 74
98 126 76
93 120 72
91 118 69
96 124 75
94 122 73
94 121 73
94 121 72
91 118 70
96 123 74
97 124 74
93 120 72
92 119 72
97 125 75
95 122 73
96 124 75
98 126 75
95 122 73
92 118 71
95 122 73
94 121 73
94 122 73
92 118 70
152 168 153
200 210 219
193 203 210
204 214 223
205 215 224
209 218 227
197 208 215
205 214 221
201 211 218
206 215 224
194 205 214
206 215 224
205 214 223
202 212 221
206 216 226
203 212 221
198 208 214
198 208 215
206 216 227
202 212 220
201 211 217
201 211 218
207 216 224
186 197 201
105 129 89
99 126 75
93 120 72
95 122 73
96 124 74
95 123 73
95 122 73
92 119 71
93 120 72
96 123 74
94 120 75
117 139 108
125 145 120
151 167 158
145 161 146
168 182 176
165 179 174
197 207 213
202 213 222
209 218 227
202 212 221
203 213 219
107 131 92
93 120 72
96 123 73
97 124 74
97 124 74
96 123 74
96 123 74
93 120 72
96 123 74
95 122 73
91 118 71
96 123 74
97 125 75
93 121 72
95 123 74
94 121 72
93 120 71
95 122 74
95 122 73
93 120 72
95 122 73
96 123 74
98 126 76
97 125 75
96 124 76
94 121 73
91 118 70
97 125 75
119 140 112
200 209 216
200 211 221
206 215 224
198 208 215
208 217 225
206 216 225
202 211 218
201 211 219
201 212 222
201 210 219
206 216 225
206 216 227
199 209 216
201 211 220
200 210 219
197 207 218
206 217 227
197 208 216
209 218 227
190 200 203
145 163 149
113 137 100
90 116 69
100 128 76
95 122 72
121 143 114
196 206 213
204 214 222
199 208 215
199 210 219
201 211 221
202 212 222
202 213 222
206 216 227
199 209 217
204 213 222
201 211 219
199 209 214
199 210 217
204 214 223
200 209 215
208 217 226
196 207 216
200 210 216
199 209 216
205 215 225
204 214 223
198 208 216
201 211 220
199 209 215
200 210 217
206 215 224
174 186 184
94 122 73
99 126 76
96 123 73
93 120 72
93 120 72
95 122 73
96 123 74
95 122 73
94 121 73
98 124 80
138 156 138
172 185 184
195 206 213
203 213 222
202 212 221
202 211 218
200 209 215
199 208 215
201 211 221
202 212 221
202 212 219
197 207 216
207 216 224
203 213 220
210 219 229
199 208 216
201 211 220
127 148 124
96 123 74
96 124 74
92 119 71
93 120 73
91 119 71
93 120 71
94 121 72
93 120 72
95 122 73
98 126 75
94 121 73
93 120 72
93 121 72
94 122 74
92 119 72
97 125 76
95 122 73
94 122 73
94 122 73
94 121 73
94 122 74
95 122 73
93 120 72
94 121 73
92 119 71
98 126 77
93 120 72
159 174 165
198 209 216
200 210 219
202 212 220
199 210 218
194 204 211
205 215 226
194 205 214
205 215 225
208 217 226
202 212 219
208 217 227
199 210 219
201 211 219
198 209 217
183 194 196
165 180 177
148 165 156
111 134 102
94 121 72
94 121 73
95 122 73
96 123 74
94 122 73
92 119 71
96 124 75
95 122 73
93 121 73
116 138 107
204 213 221
207 216 225
199 209 218
202 212 220
205 215 224
202 211 219
198 209 218
195 206 212
210 219 230
206 215 224
205 215 226
206 215 222
200 209 216
201 211 218
206 217 227
208 218 228
206 215 223
198 209 218
190 202 210
202 212 221
205 215 226
200 211 220
203 213 221
206 215 225
205 214 222
197 208 216
201 211 220
197 207 215
113 136 106
96 123 74
96 123 74
95 123 74
98 125 75
97 124 74
94 121 73
95 122 73
93 120 72
98 125 75
94 121 73
94 121 72
93 120 72
94 121 72
96 123 74
94 121 73
93 120 72
96 124 74
96 123 74
93 120 72
98 125 75
93 120 72
97 124 75
93 120 72
92 119 71
98 126 76
95 122 73
98 125 75
168 182 176
195 206 213
203 213 221
204 213 221
197 207 217
200 210 218
208 217 225
201 211 221
197 208 216
202 212 220
196 208 216
203 213 223
207 216 223
205 214 224
203 214 224
203 213 221
201 211 220
194 205 214
202 212 220
209 218 227
202 212 220
199 209 217
197 208 216
203 213 220
206 216 226
209 219 228
199 209 216
196 206 214
127 147 120
95 122 73
98 126 75
96 123 74
93 120 72
96 124 75
96 123 74
94 121 72
97 124 75
101 127 85
116 138 107
130 150 128
144 161 146
158 173 164
158 172 165
170 184 182
180 193 195
184 197 201
199 210 216
199 209 215
204 212 220
196 207 216
204 214 224
193 204 211
200 210 219
207 216 224
203 213 223
160 175 169
97 125 76
94 122 73
95 122 73
98 126 75
100 128 77
93 120 71
93 120 71
91 117 70
95 122 73
95 122 73
96 123 74
92 119 71
92 119 72
94 121 72
97 124 74
95 122 74
94 122 73
97 124 75
96 123 74
98 125 75
94 121 73
93 120 72
96 123 73
95 122 73
94 121 72
99 125 81
199 210 218
201 211 220
199 209 217
196 207 213
198 209 217
204 214 223
194 204 211
201 211 220
204 214 222
205 214 223
206 215 222
202 212 219
203 213 222
203 213 221
201 211 218
204 213 222
198 209 218
204 214 224
197 208 216
206 216 225
211 220 229
198 209 218
203 212 218
201 210 218
203 214 226
145 162 149
90 117 69
98 126 75
95 122 73
95 122 73
93 120 72
96 124 75
94 121 72
90 117 70
96 123 74
94 121 72
93 120 72
95 122 73
94 121 73
96 124 74
93 120 71
93 119 71
96 123 74
94 122 73
96 123 74
95 122 73
94 122 73
92 119 72
91 118 70
106 129 92
195 205 211
201 211 220
204 213 222
201 211 221
198 209 217
201 211 221
200 210 218
198 209 216
202 211 220
198 209 217
200 210 217
201 212 222
197 207 215
204 215 225
203 212 219
204 214 222
196 207 215
205 215 225
188 199 203
201 211 220
196 207 217
200 211 221
209 218 228
124 145 119
92 119 71
101 127 83
108 132 96
129 148 125
155 170 164
152 169 155
168 182 176
173 186 185
187 199 202
192 203 208
191 202 207
201 210 219
203 213 223
201 211 218
203 214 223
198 209 217
202 212 221
197 207 213
200 211 221
205 214 223
201 210 216
124 144 119
97 125 75
94 122 73
96 123 74
93 120 71
94 121 73
97 124 74
95 122 72
95 122 72
94 122 73
93 120 71
95 122 73
91 118 70
97 125 75
95 122 73
92 119 71
94 121 72
95 122 73
92 119 72
95 122 73
130 150 129
94 120 71
96 124 74
96 123 74
95 122 73
92 119 71
93 120 71
94 122 73
94 121 73
93 120 72
194 205 211
203 214 225
202 213 223
206 216 226
193 204 213
200 210 218
203 212 221
200 211 219
203 213 221
196 206 212
197 207 213
192 203 211
198 210 220
200 211 221
201 211 220
196 207 217
195 206 214
198 209 219
198 209 216
196 206 212
198 208 216
199 209 216
185 197 198
136 155 136
92 118 73
117 139 107
203 213 222
201 211 221
195 205 210
198 208 214
201 211 219
199 209 219
196 207 214
203 213 222
202 210 215
202 211 218
204 214 222
200 210 217
208 217 225
193 204 211
206 216 226
208 218 228
197 207 215
198 209 217
194 204 210
212 221 231
193 204 212
202 212 220
203 212 219
206 216 227
201 211 219
201 210 217
181 193 191
93 120 71
97 124 75
95 122 73
93 119 71
95 123 73
95 123 74
94 121 72
93 120 71
95 122 73
94 122 74
94 121 72
94 121 73
105 130 90
142 160 143
173 187 185
199 209 216
196 207 214
201 211 220
200 211 219
204 213 221
193 204 212
208 217 226
200 210 219
198 209 217
202 212 221
200 210 220
195 206 214
124 145 117
96 123 74
96 123 74
88 115 68
95 122 73
90 117 70
93 120 72
96 123 73
95 122 73
98 126 75
91 118 70
95 122 73
93 120 72
96 123 74
95 122 74
96 123 75
92 119 71
98 125 75
95 122 72
98 125 75
94 121 73
94 121 73
96 123 74
94 121 72
93 120 73
96 124 75
96 123 74
94 121 72
179 191 187
200 210 219
201 210 218
208 216 223
201 211 220
204 213 220
205 215 225
199 209 218
213 222 231
196 207 214
202 212 222
205 215 225
201 212 222
200 210 216
199 209 217
196 207 213
204 214 223
208 217 227
206 215 222
188 200 203
165 179 172
147 164 151
114 135 104
95 122 73
93 120 72
94 121 72
93 120 72
93 120 71
142 158 143
195 205 213
202 213 221
207 217 226
205 215 225
207 216 224
195 206 213
206 215 223
200 211 221
200 210 221
203 213 223
201 211 220
199 210 219
200 211 219
204 214 225
197 208 216
205 215 223
201 211 220
204 214 225
192 203 211
206 215 225
197 208 218
206 215 224
202 212 221
196 207 213
204 213 220
205 215 224
197 207 214
200 211 219
94 121 72
96 123 74
94 121 72
91 118 70
95 122 72
95 122 73
94 122 73
96 123 74
93 120 72
94 121 73
95 122 73
92 119 72
94 121 73
98 125 75
93 120 72
92 119 71
97 124 74
97 124 75
95 122 74
93 120 72
97 125 75
92 119 71
93 120 72
98 125 75
96 123 74
97 125 75
96 123 74
94 119 74
187 198 201
203 213 223
207 217 227
201 211 220
210 219 229
204 214 221
198 207 215
193 204 211
192 203 209
198 209 217
199 210 219
201 211 222
198 208 215
190 201 207
207 216 224
205 215 225
199 209 218
203 213 222
196 206 214
203 213 222
203 212 220
200 210 219
207 216 225
206 216 226
206 215 224
200 210 216
201 210 218
187 198 200
96 124 75
92 119 71
92 119 71
96 123 73
94 121 72
96 123 74
94 122 73
94 121 73
98 125 75
91 118 70
95 122 73
93 120 72
95 122 73
94 121 72
97 125 75
91 118 70
93 120 71
97 124 74
92 119 71
100 126 86
113 136 103
129 148 127
141 158 141
153 169 159
149 166 152
161 177 172
183 195 197
143 160 147
111 134 100
119 139 111
97 123 78
100 127 81
95 122 74
96 124 74
93 120 72
95 123 73
94 122 73
90 118 71
93 120 71
92 119 71
96 124 74
92 119 71
94 120 71
94 122 73
93 120 72
93 119 71
93 120 72
96 122 73
93 120 72
99 127 76
93 120 72
95 122 73
96 123 74
158 173 165
205 215 223
202 212 220
206 215 223
197 207 213
195 206 213
202 212 220
202 212 220
200 210 219
203 214 223
199 209 217
202 211 217
199 208 215
198 208 215
204 213 221
189 200 205
202 213 222
195 206 214
200 209 216
194 205 214
205 214 222
197 208 217
197 207 215
208 218 229
208 217 226
185 197 202
104 129 90
94 121 72
96 123 74
96 123 74
93 120 72
93 120 72
95 123 74
97 124 74
96 123 74
99 126 76
96 124 75
94 121 72
97 124 75
97 124 75
95 123 75
92 119 70
98 125 75
90 117 70
96 123 73
96 124 75
97 124 74
92 119 71
93 120 71
95 122 73
171 183 182
204 214 221
206 216 225
208 217 225
201 211 220
206 215 223
193 204 212
200 210 220
201 211 219
200 212 223
194 206 214
194 205 214
205 215 225
203 212 220
199 209 215
183 195 198
186 198 201
178 190 192
178 191 192
150 167 155
153 169 157
145 162 146
143 161 145
171 184 182
192 202 207
197 206 212
197 207 215
206 216 226
209 218 225
197 207 216
199 208 215
197 208 218
198 209 216
206 216 226
208 218 229
200 210 218
198 207 214
195 206 213
197 208 215
204 214 224
198 208 215
196 206 212
199 209 215
199 209 219
196 206 214
155 170 160
95 122 73
94 122 73
93 120 72
94 121 72
94 121 72
97 124 74
94 121 72
97 125 75
93 119 71
96 123 74
92 119 71
95 123 74
96 123 73
95 122 74
99 127 76
96 123 74
93 120 71
96 123 74
95 122 73
119 141 110
194 205 211
175 189 189
122 143 116
94 121 73
96 123 74
91 118 70
92 119 70
99 127 76
96 124 75
95 122 73
185 197 202
194 205 213
196 206 216
206 215 224
198 209 218
194 204 211
197 208 215
201 211 221
202 212 220
199 210 218
201 211 218
197 207 216
202 211 218
202 213 222
205 215 223
199 209 217
192 203 209
209 218 228
208 217 227
199 208 215
197 208 218
201 210 218
202 212 220
199 210 218
194 205 211
167 181 175
184 196 198
200 210 218
201 211 220
205 215 225
205 215 224
199 209 218
199 209 218
200 209 217
198 209 218
196 206 212
201 212 221
198 208 216
209 218 226
203 213 221
196 207 213
202 212 221
204 214 223
204 213 222
202 212 222
199 210 217
207 215 223
202 211 218
200 210 217
203 213 221
205 215 226
203 213 221
172 186 185
94 121 72
94 122 73
96 123 74
97 124 75
95 121 73
98 125 75
97 124 74
95 122 73
93 121 72
91 118 71
93 120 72
94 121 73
91 118 70
95 122 73
94 121 73
95 122 75
138 156 137
163 177 172
189 200 204
199 209 215
201 212 220
195 206 212
203 213 220
195 207 214
204 214 221
199 210 220
201 211 220
121 142 115
91 119 71
95 123 74
93 120 72
95 122 73
95 122 73
91 118 71
95 122 73
93 120 72
97 124 75
95 122 73
93 119 70
98 126 76
94 121 72
93 121 73
97 124 75
95 122 73
95 122 72
94 121 72
95 122 73
96 123 73
89 115 69
94 121 73
90 117 70
97 125 75
89 116 69
92 119 71
96 123 74
186 198 201
203 213 221
204 214 223
200 211 220
204 214 223
200 209 219
196 206 213
200 210 217
206 216 226
205 215 224
201 211 220
199 210 221
204 214 222
205 215 225
209 218 226
203 213 223
203 212 220
204 213 221
198 209 216
202 212 220
207 217 227
201 211 219
202 212 220
194 204 207
169 184 180
145 161 147
123 144 119
96 123 76
159 174 164
209 218 228
202 212 220
198 208 216
197 208 216
207 216 227
204 213 222
196 206 213
197 206 213
199 209 216
193 205 212
203 212 219
198 208 216
208 216 224
196 206 213
200 211 220
200 210 218
205 215 223
207 216 225
201 211 218
200 211 222
202 212 221
205 216 227
200 210 217
201 211 220
202 212 221
206 215 224
200 210 219
182 194 196
96 123 74
94 121 73
96 124 75
95 122 72
97 124 75
93 121 72
92 118 71
95 122 73
95 123 73
97 124 75
97 123 73
95 123 74
99 127 76
92 119 71
97 123 74
94 121 72
94 122 73
90 117 70
94 122 73
96 123 73
93 120 72
92 119 71
97 125 75
93 119 71
96 123 74
93 120 72
93 120 71
113 135 110
206 215 223
202 212 221
211 221 232
200 211 221
195 206 213
203 213 220
200 211 220
200 210 219
198 209 217
195 205 213
201 211 218
196 206 211
201 212 223
197 208 217
200 210 218
201 211 219
202 212 220
199 210 218
204 214 222
204 213 223
204 214 223
199 209 218
205 215 223
200 210 220
197 207 215
202 212 223
207 217 227
142 159 143
93 121 72
97 125 75
93 120 71
95 123 74
99 127 77
96 124 74
96 124 75
96 123 73
96 123 74
94 121 72
92 118 71
97 124 74
94 122 73
96 123 73
94 122 73
95 123 73
93 119 70
96 124 75
91 117 70
92 119 71
95 123 74
93 120 71
95 123 74
95 122 73
97 124 74
92 119 71
147 163 149
196 207 215
202 212 219
196 206 213
198 209 218
199 210 218
191 202 205
182 193 196
181 193 194
176 189 188
183 194 194
164 179 175
163 178 171
147 164 152
131 149 130
149 166 152
144 161 146
134 152 133
125 146 118
114 136 104
109 132 97
110 133 99
92 119 71
93 120 72
97 124 75
98 125 75
114 138 104
200 211 219
199 208 215
200 210 219
205 215 224
205 214 224
202 213 222
197 208 216
193 205 213
201 210 218
200 210 218
195 206 216
205 214 223
194 205 213
203 213 223
201 211 220
205 215 226
205 215 223
204 213 221
200 209 217
201 211 219
200 209 215
200 210 219
199 209 216
187 199 204
194 205 212
145 162 147
93 119 71
96 124 75
90 117 70
94 122 73
92 118 71
94 122 73
95 122 74
94 121 73
95 122 74
94 121 72
96 123 73
93 120 72
95 122 73
96 123 73
96 123 74
95 122 73
94 122 73
94 120 72
93 120 72
96 123 74
94 121 72
98 125 80
105 130 88
130 150 126
188 200 203
184 196 200
173 187 187
182 194 195
156 170 160
165 180 172
159 173 165
146 164 150
135 154 134
151 167 156
130 149 127
115 137 107
100 125 83
100 127 78
94 122 74
92 120 72
95 123 74
94 121 72
93 120 72
96 123 74
95 122 73
98 125 75
113 136 101
195 205 211
196 207 216
205 215 225
202 212 220
201 211 219
199 209 218
203 213 220
199 208 216
197 207 213
203 213 223
204 213 222
193 203 209
205 215 224
198 208 217
196 206 211
201 210 219
202 212 221
198 208 215
202 212 218
198 209 216
202 212 221
172 184 184
99 126 78
96 123 73
96 123 74
90 116 68
98 126 75
93 120 72
94 121 72
97 124 75
94 121 73
93 121 72
95 122 73
96 123 73
93 119 71
93 120 71
96 123 73
94 121 73
95 122 73
95 123 74
98 126 76
108 134 92
183 195 198
197 208 216
197 208 216
208 218 227
181 193 193
144 161 147
92 119 71
91 119 72
96 122 73
96 123 74
96 123 73
152 169 161
207 217 227
195 206 214
199 209 217
201 211 219
205 214 222
201 211 222
201 211 220
208 217 227
201 211 219
201 212 220
201 211 220
205 215 224
204 214 222
200 211 221
205 215 226
204 214 222
205 214 223
202 212 221
199 209 217
203 212 221
205 214 224
201 211 219
199 210 218
205 215 225
205 215 225
96 122 75
121 141 113
161 175 169
195 206 212
198 207 215
199 209 216
205 214 222
201 211 221
195 206 214
203 213 224
205 215 223
210 218 227
205 214 221
197 208 215
208 217 228
200 210 219
200 209 216
199 209 219
203 213 222
204 214 223
199 210 220
199 210 220
206 216 225
201 210 216
198 209 218
201 210 218
184 196 198
95 122 73
94 121 73
97 124 74
92 119 71
91 119 71
93 120 72
92 120 72
96 123 73
95 122 73
93 119 71
95 122 73
94 121 73
93 121 73
91 118 70
93 121 72
98 125 76
93 120 72
94 122 73
98 124 77
124 145 121
164 178 172
188 199 203
195 206 215
198 209 218
198 207 215
196 207 215
201 210 219
117 138 107
95 122 73
95 122 73
93 119 70
95 122 73
93 120 72
92 119 71
98 126 76
95 121 73
90 117 69
92 119 71
94 122 74
94 120 72
94 121 72
93 120 72
92 119 71
91 118 70
95 122 73
96 124 75
97 124 74
94 121 72
94 121 73
90 117 70
93 120 71
96 124 75
95 122 73
97 124 75
94 121 72
197 207 213
202 212 221
200 211 218
204 214 222
202 212 221
203 213 223
198 208 215
200 210 219
200 210 218
198 209 219
199 210 220
196 207 216
205 215 224
197 208 216
196 207 217
198 209 219
200 211 219
200 210 218
197 208 219
207 217 228
199 210 220
200 210 216
211 220 229
205 215 224
199 210 219
203 212 220
198 209 218
190 201 207
137 155 138
161 175 169
186 197 198
199 209 216
200 210 218
202 212 220
190 202 209
198 207 212
199 208 215
193 202 207
204 215 224
202 212 219
198 208 217
194 205 212
198 209 218
195 205 216
196 206 213
200 210 219
211 220 230
204 214 222
201 211 220
195 205 212
200 210 220
203 213 221
201 211 219
196 207 215
198 207 213
201 211 218
139 156 143
94 122 73
91 117 69
95 122 72
95 122 74
95 123 74
94 121 72
92 119 71
95 121 72
90 116 69
93 120 72
93 121 72
91 118 71
93 120 71
91 118 71
97 124 74
97 125 75
95 122 74
89 116 70
96 123 73
95 123 73
95 122 73
96 123 74
95 122 72
96 124 75
94 121 73
99 126 76
94 121 73
158 174 167
203 214 224
204 213 221
196 207 213
204 214 225
198 209 217
198 209 219
201 211 218
203 213 223
198 209 216
195 205 211
199 209 216
199 211 222
193 203 208
201 210 219
204 213 221
200 210 220
199 210 217
209 218 227
198 209 219
200 210 217
200 210 218
203 213 222
206 215 225
204 213 223
195 206 214
199 210 218
200 210 219
102 127 85
92 120 72
92 119 71
96 123 74
94 122 74
93 121 73
96 123 74
95 122 73
96 124 75
90 116 69
98 125 75
96 123 74
96 123 74
95 123 73
93 120 72
95 122 73
94 121 72
95 121 72
92 119 71
96 124 75
92 120 72
96 123 74
92 119 72
96 124 74
95 121 72
96 123 73
100 125 83
188 200 204
200 210 217
201 210 218
204 214 224
198 208 216
205 215 223
204 214 223
192 203 209
198 208 216
199 209 216
203 213 221
202 212 220
194 205 213
197 207 213
197 207 214
204 213 220
197 208 217
198 209 218
196 207 213
201 211 221
201 211 221
200 210 219
199 209 216
194 204 211
201 210 216
192 203 206
140 158 139
113 136 103
118 139 108
124 144 118
134 153 135
135 154 132
130 149 130
149 166 154
150 166 154
147 163 150
147 164 155
145 162 150
142 159 148
166 180 173
152 169 160
164 179 171
161 176 170
157 172 164
158 173 167
170 183 179
166 181 176
150 167 157
158 173 167
147 165 152
154 170 161
161 176 173
146 162 149
149 166 155
157 172 160
159 173 165
164 177 170
158 173 164
156 171 160
170 183 180
167 180 172
156 171 163
178 191 190
167 181 178
185 196 197
168 182 180
175 189 191
170 183 181
178 190 191
186 197 200
199 210 219
197 207 214
199 208 214
202 213 225
207 216 227
191 203 207
113 135 106
96 123 74
94 121 72
96 123 74
91 118 70
91 118 70
97 124 75
96 124 74
95 122 74
93 120 71
96 123 74
92 119 71
100 127 76
93 120 72
95 122 73
94 121 72
94 122 73
94 121 73
95 122 73
90 117 69
94 121 73
96 124 74
99 124 80
185 197 199
199 210 219
206 215 225
201 211 220
203 213 223
194 206 215
201 211 220
208 217 225
207 216 225
204 213 221
202 212 221
205 215 224
200 210 220
210 219 229
207 217 225
203 214 224
191 202 209
196 206 214
200 211 222
207 215 223
207 216 225
188 199 201
109 131 97
94 121 72
98 126 76
93 119 71
95 122 72
95 122 73
95 122 73
92 119 71
96 123 74
94 121 73
96 123 74
97 125 75
94 122 73
93 120 72
93 120 72
94 122 74
94 121 73
95 121 72
92 120 72
96 123 76
179 191 187
195 205 212
198 208 216
198 208 215
202 211 218
202 212 220
191 202 210
192 203 207
171 184 182
118 140 112
93 120 72
92 119 71
146 163 150
199 209 217
209 218 227
202 212 218
197 207 213
204 214 223
199 210 219
201 211 220
200 209 216
202 214 226
196 207 215
199 209 217
195 206 216
196 207 216
188 198 203
198 209 217
207 216 226
199 209 216
206 215 224
206 216 225
196 206 213
201 212 222
199 209 216
204 214 224
202 211 218
199 209 217
115 139 106
94 121 72
93 120 72
93 120 72
124 144 120
166 179 176
197 207 214
199 209 215
204 215 224
197 208 216
211 220 229
200 210 218
197 207 215
201 211 219
199 210 221
199 209 217
206 216 226
199 210 219
197 208 217
201 211 219
205 214 223
200 210 219
192 203 211
204 213 222
196 207 213
202 213 222
177 189 190
95 122 73
92 119 71
93 120 71
95 122 73
96 123 73
95 122 73
94 121 73
92 118 70
94 120 72
96 123 74
94 121 72
93 120 72
95 122 73
93 120 71
92 119 71
94 121 72
96 123 74
94 122 73
95 122 73
92 119 71
92 118 70
95 122 74
123 144 118
148 165 150
187 199 200
195 206 211
200 210 219
104 128 91
87 113 67
96 123 73
94 121 72
96 123 74
97 124 74
97 125 75
92 119 71
93 120 72
92 119 71
94 121 73
92 119 71
96 123 75
94 120 71
95 122 73
95 121 73
94 122 73
94 122 73
98 125 75
94 122 73
96 123 73
95 122 73
95 122 73
92 119 71
95 121 72
95 122 73
94 122 73
106 131 94
204 214 223
211 220 229
193 204 211
207 216 225
205 215 224
195 206 215
201 212 220
202 211 219
202 212 221
190 201 208
208 218 230
197 207 215
200 210 218
196 207 214
200 211 220
198 208 216
203 213 222
197 208 218
197 207 213
197 207 213
206 216 225
199 210 220
205 215 225
202 211 219
204 214 224
201 212 223
204 213 223
200 210 218
98 125 77
91 118 71
98 126 76
92 119 71
127 147 122
164 178 172
172 185 182
189 200 204
200 210 218
197 208 217
202 211 218
205 215 224
195 206 215
201 212 221
201 211 220
199 209 216
208 217 227
203 213 223
204 213 222
203 213 222
194 206 215
205 214 222
195 207 215
196 205 212
197 207 215
195 206 214
198 208 217
201 211 219
100 126 85
93 120 71
96 123 73
91 118 70
95 122 74
94 121 72
94 121 72
95 122 73
93 121 72
94 121 72
93 120 72
94 121 73
95 122 73
94 121 72
95 122 73
94 121 73
95 123 74
93 120 72
91 118 70
96 123 74
92 119 72
92 119 71
94 121 72
96 123 74
94 122 73
90 116 69
95 123 75
93 120 71
187 199 205
210 219 228
197 207 215
208 217 226
198 209 218
190 201 207
200 210 217
198 208 218
204 213 220
191 201 206
204 214 222
199 209 218
199 209 216
205 214 223
197 208 216
208 217 226
204 213 221
191 202 209
206 215 225
201 210 217
202 211 218
200 210 219
199 210 219
204 213 221
191 202 209
197 208 216
196 206 213
173 186 186
95 122 73
95 122 73
94 120 72
91 118 70
93 120 71
95 122 74
93 120 72
94 121 72
91 119 71
98 126 76
95 122 73
95 122 73
92 118 71
92 119 71
94 121 73
93 121 73
91 118 70
95 122 73
94 121 72
96 123 73
91 118 70
94 121 73
90 116 69
96 124 74
96 123 74
96 123 74
134 152 132
208 217 228
207 216 225
198 209 219
200 210 220
207 217 225
201 211 221
201 210 218
205 215 224
198 208 216
202 212 218
201 211 218
202 212 219
201 212 220
200 210 220
202 212 220
207 216 225
204 213 221
203 213 223
205 214 223
203 213 223
192 202 207
203 213 222
199 210 219
200 211 221
203 213 221
188 200 203
95 122 76
96 123 74
98 125 75
91 118 71
96 123 74
96 123 74
96 123 74
93 120 71
96 123 74
96 123 73
96 123 74
94 122 74
96 124 75
93 120 72
93 120 72
95 122 73
93 120 72
93 120 71
95 122 73
95 122 73
92 119 71
93 120 72
95 123 74
98 125 75
98 126 75
186 198 199
193 204 212
203 213 221
199 209 218
202 212 220
199 210 220
203 213 222
206 215 222
194 205 215
199 209 218
194 205 214
204 215 226
201 212 221
207 216 223
205 214 223
205 214 223
203 214 225
208 216 224
196 207 213
206 216 225
196 207 215
201 211 219
201 212 221
198 208 215
150 166 156
93 120 72
93 120 71
89 117 69
94 122 73
97 125 75
96 123 74
96 123 73
95 123 74
97 124 75
97 124 75
91 118 70
96 123 74
90 117 70
95 122 73
97 125 75
95 122 73
96 123 74
93 120 71
95 122 73
94 121 72
95 122 73
91 117 70
165 179 176
199 209 218
200 210 221
205 215 224
201 211 219
198 207 214
199 209 218
202 212 222
204 214 222
203 212 220
202 213 222
198 208 216
200 209 215
192 203 212
201 211 220
197 207 214
195 205 211
203 213 222
194 205 214
202 212 221
207 216 225
185 197 202
120 140 113
97 124 75
97 125 76
95 122 74
92 119 71
97 124 74
94 120 71
94 121 72
94 121 72
97 124 75
95 123 74
97 124 74
96 123 73
95 123 74
94 121 72
91 118 71
90 117 69
95 122 73
94 121 73
96 123 74
157 173 165
201 212 221
199 210 219
204 214 224
195 206 214
202 212 221
198 208 215
211 221 232
208 217 228
204 215 225
204 213 222
180 193 196
146 162 148
131 150 129
197 207 215
199 210 219
193 203 212
195 206 214
206 215 224
204 214 224
203 213 220
195 206 212
200 210 217
203 212 220
195 206 214
193 203 209
204 214 225
207 216 226
208 217 228
204 215 227
200 210 217
197 209 220
202 212 222
207 216 224
207 216 224
201 210 219
205 214 224
196 207 216
201 210 217
124 143 121
92 119 70
95 122 72
92 119 71
91 118 70
95 123 74
104 128 91
136 153 134
184 196 199
204 214 224
196 207 216
197 207 216
203 213 224
201 211 219
196 207 217
198 209 217
200 209 215
195 205 212
199 210 218
195 205 211
200 210 218
202 212 221
201 211 219
199 209 217
198 209 218
198 209 218
184 196 198
92 119 71
93 120 72
92 118 70
93 120 71
95 122 74
92 119 71
94 121 73
95 122 73
93 120 72
96 123 74
91 117 70
94 121 72
95 123 73
95 123 73
98 125 75
94 121 73
94 121 73
97 125 76
96 122 73
94 121 72
97 124 74
94 121 73
94 121 72
95 122 73
95 122 73
99 125 82
138 155 141
146 163 149
98 124 79
92 120 72
93 120 71
95 122 72
96 123 74
92 120 72
93 119 72
94 121 72
96 123 74
93 120 71
90 117 70
91 118 70
96 123 74
97 124 74
96 123 73
97 125 76
96 123 73
95 123 73
95 122 73
95 122 73
95 122 73
94 121 73
97 124 74
93 120 72
93 120 72
95 122 73
118 138 112
202 211 220
206 216 225
204 213 222
204 214 222
206 216 225
205 214 223
196 206 215
198 207 213
199 210 218
202 212 222
204 214 223
196 207 215
199 210 220
205 215 224
198 208 215
206 215 225
208 217 226
199 209 217
203 212 219
196 206 211
202 211 219
203 213 220
200 210 217
201 211 220
205 214 221
201 211 220
197 208 217
194 204 207
94 121 72
96 123 74
93 120 72
93 119 71
97 124 76
95 122 73
95 122 73
97 124 74
108 132 97
138 156 138
173 186 182
177 190 191
203 212 219
195 205 212
204 215 226
205 214 223
203 213 220
203 213 223
197 208 217
201 211 219
202 213 224
204 214 223
208 217 226
195 205 214
202 212 221
199 210 220
201 211 219
184 196 201
93 119 71
95 123 74
94 121 72
94 121 72
93 120 72
94 121 72
96 124 75
92 120 72
95 122 73
94 121 73
92 119 71
94 120 72
96 124 75
94 122 73
94 121 72
93 119 71
93 120 72
96 123 74
92 119 70
90 117 69
94 121 72
95 122 73
94 121 73
95 122 73
94 122 74
93 120 72
92 119 71
134 153 131
193 204 212
199 209 218
207 216 224
200 211 219
199 210 218
197 206 212
194 205 213
204 213 222
197 207 215
203 212 220
199 209 218
191 203 209
194 204 211
200 210 216
200 210 218
195 205 212
196 206 213
197 207 214
201 211 222
196 206 211
199 210 218
205 214 222
200 210 218
201 211 221
202 212 222
201 211 218
197 207 213
123 143 116
92 120 72
93 120 71
95 123 74
98 125 75
93 120 72
98 126 75
96 124 74
90 117 70
94 121 72
92 119 71
94 121 73
96 123 73
94 121 72
88 116 69
95 123 73
93 120 72
94 121 72
93 120 72
92 118 71
94 122 73
92 119 71
97 124 74
94 122 73
95 122 73
91 118 71
92 118 70
180 192 194
208 217 227
201 209 215
201 211 220
199 210 219
199 209 217
199 209 218
203 213 222
199 210 217
198 207 214
197 208 215
199 210 220
199 210 219
195 205 212
200 209 215
198 208 217
198 208 216
203 213 220
195 205 211
207 217 227
200 210 219
198 208 216
206 215 226
196 207 214
198 208 215
204 213 222
134 153 136
96 123 73
93 121 72
92 120 72
94 121 73
93 120 72
92 118 70
97 124 75
94 121 72
94 121 73
92 119 71
90 116 69
94 121 73
93 119 71
93 119 71
92 119 71
93 120 71
92 119 71
94 121 72
92 119 71
96 124 75
94 121 73
96 123 74
97 124 74
90 116 68
140 159 140
202 211 220
200 210 218
198 208 218
198 209 218
193 205 212
201 211 219
192 203 208
191 202 209
197 207 213
196 207 217
191 202 209
197 208 215
206 215 225
203 212 221
202 211 220
203 212 221
203 212 220
195 206 212
198 208 217
202 212 223
206 217 227
208 217 225
202 213 222
177 190 193
90 116 69
95 123 74
92 119 71
92 119 71
94 121 72
93 121 73
96 123 74
92 119 71
91 118 70
95 122 73
94 122 73
93 120 72
99 126 76
92 119 71
95 122 73
94 121 73
94 121 72
96 123 74
92 119 71
96 124 75
94 121 73
93 121 73
132 151 130
203 213 223
204 214 224
209 217 226
205 215 225
200 210 216
204 214 223
204 214 222
202 212 221
196 207 214
199 209 218
203 213 224
203 213 223
195 206 214
210 219 230
204 213 220
198 208 214
203 213 222
205 215 223
195 205 211
198 207 213
199 210 219
149 166 154
96 123 74
94 121 72
97 124 74
96 123 74
92 119 71
94 121 72
95 121 73
90 117 70
93 120 72
96 123 74
97 124 74
86 112 66
92 119 71
96 123 74
94 121 73
93 120 72
94 121 73
97 124 74
95 123 74
141 158 142
202 211 220
203 213 223
200 210 219
198 209 219
201 212 223
198 208 215
205 215 223
201 212 222
200 210 218
199 210 221
202 213 222
204 214 222
201 210 217
185 196 197
150 166 153
184 197 200
200 210 218
191 202 209
200 211 221
202 212 220
199 210 219
199 209 217
201 210 217
203 212 219
196 207 214
200 211 220
201 211 219
194 205 213
208 217 227
197 208 215
205 214 223
194 205 212
206 215 223
196 207 216
201 211 221
206 215 224
191 202 210
204 214 222
195 206 215
122 142 118
95 122 73
96 123 74
95 122 73
96 123 74
96 123 74
89 116 68
95 122 73
93 120 72
105 128 91
142 159 145
187 199 203
202 213 222
203 213 221
194 205 214
204 215 227
192 203 211
205 215 224
204 214 223
202 211 218
205 214 224
201 211 218
205 214 223
199 209 216
202 212 222
201 211 218
190 201 204
94 121 73
98 125 75
98 126 76
96 124 74
91 118 70
89 115 68
94 121 72
92 120 71
94 121 73
95 122 73
95 121 72
96 123 74
95 123 74
89 115 68
93 119 71
96 123 75
95 122 73
94 121 73
97 124 74
93 119 72
96 122 73
97 124 75
97 124 74
93 120 71
92 119 71
97 125 74
101 126 85
200 209 215
197 208 217
165 180 178
138 155 138
109 132 97
95 122 73
95 123 74
92 119 71
93 120 71
92 118 70
93 120 72
92 119 70
96 123 74
95 122 74
95 123 74
94 121 72
96 124 75
93 120 71
95 122 73
94 120 71
97 124 74
94 121 72
96 123 74
97 125 75
98 125 76
92 119 71
97 125 75
139 156 139
199 209 216
197 208 215
204 214 223
189 201 206
205 215 223
203 213 222
190 201 206
195 206 214
196 206 212
198 207 215
197 208 216
203 213 221
201 210 217
204 213 223
192 202 209
198 207 214
200 210 218
202 211 219
201 210 218
206 216 225
204 213 222
203 213 223
204 214 222
195 206 213
202 212 219
194 205 213
200 209 215
162 175 167
94 121 72
94 121 72
95 122 73
92 119 71
95 122 72
99 127 76
92 119 71
96 123 74
91 119 71
92 119 71
95 123 74
89 116 70
92 118 70
125 147 120
130 148 127
173 186 183
175 189 189
190 202 209
197 207 213
207 216 226
201 211 219
200 210 219
200 211 220
206 216 226
200 211 221
203 213 222
204 214 222
151 167 160
92 119 70
92 119 72
94 121 73
95 122 74
93 120 72
91 118 71
97 124 74
91 118 70
93 119 71
94 122 73
95 122 73
92 119 71
96 123 74
94 121 73
93 121 73
93 121 72
91 118 71
94 122 72
95 122 73
93 120 72
93 119 71
96 124 74
93 121 72
94 120 72
94 121 72
96 123 73
93 120 71
166 179 174
202 211 219
202 213 222
210 219 229
196 206 213
199 209 216
204 214 225
203 214 224
198 208 215
205 214 223
202 211 219
207 217 227
206 215 224
208 217 227
201 210 217
193 204 211
205 214 222
205 215 225
201 211 221
197 208 217
196 206 213
204 214 224
200 210 219
195 205 213
205 214 223
198 209 217
198 208 216
186 198 203
93 120 72
95 122 74
91 118 70
92 120 72
93 120 73
96 123 73
97 125 75
98 126 76
95 122 73
91 118 70
93 120 72
95 122 73
92 119 71
98 125 75
91 117 70
94 121 73
97 124 74
91 118 71
94 121 72
95 122 73
94 121 73
93 120 72
94 122 73
93 120 72
97 125 75
96 123 74
132 151 128
193 203 212
199 209 215
192 203 210
193 204 212
204 214 224
204 214 223
196 206 214
199 209 218
203 213 222
199 210 218
196 207 215
197 207 214
204 214 224
201 211 218
193 204 211
206 216 227
202 212 221
199 209 217
196 208 219
198 209 218
201 211 220
203 213 221
204 213 221
193 204 213
201 210 219
180 192 195
94 121 73
94 121 72
95 122 73
93 120 71
98 125 76
95 123 74
96 123 74
94 121 73
94 121 72
98 125 75
97 124 75
95 123 74
93 120 71
95 122 73
96 123 74
92 119 70
91 119 71
96 123 73
94 121 72
95 123 74
94 121 72
94 122 74
94 121 73
92 119 71
106 131 91
194 205 212
210 220 232
202 212 223
203 212 219
199 210 217
198 209 216
192 202 207
195 206 215
204 213 222
202 212 222
199 210 219
192 202 210
205 215 224
208 217 225
197 207 216
200 210 218
200 210 218
193 203 209
205 214 223
203 213 222
205 215 223
202 212 220
202 213 222
198 208 215
126 145 120
95 121 72
91 118 70
93 119 71
93 121 72
93 120 72
92 119 70
94 121 71
94 121 73
97 124 75
94 122 73
94 122 73
92 118 70
96 123 74
95 121 72
93 120 72
92 119 71
91 119 72
94 121 72
95 122 74
97 124 74
94 121 73
110 133 97
197 208 215
197 208 215
194 205 212
196 207 215
200 210 219
197 207 214
201 211 219
199 209 217
198 209 216
195 206 214
195 206 214
192 204 212
193 204 211
195 206 214
205 215 225
204 214 222
198 209 216
201 211 218
201 211 219
202 211 221
203 212 222
165 179 173
96 123 74
99 126 76
92 118 71
91 119 71
95 122 73
92 119 71
95 122 73
93 119 71
90 116 69
94 121 73
98 125 75
88 115 69
91 118 70
90 117 70
89 116 69
88 114 67
94 121 72
95 122 72
91 118 70
122 143 115
200 210 218
207 216 225
202 212 220
200 210 217
193 204 212
200 210 218
206 215 224
203 212 221
198 208 215
196 206 214
202 212 221
195 205 212
205 215 224
195 207 217
194 205 211
105 129 91
93 119 70
128 147 125
163 178 175
191 203 208
205 214 221
200 210 220
200 211 220
199 209 218
203 212 222
198 208 216
204 214 224
200 210 218
197 208 218
202 211 220
204 214 224
200 211 220
202 212 220
207 218 228
199 209 218
201 211 219
206 215 225
200 210 219
197 208 218
200 210 220
141 158 145
91 117 70
92 119 71
94 122 73
91 118 70
92 120 72
94 121 72
96 122 73
94 121 72
92 118 70
93 120 72
92 119 71
119 140 111
157 173 163
194 205 211
198 208 215
202 213 223
205 214 223
192 203 210
199 209 216
198 209 217
201 211 220
206 216 224
207 215 222
198 208 216
199 209 219
177 191 192
96 123 74
93 120 72
98 125 75
94 121 73
94 121 73
93 121 72
95 122 73
93 120 72
92 119 70
92 119 71
94 122 73
95 122 72
94 121 72
95 122 72
93 121 73
94 121 72
92 119 71
93 120 71
96 123 74
93 120 73
92 119 71
91 118 71
94 121 71
94 121 73
92 120 72
95 123 74
117 139 110
193 205 212
195 205 212
200 210 219
195 206 214
198 209 217
185 196 199
166 180 174
119 141 111
99 124 79
92 119 71
89 116 70
95 122 73
95 122 73
96 124 75
94 121 72
95 122 73
94 121 72
95 122 73
92 119 71
93 120 72
93 120 72
96 123 74
93 121 73
93 121 73
95 122 73
97 125 74
97 124 75
153 168 156
197 207 216
199 208 215
197 208 217
209 218 227
195 205 213
198 209 217
204 214 224
199 209 216
200 210 217
202 211 220
209 219 230
199 209 217
197 208 215
199 210 219
204 214 222
203 212 220
203 213 221
202 212 222
198 209 219
199 210 220
197 207 214
195 205 212
199 209 216
193 204 210
201 211 221
198 208 215
207 216 226
140 158 142
96 123 74
91 118 70
94 121 72
97 124 75
94 121 72
95 123 74
93 120 72
96 124 75
96 123 74
97 124 75
93 120 71
97 125 75
96 123 74
92 119 71
98 125 75
93 120 71
91 117 69
96 122 78
111 135 104
154 170 160
156 172 164
178 191 192
201 212 222
203 213 222
200 210 217
204 214 223
198 208 216
150 166 152
98 126 77
94 121 72
93 120 71
91 118 70
90 116 69
94 120 72
95 122 72
95 122 73
91 118 69
91 118 71
93 120 71
90 117 70
92 118 71
94 120 72
96 124 75
95 123 74
92 118 70
95 122 73
92 119 71
95 122 73
96 123 74
95 122 73
97 124 75
97 124 74
90 117 70
96 122 72
92 119 71
195 205 212
203 213 221
198 209 217
206 215 224
203 214 224
199 209 216
201 211 217
199 210 218
202 212 220
194 205 211
209 218 229
207 216 225
206 216 225
204 214 224
203 213 223
207 216 224
200 211 219
205 215 225
196 206 214
195 205 213
200 210 219
190 201 208
192 203 211
203 213 222
201 212 224
202 212 221
203 212 221
137 155 137
91 118 70
92 119 71
93 120 72
95 122 73
90 117 70
92 119 71
95 122 73
93 120 72
94 121 73
95 122 73
91 119 71
96 123 73
92 119 71
92 119 70
91 118 70
98 126 75
93 121 73
94 120 72
95 122 73
95 122 74
94 121 73
91 118 71
92 119 71
93 120 71
97 125 76
91 117 70
186 198 200
201 211 218
200 210 218
195 206 213
195 206 212
200 210 219
197 208 216
194 207 218
194 205 212
195 206 214
203 212 219
206 216 226
197 208 216
197 208 215
198 208 215
200 210 217
206 215 223
203 214 224
195 206 215
197 207 214
200 211 218
206 215 222
193 204 211
205 215 224
196 207 214
200 211 219
127 148 125
94 120 71
96 123 73
97 124 74
94 121 73
93 119 71
93 121 72
91 118 70
94 121 73
92 119 71
97 124 75
96 124 74
94 121 72
95 122 73
95 123 74
93 120 72
93 120 72
91 118 71
93 120 71
95 123 74
94 120 72
96 123 74
95 122 73
93 120 71
95 123 74
171 183 182
194 204 211
198 208 216
201 211 220
203 213 222
199 210 220
199 210 220
200 210 219
207 216 224
201 211 217
208 217 226
196 207 215
202 212 220
199 210 220
204 213 222
204 213 222
200 211 220
196 205 212
201 212 224
200 209 217
196 207 214
203 213 222
199 208 215
201 211 219
137 155 137
94 121 72
96 124 74
92 118 70
93 120 72
96 123 74
95 122 73
97 124 75
95 122 74
94 121 72
87 114 67
96 123 74
96 123 74
96 123 73
95 122 73
92 119 71
93 120 71
98 125 75
94 122 73
93 120 71
95 122 73
95 122 73
94 121 72
176 188 188
198 207 215
200 210 218
207 216 226
208 217 225
192 203 210
193 204 212
202 212 220
205 214 221
201 210 217
199 209 217
190 201 208
190 202 207
190 201 208
196 207 213
206 215 223
202 212 220
204 214 224
197 208 216
191 202 207
192 204 211
179 191 192
99 126 81
93 120 71
95 122 73
96 123 74
94 121 73
97 124 75
92 120 72
96 124 74
92 119 71
94 121 72
95 121 72
94 122 73
94 120 71
96 123 73
95 122 73
95 122 74
92 119 71
95 122 74
95 123 74
113 136 105
198 208 214
200 210 218
203 213 221
199 208 215
199 209 216
196 207 215
201 211 220
200 210 218
198 208 216
203 214 224
202 211 220
196 206 212
203 213 222
195 205 213
198 209 216
201 211 219
115 137 104
92 118 70
93 120 72
93 120 72
101 126 83
155 170 163
191 202 206
207 216 224
198 208 217
197 208 217
203 212 221
207 215 223
202 212 222
195 206 213
195 206 215
190 202 208
193 204 211
193 204 211
195 206 214
202 213 221
197 208 216
202 212 223
193 204 211
199 210 220
202 212 221
145 161 147
94 121 73
93 120 72
95 123 74
91 118 70
94 121 73
97 124 74
94 121 72
94 121 72
92 120 72
94 121 72
93 120 71
90 116 69
89 116 70
96 124 74
118 139 109
173 186 183
188 199 206
197 208 217
198 209 218
196 206 213
204 214 222
191 202 210
193 203 207
200 210 218
203 213 221
176 190 191
92 119 71
95 122 72
99 126 75
94 121 73
95 123 74
93 120 72
92 119 72
95 122 73
94 122 73
95 122 73
92 119 71
92 119 71
93 121 73
92 118 71
95 122 73
98 125 75
95 122 74
94 121 73
98 126 76
96 123 74
96 124 74
90 117 70
91 118 70
93 120 71
94 121 72
94 121 73
129 149 125
197 208 214
205 214 223
205 215 225
197 208 217
196 206 212
202 212 223
196 207 215
192 204 210
187 199 205
163 178 174
151 167 155
106 131 92
92 119 71
92 118 71
91 119 72
93 120 72
96 123 73
92 119 72
92 118 71
94 121 73
96 123 74
95 122 73
94 121 73
96 124 74
94 121 73
96 123 74
90 118 71
175 188 187
196 207 215
203 212 219
197 208 217
200 210 219
208 217 225
198 209 218
193 204 211
200 211 222
199 209 217
201 211 218
199 209 216
201 211 218
201 211 221
196 207 216
205 214 223
202 213 223
204 214 224
210 219 228
201 212 222
195 206 214
200 210 217
198 209 218
208 217 226
202 212 221
205 215 223
198 209 218
196 206 213
124 145 119
95 122 74
95 123 74
97 125 75
96 123 75
93 120 71
95 122 73
96 123 74
97 125 75
93 120 72
90 117 69
98 125 75
91 118 70
90 117 70
93 121 73
94 121 72
94 121 73
94 122 73
93 120 72
94 121 72
94 122 73
92 119 71
95 123 75
94 121 75
133 151 129
148 164 151
176 189 189
183 195 198
101 126 85
95 122 73
92 118 71
92 118 71
95 123 74
93 121 73
94 121 73
94 121 73
93 120 72
92 118 70
94 122 73
94 120 72
93 120 72
93 119 71
92 119 72
97 124 75
93 120 72
95 122 73
95 123 74
94 122 73
93 120 72
91 117 70
95 123 73
97 125 75
97 124 75
94 122 73
95 122 73
130 147 129
203 213 222
198 209 218
206 216 227
195 205 212
201 211 220
201 212 221
200 210 219
199 209 215
203 213 223
207 216 224
201 212 221
198 208 218
203 213 221
206 216 227
199 210 220
191 202 208
191 202 207
199 210 219
206 215 224
207 217 227
200 211 219
209 218 228
200 210 218
197 208 214
203 214 224
200 210 218
196 207 214
103 129 85
96 123 74
89 116 68
98 125 75
92 119 71
93 120 72
94 121 73
94 121 71
93 120 72
93 120 72
93 120 71
94 121 72
93 120 71
98 126 76
95 122 74
95 123 74
95 123 74
93 121 73
94 122 73
93 120 72
92 119 71
95 122 73
92 119 70
97 125 75
94 121 72
96 123 73
121 142 116
199 209 217
201 211 218
201 210 218
200 211 220
204 213 221
201 211 219
199 210 219
195 206 212
196 207 215
196 206 215
208 218 228
203 213 223
202 213 224
198 208 216
193 204 209
201 210 218
197 207 215
197 208 218
204 213 221
201 211 218
197 208 218
194 205 212
197 208 216
205 214 223
198 209 216
179 191 192
95 121 73
95 122 73
93 119 71
97 124 74
97 125 75
92 119 71
94 122 74
92 119 71
92 119 72
95 122 73
92 119 71
96 123 73
96 123 73
96 123 74
92 119 71
95 122 73
97 124 75
95 122 74
96 124 75
92 119 71
93 120 72
99 127 77
95 122 74
91 117 69
123 144 118
196 206 214
199 209 218
204 213 221
207 216 224
209 218 227
203 212 221
205 215 226
195 206 212
207 216 224
197 206 212
203 213 223
200 211 220
205 214 222
208 217 225
205 214 224
196 207 215
197 207 213
200 210 219
200 210 219
203 213 221
199 209 218
201 211 221
206 215 223
176 188 187
93 120 72
93 120 72
93 121 73
92 120 71
88 114 68
97 124 75
96 123 73
93 119 71
94 122 73
93 120 72
96 123 74
93 120 71
95 122 73
95 122 73
93 120 73
92 119 70
91 118 70
96 123 73
96 123 74
93 120 72
93 120 71
93 121 72
153 169 159
201 211 221
196 206 213
195 205 211
194 205 212
202 212 219
194 206 214
192 203 211
201 211 219
201 210 219
205 216 227
192 203 211
201 211 219
206 216 225
203 212 221
200 211 220
198 209 216
195 207 216
203 213 221
205 215 224
199 209 214
193 203 208
115 137 106
93 120 72
98 125 75
96 123 74
95 123 74
95 122 72
95 121 72
96 123 73
90 117 70
96 123 74
92 120 72
92 118 70
92 118 70
91 118 70
96 123 74
93 119 71
94 122 73
95 122 73
92 119 72
105 130 89
191 202 206
200 210 218
207 216 226
206 216 227
206 216 225
195 207 216
196 207 215
198 209 218
203 213 224
196 207 213
199 209 217
198 209 216
204 214 225
203 213 222
209 218 228
200 209 217
194 205 214
143 159 148
97 124 75
91 118 70
96 123 74
95 122 72
95 122 73
92 119 71
112 135 104
169 182 179
187 199 205
199 209 218
197 208 217
206 215 226
199 210 217
208 218 228
191 202 209
203 213 220
197 208 214
206 216 226
207 215 223
198 209 217
202 212 221
198 208 216
206 216 225
205 214 223
167 180 175
96 123 74
92 119 71
91 117 69
93 120 71
92 119 71
90 117 70
94 121 73
93 120 72
93 120 72
93 120 72
94 121 73
92 119 71
94 121 73
93 120 72
91 117 70
94 121 72
98 123 79
125 144 121
152 168 157
201 211 218
203 214 223
193 204 211
201 211 219
201 212 222
195 207 215
177 190 190
96 123 74
94 121 73
94 121 72
94 121 73
92 119 71
98 126 76
93 120 72
94 122 74
98 125 75
94 120 72
95 122 74
92 118 71
92 119 71
91 118 70
94 121 72
92 120 72
94 121 72
97 124 74
91 118 70
95 122 73
94 121 72
95 122 73
93 120 71
91 118 70
95 122 72
95 122 73
124 145 119
204 214 224
201 211 221
210 220 230
201 211 220
200 210 220
196 208 218
208 218 229
200 210 216
195 205 212
200 210 217
207 217 226
209 219 228
172 185 183
170 184 179
135 154 130
92 119 74
92 120 72
95 123 74
93 121 72
96 124 74
93 121 73
90 117 69
92 119 72
96 123 74
91 118 70
93 120 71
94 120 72
186 199 204
197 207 214
197 207 216
200 210 219
200 210 218
201 210 219
203 213 222
199 210 218
207 216 226
197 208 217
200 210 218
191 202 209
195 205 211
188 200 208
201 211 220
201 211 219
192 204 212
197 207 216
197 208 215
202 212 222
203 212 220
201 210 218
194 205 213
203 214 224
200 210 219
201 211 219
203 213 221
199 210 218
93 121 73
93 120 71
100 127 77
94 121 72
95 122 73
94 121 73
95 122 73
92 119 71
94 121 71
98 125 75
95 122 73
91 117 70
97 124 74
90 117 71
95 122 73
95 122 73
89 115 69
93 120 72
92 119 72
92 119 71
96 123 74
93 120 71
98 125 75
95 122 72
94 121 72
93 120 72
93 120 73
131 149 130
203 213 222
190 202 206
180 192 192
150 166 153
127 147 121
99 124 82
95 122 72
97 124 75
91 118 70
93 119 71
93 120 72
93 120 72
94 122 74
97 124 75
95 122 73
94 121 72
96 123 74
94 122 73
98 125 75
93 120 72
94 121 72
95 122 73
94 120 72
93 121 73
94 121 72
91 118 71
96 124 74
167 181 177
198 208 216
203 213 222
195 206 214
209 218 227
203 212 222
196 207 213
194 204 210
199 209 219
201 210 218
200 210 218
198 208 217
200 210 217
197 208 216
195 205 211
206 215 223
202 211 219
199 209 218
202 211 219
203 213 222
193 203 209
200 209 216
195 205 210
205 214 224
199 209 215
206 216 226
199 209 220
166 180 176
95 122 73
97 124 74
95 122 73
91 118 71
96 123 74
92 119 71
91 117 69
93 120 71
95 122 73
94 121 73
96 124 75
94 120 72
94 121 73
90 117 70
94 122 73
91 118 70
98 125 75
95 123 74
91 118 71
90 117 70
96 123 74
94 121 72
91 118 70
92 119 71
94 121 72
94 121 73
182 194 195
205 214 223
199 208 214
204 214 225
201 212 220
203 212 220
197 208 215
205 215 225
203 213 220
198 208 215
195 206 215
199 209 217
202 211 219
197 208 217
207 216 225
208 218 229
202 212 223
199 209 219
199 209 218
204 214 222
202 211 220
190 201 207
201 211 220
201 212 221
192 202 209
203 213 222
115 136 109
93 120 72
89 116 69
92 120 72
91 118 71
98 126 76
95 122 73
98 125 76
99 126 75
92 119 71
93 119 71
91 117 70
97 124 74
93 120 72
94 121 72
92 119 70
95 123 73
93 120 71
97 125 74
96 123 74
96 123 74
90 117 70
92 119 72
88 115 68
95 121 77
187 199 203
201 211 219
199 209 216
205 215 224
201 211 219
209 219 230
198 208 215
202 213 222
191 202 210
194 205 213
189 201 209
200 210 216
195 206 214
196 207 214
200 210 219
194 205 213
201 211 220
201 212 221
193 203 209
199 209 218
191 202 210
201 212 220
199 209 218
196 207 213
119 140 112
93 120 72
91 119 71
94 121 72
97 125 75
92 119 72
95 122 73
94 121 72
95 122 73
93 121 73
94 121 72
95 123 74
91 119 71
96 124 75
93 119 71
95 122 73
95 122 73
92 119 71
94 121 72
91 118 70
94 122 73
91 118 71
126 147 121
193 203 210
198 208 215
198 208 217
202 212 222
204 215 226
206 215 223
194 205 213
198 208 216
205 215 223
198 208 216
201 210 218
198 208 216
196 206 215
198 209 218
202 212 222
202 212 219
193 205 214
190 200 207
201 211 222
190 201 206
197 209 218
139 157 139
93 120 72
94 120 72
94 121 72
95 122 73
91 118 71
95 122 74
93 121 73
92 119 71
92 120 71
97 125 75
89 116 68
88 114 67
93 120 72
93 120 72
93 119 71
94 121 72
93 120 71
96 123 74
96 123 76
176 188 187
207 216 226
202 212 220
201 211 219
198 208 214
199 209 216
201 211 219
193 203 209
199 210 219
189 200 205
200 210 220
202 211 221
201 212 221
195 206 213
194 205 213
196 208 216
199 209 217
198 209 216
156 171 161
93 120 72
96 123 74
90 117 70
95 122 73
94 121 72
95 122 73
92 120 72
92 119 71
98 123 81
133 153 134
186 198 200
194 205 211
199 209 216
195 207 216
200 209 217
208 217 227
193 204 211
196 207 214
196 206 214
199 210 220
201 212 224
194 205 214
204 214 225
203 213 222
161 176 170
94 121 72
93 120 71
97 124 74
96 124 75
92 119 71
97 124 75
91 118 70
94 122 74
89 116 69
92 119 71
94 122 74
94 121 72
92 119 71
89 116 69
91 118 70
94 121 72
88 115 68
96 123 74
88 115 69
99 124 82
135 154 136
162 176 169
194 205 213
198 209 218
202 212 221
169 183 183
95 122 73
93 120 72
91 117 70
97 125 75
95 123 73
94 121 73
95 122 73
92 119 70
90 117 69
92 119 72
96 123 75
94 121 72
96 123 74
95 122 73
92 119 71
94 121 73
91 118 70
92 119 70
94 121 73
92 118 70
95 122 73
93 120 72
98 126 75
93 120 72
92 119 71
92 119 71
142 160 144
203 212 220
205 215 223
205 215 223
193 203 209
199 210 220
200 210 217
197 207 214
198 209 219
193 203 211
199 210 220
197 208 216
200 210 219
189 200 207
203 212 220
201 211 219
197 208 217
183 195 197
148 163 152
109 133 98
93 120 72
89 116 69
94 121 73
92 118 70
93 120 72
94 121 72
98 125 74
94 121 73
199 208 214
196 207 216
196 207 216
196 206 212
200 210 218
199 209 217
203 212 220
205 215 226
199 210 219
195 206 213
204 214 224
204 214 224
205 215 225
199 209 217
204 215 226
198 208 214
200 210 218
203 213 224
201 211 220
199 209 217
204 214 223
205 214 222
207 216 226
201 210 217
196 207 214
204 215 227
198 208 213
187 198 201
94 121 73
91 117 69
95 122 73
89 116 69
93 120 72
94 121 73
95 122 73
95 123 74
96 124 75
96 124 74
94 122 73
93 119 71
94 121 73
91 119 71
93 120 72
91 118 71
95 122 73
100 127 77
94 121 73
93 120 72
94 121 72
93 120 72
93 120 72
92 119 72
89 115 68
93 121 73
92 119 71
162 176 169
194 205 212
203 213 223
196 205 212
204 214 223
204 214 223
206 216 226
190 201 204
168 181 176
161 176 170
151 166 157
123 144 115
96 123 76
93 120 72
96 123 74
93 120 71
96 123 74
93 119 71
93 120 71
90 117 70
96 123 73
96 124 75
94 121 72
94 121 73
95 122 73
95 122 73
91 118 70
99 124 84
196 206 211
204 214 222
200 210 217
202 212 221
205 215 224
195 205 212
196 207 217
204 214 223
202 212 222
196 206 214
194 205 214
199 209 218
201 211 219
197 208 216
197 207 216
201 212 222
198 208 216
196 206 212
204 214 224
199 209 218
204 214 224
197 206 214
199 209 217
197 207 215
207 216 225
206 215 225
197 207 214
138 156 140
93 120 72
95 122 74
98 125 75
91 118 71
93 121 72
94 121 73
93 120 72
94 121 72
95 122 73
93 119 71
93 120 72
91 118 71
95 122 73
95 122 73
96 123 74
94 122 73
92 120 72
97 125 76
88 115 68
94 120 72
91 118 70
94 121 72
93 120 72
96 123 73
93 121 73
130 151 128
198 208 215
195 205 211
204 213 222
200 210 220
195 205 213
196 206 213
199 209 217
193 205 214
199 210 218
206 215 223
202 212 221
203 213 222
202 212 221
204 213 222
201 211 220
204 213 221
199 209 217
200 210 218
198 209 217
196 207 215
198 208 215
199 209 217
201 211 219
202 212 221
205 215 225
174 186 183
94 121 72
98 126 76
98 126 76
95 122 73
95 123 73
91 117 70
92 119 71
94 120 71
96 123 74
92 118 71
93 120 72
94 121 72
93 121 73
96 124 75
94 121 72
95 122 73
92 118 71
92 118 70
94 121 72
97 124 74
92 119 71
91 117 70
96 123 74
88 115 68
150 166 155
197 208 217
198 209 217
196 206 215
190 201 209
195 206 214
201 211 219
203 213 221
200 209 216
201 210 218
200 211 220
200 210 219
198 209 217
196 206 215
200 209 217
200 210 219
196 206 214
196 207 216
199 209 215
201 210 217
198 207 214
200 211 220
194 204 210
197 207 214
152 167 156
94 121 72
97 124 75
96 123 74
89 116 69
96 124 75
93 120 72
87 113 68
95 122 73
96 123 74
93 121 72
94 121 73
98 126 75
91 119 71
94 121 72
97 124 74
96 124 75
92 119 71
96 123 73
97 124 74
94 121 72
90 118 71
106 129 91
184 197 202
203 212 221
202 212 221
195 206 216
205 215 226
200 210 220
198 208 216
189 200 206
199 209 216
201 211 218
197 206 213
199 210 219
206 215 224
198 209 217
200 210 219
190 201 207
198 208 215
194 205 213
201 212 221
199 209 218
199 209 216
165 179 174
92 119 72
96 123 74
92 119 71
94 120 72
94 121 72
96 123 74
93 119 71
94 121 72
93 120 72
94 121 73
93 120 72
93 120 72
91 118 70
87 113 66
91 117 70
94 121 74
87 114 67
91 118 70
93 120 72
174 187 184
198 208 215
205 214 224
194 204 211
184 197 199
160 175 168
143 160 144
113 136 105
91 117 70
200 211 221
204 213 224
195 205 213
206 216 227
198 208 217
198 208 216
201 211 218
195 205 211
204 214 222
203 213 220
170 183 181
95 122 73
94 120 72
94 121 72
93 120 72
91 118 71
96 124 74
91 118 70
95 123 74
94 121 73
91 118 70
93 120 71
119 140 110
157 171 163
193 205 213
205 215 225
207 217 228
203 213 222
205 215 224
194 205 211
193 204 211
196 207 215
203 212 220
190 202 210
196 206 213
178 190 189
95 122 74
91 117 70
92 119 71
92 118 71
94 121 72
90 117 69
91 119 71
92 119 72
91 118 70
92 119 72
92 119 71
95 122 73
93 120 71
88 115 69
96 123 74
93 119 71
96 123 74
94 121 72
90 117 70
94 121 72
94 122 74
90 117 70
98 124 82
144 161 147
165 179 176
170 183 180
94 121 72
93 119 71
90 117 70
94 121 72
94 121 73
92 119 71
94 121 72
96 123 74
94 122 73
91 118 70
93 120 72
96 124 75
91 118 71
93 120 71
95 122 73
97 125 75
93 119 71
94 121 73
93 120 71
94 121 71
93 120 71
93 120 71
97 124 75
92 119 71
92 119 70
95 122 73
149 165 150
198 207 214
209 218 227
197 207 215
202 212 220
198 208 217
199 210 220
194 204 211
201 211 219
196 207 215
196 206 214
202 212 221
197 207 215
198 208 216
191 202 208
197 207 215
193 205 213
194 205 213
199 210 217
200 210 218
191 202 206
163 178 173
147 163 149
107 130 94
92 118 71
96 123 74
94 122 73
103 128 86
197 207 212
201 211 221
191 202 208
203 212 219
191 201 206
197 208 216
202 212 221
211 220 230
203 213 223
203 213 221
194 204 212
201 210 218
198 209 217
201 211 218
202 212 220
195 205 211
192 204 211
194 204 211
202 212 222
203 213 221
197 207 214
201 211 220
201 211 219
201 210 218
195 206 215
201 211 220
200 210 218
160 176 167
98 125 75
90 117 70
94 121 72
91 118 70
91 117 70
89 115 68
92 120 71
94 122 73
94 121 73
95 122 73
94 121 72
95 122 73
92 119 71
93 120 72
94 122 73
95 122 73
90 117 69
93 120 72
97 125 75
92 119 71
93 120 71
94 121 73
96 124 74
95 122 73
92 119 71
90 117 69
95 122 73
179 191 193
204 214 223
189 201 208
206 216 225
193 204 211
197 207 214
194 205 213
204 213 222
201 211 218
202 212 221
205 215 226
205 214 223
198 208 215
193 204 209
173 186 183
142 160 144
137 155 139
111 135 100
97 124 80
91 118 70
93 119 71
92 118 70
97 125 74
92 118 71
92 119 71
94 120 72
92 119 72
143 160 144
196 206 211
206 215 224
206 216 224
196 207 214
195 207 217
192 204 213
202 212 220
196 207 215
197 208 216
205 215 224
203 213 221
202 213 222
192 203 209
198 208 214
195 205 211
203 212 221
196 207 216
201 211 218
196 207 217
203 213 221
202 212 221
198 208 217
196 207 215
201 210 218
202 212 222
194 205 211
172 185 185
94 121 73
95 122 72
89 116 69
93 120 72
93 120 72
92 119 71
96 123 74
92 119 71
94 121 73
96 124 74
93 119 72
92 119 71
98 125 76
95 122 73
94 121 72
95 122 73
93 120 72
92 119 71
95 122 74
89 116 69
95 122 72
95 122 73
93 120 72
95 123 74
94 121 72
93 120 71
187 199 199
192 203 210
189 201 207
198 209 218
199 209 219
202 212 219
198 208 215
194 206 217
198 208 215
197 206 213
202 211 219
197 207 214
199 210 219
199 209 217
203 213 220
197 207 215
204 214 222
202 212 220
206 215 224
207 216 228
200 210 219
200 210 217
203 213 222
196 206 213
193 204 212
191 202 207
109 132 96
92 119 71
94 121 72
94 121 72
93 120 72
96 123 74
93 120 72
94 121 72
96 123 74
95 122 73
94 121 73
94 120 72
94 122 73
94 121 72
98 125 75
96 123 74
94 121 72
94 121 72
94 121 72
92 120 72
88 115 67
93 120 72
93 120 72
91 118 70
107 130 94
196 207 216
195 206 215
194 206 216
196 206 213
203 212 219
199 209 217
195 205 212
199 209 217
200 210 217
196 206 213
196 206 216
204 214 223
207 216 225
196 207 215
202 212 221
199 208 214
204 213 222
199 209 216
204 215 225
198 209 219
202 212 219
207 217 228
197 207 214
186 197 199
99 125 77
98 125 74
95 123 74
96 123 74
92 119 71
91 118 70
95 123 73
91 118 71
89 116 69
98 126 76
94 121 73
89 116 69
94 121 72
94 121 72
93 119 70
93 120 72
97 125 75
91 117 69
91 118 71
95 123 74
91 118 70
92 118 71
168 181 175
197 208 218
196 207 215
201 211 221
196 206 213
192 202 208
195 205 211
203 214 224
199 210 219
190 200 204
198 209 217
199 209 217
200 211 219
202 212 221
198 208 214
203 212 220
199 209 216
198 208 215
200 210 220
199 209 218
198 209 217
167 181 176
99 126 78
94 121 72
95 122 74
98 126 77
92 119 71
94 121 72
95 123 74
97 124 74
92 120 72
93 120 73
95 122 73
97 123 73
91 118 71
94 121 72
96 123 74
95 122 73
91 118 70
97 122 79
112 136 101
125 145 117
152 167 157
131 150 133
101 126 85
95 122 72
97 124 74
98 125 75
93 120 72
91 118 70
98 125 75
202 212 220
201 211 221
200 210 220
202 212 222
195 205 214
196 206 213
199 209 218
199 209 217
202 212 220
196 207 215
188 199 204
95 122 72
90 117 70
95 122 73
89 115 69
93 120 71
92 119 71
95 123 74
97 124 75
95 122 73
92 119 71
91 118 70
91 118 70
92 119 71
92 119 72
134 153 133
170 183 182
195 205 210
197 208 217
195 206 212
196 207 214
188 200 206
201 212 223
196 207 214
201 211 222
187 199 201
92 118 70
94 121 73
92 118 71
94 122 73
95 122 72
94 121 72
91 118 70
98 125 75
93 119 71
95 122 73
98 125 75
94 121 73
94 121 73
94 121 72
97 124 74
97 124 74
92 119 72
95 121 72
93 120 72
90 117 70
94 121 73
99 126 76
92 119 70
93 119 71
92 119 71
131 151 129
178 191 190
156 173 162
109 132 96
94 121 73
97 125 75
90 117 70
93 121 73
96 124 75
92 119 71
93 120 72
92 119 71
92 119 71
92 119 71
94 121 72
94 121 73
94 122 73
95 122 72
90 116 69
94 121 72
94 121 73
93 120 71
90 117 71
92 119 71
91 118 70
92 118 71
95 122 73
153 168 158
204 214 224
203 213 221
194 205 213
190 202 208
192 204 213
196 206 213
201 211 218
204 213 223
202 212 220
199 210 219
202 212 220
195 205 213
203 212 220
201 212 222
193 204 212
206 216 226
201 211 221
198 209 219
198 209 218
200 210 217
196 207 216
199 209 216
198 210 221
185 197 199
151 167 156
129 148 128
127 146 124
200 210 218
212 221 231
202 212 221
199 209 216
193 204 212
201 211 219
204 213 221
196 207 215
196 206 212
211 220 230
192 202 210
198 209 218
203 213 224
191 203 210
203 212 220
202 212 222
200 211 219
196 206 212
190 201 207
195 206 214
193 204 210
200 210 217
197 208 215
200 211 220
189 200 207
199 210 219
198 209 217
136 154 135
98 125 75
88 115 68
91 118 70
95 123 74
95 121 72
95 122 73
95 122 73
93 120 73
90 116 69
95 123 74
90 118 70
93 121 72
96 124 75
95 122 73
91 118 70
97 124 74
94 121 73
94 121 73
93 120 72
93 121 72
98 126 76
92 119 71
94 121 72
96 123 73
91 118 71
94 121 72
113 136 101
199 210 218
193 204 211
202 212 221
201 211 219
198 209 217
199 210 217
198 209 218
191 202 208
203 213 222
195 207 216
198 208 215
200 211 220
196 207 215
203 212 218
198 208 215
194 205 214
194 205 212
206 215 226
192 203 209
171 185 188
165 179 176
159 174 169
143 160 144
118 138 109
104 129 89
92 119 71
92 119 71
174 187 186
195 206 214
201 211 221
199 209 217
201 211 220
196 208 217
192 203 210
202 213 222
206 216 225
202 212 222
203 214 225
205 215 226
189 200 207
196 207 216
203 213 222
205 215 225
195 205 212
202 213 223
203 213 222
192 203 209
201 211 218
195 205 211
198 209 217
198 208 217
201 211 220
199 210 218
199 209 218
143 161 143
95 122 73
89 116 69
94 122 73
93 120 71
95 122 73
94 121 72
93 120 71
96 124 75
92 119 71
96 123 73
94 121 72
93 120 73
95 121 73
95 123 74
93 121 73
92 119 71
92 119 71
96 123 74
93 120 71
92 118 71
94 121 73
96 123 75
96 123 73
96 123 74
92 119 71
134 152 133
202 212 222
199 209 215
200 210 219
197 207 215
200 210 220
200 209 217
203 213 220
202 211 219
204 214 224
195 206 215
202 212 221
199 210 219
194 204 213
198 209 216
200 209 216
201 211 219
203 212 221
203 213 223
199 208 217
189 200 207
204 215 226
197 208 216
202 212 220
198 209 216
199 210 218
161 177 171
94 121 72
96 123 74
96 124 75
92 119 71
96 124 74
94 120 72
91 118 71
94 121 72
93 121 73
94 121 72
90 118 70
90 116 69
93 119 71
92 119 71
93 121 72
93 120 71
97 124 74
91 117 70
94 121 73
93 120 72
94 121 72
93 120 72
95 123 74
96 123 74
166 179 174
195 205 213
200 210 218
196 207 213
192 203 211
200 210 217
195 205 211
194 205 212
197 208 217
194 204 209
201 211 220
190 201 210
202 212 220
197 207 215
202 211 219
197 208 217
199 209 218
195 206 214
200 209 215
203 213 222
193 205 212
205 214 221
201 210 217
197 207 213
106 130 94
95 123 74
94 121 73
94 121 72
94 122 73
94 121 73
97 124 75
97 125 75
90 117 69
92 119 71
94 121 72
96 123 74
93 120 72
94 121 72
96 123 74
96 123 74
91 118 71
90 117 69
95 122 73
94 121 72
92 118 70
92 119 71
146 162 149
191 202 209
202 212 219
204 213 221
208 217 226
199 210 218
197 207 213
201 211 220
199 210 218
194 204 211
196 207 215
203 214 223
198 209 218
204 213 221
189 200 206
193 204 213
201 210 217
192 203 209
201 211 220
205 215 224
196 206 214
192 203 207
100 126 83
93 120 71
94 121 72
94 121 73
94 122 73
92 119 71
92 119 71
95 121 71
95 122 73
95 122 73
93 120 71
94 121 72
98 123 81
117 138 109
132 150 130
154 169 159
176 190 191
194 205 211
203 212 219
162 177 171
93 120 71
95 122 73
92 119 71
94 121 72
97 124 74
95 122 73
94 121 73
91 119 72
95 122 73
91 118 70
166 181 175
199 209 219
193 203 210
196 206 214
198 207 214
196 207 215
203 213 223
200 210 218
202 212 220
190 202 210
202 212 222
95 121 77
94 121 72
97 124 74
91 118 70
94 121 73
93 120 72
95 122 73
95 123 74
96 124 74
91 118 70
95 123 74
94 121 73
93 120 72
97 124 75
94 121 72
93 120 72
98 124 80
141 159 146
175 188 189
199 209 214
199 209 218
204 214 224
192 204 213
198 207 213
189 200 206
95 122 73
96 123 74
93 120 72
91 118 71
92 119 71
93 120 72
95 122 73
95 123 73
93 121 72
95 122 73
92 119 71
94 121 73
95 123 74
95 123 74
92 119 71
91 118 70
95 122 73
94 121 73
93 119 71
89 116 69
90 117 70
98 125 75
96 124 75
94 121 73
90 117 70
128 147 123
201 211 220
201 211 220
201 211 219
188 198 199
148 164 151
115 138 105
95 122 73
95 122 73
95 122 73
92 119 71
93 121 73
92 119 71
92 118 71
97 124 75
93 119 72
95 123 74
94 121 73
94 121 71
92 118 70
93 120 72
94 122 73
93 120 71
94 121 72
91 118 71
91 118 70
93 119 71
151 168 158
200 211 220
191 201 206
195 205 212
201 210 217
200 210 218
198 208 216
197 207 214
202 212 220
203 213 221
204 214 224
199 210 219
196 206 214
204 213 222
191 202 207
198 209 219
197 207 216
196 206 214
202 212 221
192 203 210
201 211 220
200 209 218
190 201 208
201 211 220
188 199 205
196 206 213
208 218 228
166 181 177
132 151 130
155 171 163
187 199 201
202 211 219
199 209 217
191 203 210
195 207 216
199 210 219
202 212 222
196 207 216
195 205 213
198 209 216
200 211 219
200 210 219
204 215 224
201 211 218
204 214 222
204 214 221
200 210 219
200 210 217
192 204 212
197 208 216
201 211 221
207 216 226
198 207 213
201 210 218
197 208 215
106 129 93
96 124 74
93 120 72
94 122 73
94 121 72
90 117 70
93 120 72
91 117 69
90 117 70
94 121 72
94 121 72
89 116 69
94 121 72
93 120 72
93 120 72
92 119 71
94 122 73
95 122 73
93 121 72
93 121 73
92 119 71
96 124 75
92 119 71
95 122 73
94 121 73
96 122 73
95 122 73
146 163 151
199 209 215
200 210 219
194 205 211
203 213 221
198 208 218
196 207 214
198 210 220
202 212 220
197 207 214
205 215 224
199 209 216
195 206 213
200 210 219
202 212 221
197 208 217
207 216 223
194 204 211
203 212 220
192 203 209
204 214 221
196 207 215
200 209 217
199 211 221
198 208 217
198 208 215
187 198 200
172 185 183
146 163 150
155 170 163
168 183 181
188 200 204
189 200 206
199 209 216
205 215 224
199 209 218
198 208 215
202 211 219
194 205 212
200 211 221
192 203 211
194 205 214
197 207 213
201 211 221
200 210 219
199 209 218
201 211 220
202 212 221
204 214 223
201 211 219
199 209 216
197 207 214
200 209 216
202 212 221
189 199 203
94 120 75
95 122 72
94 121 72
91 118 71
96 123 73
93 120 71
89 116 69
91 117 70
94 121 72
93 120 72
90 116 69
95 123 73
91 118 70
95 122 73
95 122 73
93 120 72
95 122 73
94 122 73
92 119 71
93 120 72
95 122 73
94 121 73
91 117 70
95 123 74
94 121 72
96 123 74
160 174 169
199 209 217
204 214 224
202 212 221
198 209 218
201 211 222
196 207 214
197 208 216
196 207 216
198 208 215
197 207 215
195 206 214
199 210 221
200 210 218
206 216 225
201 211 218
203 213 222
203 212 220
193 204 210
199 209 218
199 209 218
192 203 211
203 213 221
200 210 217
192 204 211
189 200 206
100 124 85
98 125 75
91 117 70
95 122 72
96 124 74
90 117 70
94 122 73
90 117 70
95 122 73
89 116 69
90 116 70
94 121 72
92 119 71
94 121 73
93 120 71
92 119 71
98 126 76
94 121 72
96 123 73
93 120 72
96 123 74
90 117 69
96 124 75
93 120 72
133 151 129
200 211 220
194 204 210
201 211 218
202 211 219
187 198 204
196 206 214
194 206 214
198 209 216
201 211 220
195 206 215
191 203 211
185 196 201
198 209 216
183 195 200
196 207 215
201 210 216
194 205 212
197 207 213
198 209 218
198 208 216
198 208 217
196 207 216
198 209 219
144 160 152
93 120 72
89 116 70
94 121 73
93 120 72
97 124 75
93 120 72
93 120 72
95 123 74
93 121 72
93 120 72
94 122 74
94 122 73
95 122 73
96 124 75
94 122 73
93 120 72
93 120 72
92 119 71
91 118 70
95 122 73
92 118 71
102 125 91
193 204 210
192 203 209
189 200 208
200 211 221
200 210 218
197 208 217
198 208 215
201 211 219
200 211 220
197 207 214
202 213 223
197 208 217
205 215 224
200 211 220
191 203 210
195 206 212
191 204 212
204 214 223
194 205 215
205 215 225
189 201 205
121 142 116
91 118 70
94 121 72
92 119 71
92 119 71
93 119 71
90 117 70
102 127 88
119 140 115
135 154 138
158 173 162
184 196 197
196 207 214
192 203 211
194 205 212
198 209 219
204 213 221
198 208 216
200 209 215
174 186 187
98 125 81
95 122 74
93 119 71
90 117 70
95 123 74
93 120 71
91 118 70
95 122 73
95 122 74
94 121 72
95 122 73
92 118 70
110 133 99
165 179 173
194 205 210
201 211 221
192 202 208
202 212 221
192 203 209
197 207 214
190 200 207
194 204 210
129 148 126
92 119 72
95 122 73
93 120 71
96 123 74
91 118 71
89 115 69
91 118 71
90 117 69
93 120 72
93 120 72
89 116 69
91 118 70
93 120 72
94 122 73
92 118 71
91 117 70
95 122 72
93 119 72
111 133 101
144 161 149
187 199 205
193 204 213
198 208 216
198 209 218
92 120 71
94 120 71
95 122 73
94 121 73
93 120 72
91 118 71
95 123 73
88 114 68
94 122 73
92 119 71
95 123 73
95 122 74
95 121 72
85 112 65
97 124 75
94 121 72
95 122 73
94 121 73
91 118 70
92 118 70
92 119 71
91 118 70
92 119 71
90 117 70
91 118 70
127 146 121
205 215 225
198 208 216
201 211 219
190 201 206
200 211 221
199 210 221
178 191 195
151 166 153
115 137 105
94 121 73
91 118 71
91 117 69
94 121 72
93 120 72
96 123 74
91 118 70
94 121 72
94 121 72
92 119 71
90 117 70
92 119 71
93 120 72
93 120 72
90 117 70
94 122 72
94 121 72
161 176 170
196 207 216
207 216 225
197 207 216
195 205 212
202 211 219
207 216 226
197 207 215
194 205 213
205 214 223
200 211 220
205 215 224
195 206 213
197 208 218
199 209 217
199 210 219
195 205 212
197 208 215
201 211 220
197 207 215
194 204 211
190 200 206
195 206 213
192 203 211
199 210 221
200 211 220
199 209 218
158 173 164
93 120 72
96 123 73
92 119 72
99 125 80
128 147 124
144 160 147
174 188 188
199 209 216
195 205 212
203 212 219
197 207 215
199 209 217
201 212 223
195 206 215
196 207 217
194 206 215
201 210 219
190 201 208
201 212 221
199 209 217
187 199 207
202 212 220
196 206 212
196 207 215
192 203 212
196 206 214
199 209 217
91 117 70
92 119 71
96 123 74
91 118 70
92 119 70
94 120 71
94 122 73
93 120 72
90 117 70
96 123 74
96 123 74
96 123 73
96 123 74
94 120 72
91 118 71
93 120 72
96 124 74
95 122 73
92 119 71
96 123 74
93 121 72
91 118 71
92 119 72
92 119 71
96 124 74
90 116 69
95 122 73
169 182 179
195 207 216
203 213 222
205 215 225
200 211 221
193 204 213
191 203 211
200 210 219
202 211 220
199 210 219
198 209 218
199 209 217
200 211 219
205 214 223
205 214 222
202 212 220
201 211 218
198 208 215
202 212 220
199 210 218
194 204 212
202 212 221
196 207 214
196 207 216
201 212 220
201 211 219
200 210 218
177 189 187
90 117 70
95 123 74
86 112 67
90 117 70
95 122 73
117 138 109
125 145 120
154 169 159
160 175 169
172 185 184
188 199 202
205 215 223
201 211 220
204 213 220
203 213 222
203 214 224
199 210 219
204 214 223
196 206 214
203 213 220
192 203 208
203 212 220
194 204 212
194 205 213
196 206 213
201 210 216
159 174 168
94 121 73
94 121 73
95 121 72
92 120 72
95 122 73
93 120 71
95 123 75
92 119 71
95 122 73
96 124 75
93 120 71
95 122 73
96 123 74
98 125 75
94 121 72
91 118 70
94 120 72
91 118 71
97 125 76
92 119 71
92 119 71
94 120 72
96 123 73
93 120 71
96 123 74
117 138 111
203 213 222
203 213 222
206 215 224
202 212 221
197 208 216
199 210 218
200 211 220
204 213 222
201 211 219
197 208 218
199 209 218
199 208 216
199 210 218
191 202 209
199 209 216
200 210 220
205 215 226
201 211 219
197 207 215
199 209 217
201 211 220
193 205 214
194 203 209
201 212 222
204 213 222
147 163 153
94 121 72
94 121 73
94 121 72
92 119 71
95 123 73
94 122 73
92 119 71
95 122 73
96 123 73
94 121 73
91 118 70
96 123 73
91 118 71
93 120 72
94 121 73
93 120 72
95 122 74
92 119 71
95 122 74
94 121 73
90 117 70
94 121 73
95 123 74
97 124 80
181 193 196
199 209 218
201 211 221
196 207 216
194 205 213
196 207 214
189 200 207
194 205 213
197 208 215
197 208 215
198 208 217
192 203 210
193 205 214
192 203 210
202 211 220
205 215 224
197 208 217
201 211 219
205 214 223
199 209 217
191 201 205
198 208 215
197 207 215
182 193 196
97 124 77
92 118 71
92 119 70
90 116 69
93 119 71
97 124 75
95 122 73
93 120 71
91 118 70
91 118 71
95 122 73
93 121 73
96 123 75
95 122 74
94 121 73
92 119 71
95 122 73
94 121 73
95 121 72
97 124 75
92 119 71
98 124 79
189 200 202
198 207 214
184 197 202
208 217 228
202 211 219
191 203 212
197 208 217
194 204 211
195 206 213
195 205 210
203 212 220
202 212 222
199 209 217
193 205 213
192 202 207
196 207 214
203 213 223
197 207 215
201 211 221
198 208 215
191 202 207
137 156 138
102 127 86
116 138 110
135 153 137
135 153 138
159 174 169
185 197 201
190 201 207
201 211 219
184 196 200
200 211 220
195 205 212
201 212 222
198 209 219
200 210 220
199 209 215
195 205 213
200 210 219
199 210 219
181 193 194
105 130 89
92 118 71
94 120 71
90 116 70
94 121 72
93 119 71
96 124 74
93 119 71
94 121 72
90 117 70
90 117 69
94 120 72
90 117 70
93 120 72
90 117 70
97 124 77
138 155 142
180 192 191
196 207 213
206 215 226
195 206 213
201 212 221
194 205 213
143 160 147
94 121 72
89 116 69
93 120 73
97 125 75
89 116 69
92 118 71
92 120 72
88 115 68
94 121 73
94 122 74
92 118 71
94 121 73
97 124 74
91 118 71
88 114 68
92 119 72
95 123 74
94 121 72
96 123 74
90 117 69
93 120 72
130 148 127
174 187 184
186 197 200
107 131 94
89 115 68
96 123 74
97 125 75
94 121 73
94 122 74
93 121 73
92 119 71
96 123 74
93 119 71
95 122 73
93 120 71
91 118 71
91 118 71
91 117 69
96 123 75
90 117 70
92 119 71
92 119 71
94 121 72
93 120 72
91 118 71
92 118 71
91 117 70
94 121 73
130 149 126
197 209 218
199 209 218
195 205 214
193 204 211
205 214 223
197 207 216
199 209 216
198 208 217
204 214 223
185 197 204
149 165 156
122 142 117
93 120 72
97 124 75
89 116 69
91 118 70
90 116 69
95 122 73
90 117 69
89 116 69
94 121 72
95 123 74
91 117 70
94 121 71
92 118 70
95 122 73
170 183 180
193 204 212
201 212 220
199 209 219
207 216 226
196 206 214
197 208 217
194 205 211
202 211 219
200 210 219
202 212 220
202 212 222
194 206 215
198 209 217
196 207 215
195 206 216
205 214 223
200 210 218
201 211 220
197 206 213
199 210 219
205 214 223
201 211 219
203 214 224
200 210 219
195 205 212
209 218 228
136 154 137
91 118 70
92 118 70
92 119 72
94 121 73
93 120 71
94 122 73
95 123 74
100 126 87
130 150 128
160 174 169
175 188 190
193 204 211
192 203 208
205 215 224
191 202 209
199 210 218
203 213 222
196 206 213
202 212 221
200 210 218
187 200 209
195 205 211
198 208 214
199 209 217
198 208 214
195 206 214
163 177 172
88 115 69
98 125 75
94 120 72
97 124 74
92 119 71
95 123 74
92 119 71
92 119 71
91 118 70
94 121 73
91 118 70
92 118 70
92 120 72
90 117 70
95 122 73
93 120 72
92 119 72
91 117 69
89 116 69
93 120 72
95 122 74
95 122 73
92 119 71
97 124 75
95 122 73
91 118 70
97 124 77
198 209 216
191 201 206
209 218 226
200 210 218
183 195 199
198 209 219
207 216 226
201 210 216
203 212 222
198 209 219
198 208 217
207 217 226
202 212 219
194 205 214
201 211 219
198 208 215
198 208 216
200 211 221
203 214 225
199 209 218
196 206 215
202 213 223
196 207 216
192 202 209
199 210 218
195 206 215
197 207 214
127 147 126
94 121 72
94 121 72
94 121 72
94 121 73
90 117 69
89 116 68
94 121 72
90 117 70
95 122 73
94 122 73
94 121 72
92 119 70
105 129 93
131 150 129
127 146 123
151 166 157
166 180 175
177 189 191
184 196 198
198 208 217
200 210 218
196 206 212
195 206 214
191 203 212
204 214 223
198 208 217
109 132 96
96 123 73
96 124 74
94 121 72
94 121 72
92 119 71
94 122 73
90 117 69
95 122 74
94 121 72
94 122 73
95 122 73
88 115 68
92 118 70
94 121 73
94 121 73
94 122 73
90 118 70
93 120 71
95 122 74
92 119 71
91 118 71
93 120 72
95 123 74
92 120 72
92 119 71
177 190 189
204 213 221
195 205 214
199 209 216
191 202 209
205 214 223
198 209 218
198 209 219
200 210 218
192 203 211
195 206 214
196 207 214
204 214 225
198 209 216
202 212 221
207 217 226
194 205 214
197 206 213
191 202 207
201 211 220
198 209 217
201 211 220
204 213 222
197 207 214
198 210 221
192 202 207
99 124 81
94 121 72
96 124 76
92 119 71
91 118 70
92 119 71
97 125 74
90 117 70
92 119 71
95 122 72
93 120 72
92 119 71
97 124 74
94 122 74
94 121 72
90 117 70
95 122 74
93 120 71
93 120 72
95 122 73
93 120 72
96 123 74
92 119 71
94 121 72
151 168 159
199 210 219
202 212 221
200 211 219
199 209 218
198 209 219
190 202 208
184 195 197
198 208 219
198 210 221
197 208 217
197 207 214
196 206 213
198 208 217
198 209 218
200 209 216
196 207 214
205 215 224
193 203 208
193 204 210
193 203 210
205 214 221
195 206 215
193 205 212
122 143 115
96 124 75
94 121 74
92 119 71
93 120 72
91 117 70
94 121 73
91 118 70
93 120 72
90 117 70
92 119 71
95 122 73
96 124 74
95 122 73
95 122 73
94 121 72
92 119 71
88 114 67
95 122 73
95 122 73
96 124 74
91 117 70
177 190 189
195 205 214
194 205 212
197 207 215
193 204 213
202 212 222
194 205 212
199 210 218
205 215 225
201 211 220
193 204 212
190 201 206
192 203 209
190 202 211
201 211 221
195 206 216
187 198 202
176 189 189
154 170 165
162 176 171
143 160 146
165 179 176
185 196 202
197 207 213
200 210 217
199 209 217
194 206 214
201 211 221
199 210 220
197 207 214
198 208 216
196 206 215
196 208 217
208 218 227
200 210 218
199 209 217
195 206 212
202 213 221
188 199 202
195 206 214
188 199 203
103 126 89
92 119 71
95 123 74
91 117 70
96 123 75
94 121 72
92 119 72
94 122 73
94 121 72
94 121 72
95 122 73
92 119 71
95 123 74
97 124 73
92 119 71
92 119 71
92 119 70
91 118 71
95 122 73
104 128 88
150 166 153
203 213 219
189 202 211
192 203 209
145 162 152
94 121 73
89 116 69
90 117 70
95 123 73
90 117 69
94 120 72
94 121 72
96 123 73
94 121 73
93 120 72
94 121 72
91 118 70
93 120 72
94 121 72
94 121 73
92 119 71
93 121 73
92 119 71
92 118 71
93 119 72
92 119 71
91 118 70
93 121 72
97 122 83
169 183 180
130 150 130
96 121 76
90 117 70
94 121 72
91 118 70
89 115 68
91 117 70
93 120 72
91 119 71
93 121 72
93 120 71
94 121 73
94 121 72
91 118 70
94 121 72
89 115 68
91 117 70
89 115 69
95 122 73
91 118 70
92 119 71
94 121 72
89 116 69
90 116 68
127 146 126
201 211 220
195 206 215
203 213 223
197 207 215
194 205 213
204 213 221
202 212 222
189 199 205
198 208 216
195 206 212
197 207 214
191 202 209
190 202 208
163 176 174
139 157 141
90 117 69
92 118 71
93 120 72
95 122 73
94 121 72
94 122 73
92 119 71
93 120 72
91 118 70
92 119 71
98 126 75
175 188 190
197 208 217
200 210 220
199 210 219
202 212 221
200 210 217
188 199 204
204 213 221
197 207 215
196 206 214
199 210 219
190 200 207
191 202 209
191 203 210
198 208 214
196 206 212
192 203 208
201 211 219
197 206 212
195 205 211
206 215 225
194 204 211
192 203 210
197 208 217
202 212 221
195 206 214
205 214 223
113 135 106
93 120 72
93 120 74
93 120 72
93 120 72
94 122 73
90 117 70
94 120 71
95 123 73
92 119 70
95 122 73
92 119 71
104 130 88
128 147 129
150 166 158
170 183 184
194 205 210
200 210 218
198 208 215
200 210 218
194 205 212
195 206 213
202 211 220
195 207 216
199 209 218
196 207 214
200 211 222
149 165 153
93 120 72
92 119 71
91 117 69
91 117 69
94 121 72
96 124 75
92 119 72
91 118 70
95 123 74
91 118 70
96 124 75
95 121 72
93 120 72
94 121 73
95 122 73
92 120 72
93 120 71
93 120 72
96 123 74
91 118 71
96 123 74
91 117 70
95 122 73
94 121 73
90 117 70
92 119 71
127 146 124
200 210 217
198 208 217
194 205 212
200 211 220
201 211 221
204 215 225
191 202 210
197 207 214
202 212 220
194 205 213
197 207 213
201 211 221
194 205 215
195 207 215
193 204 212
194 204 211
201 210 216
192 203 211
197 207 215
203 213 221
201 211 219
202 212 221
198 208 216
202 212 223
199 208 215
203 213 222
189 200 205
96 122 75
91 117 70
93 120 72
93 119 71
93 120 72
94 120 72
94 121 73
94 121 72
92 119 71
92 119 71
90 117 69
90 116 69
93 120 72
90 117 70
96 123 73
93 121 73
91 118 71
93 120 72
91 118 71
94 121 72
97 124 75
112 135 100
125 145 117
128 147 128
154 170 162
159 174 166
168 182 179
117 138 114
110 132 100
95 120 77
94 121 73
96 124 75
90 116 69
93 120 72
96 124 74
91 118 70
94 121 71
93 120 72
97 124 75
95 122 73
92 118 70
93 120 71
93 119 71
92 119 71
89 115 69
96 123 74
93 120 72
94 121 72
94 120 72
92 119 71
96 123 74
93 121 73
116 137 108
199 210 216
205 214 223
198 209 218
204 214 222
200 209 215
192 203 212
201 211 218
190 202 210
197 207 215
193 203 210
202 211 219
200 210 217
202 212 221
195 206 214
197 207 215
199 209 217
199 209 218
198 209 219
187 198 203
197 207 216
195 205 212
202 212 220
200 211 221
205 213 221
199 209 217
133 153 132
93 120 72
97 125 75
92 119 72
90 117 69
92 119 71
92 119 71
93 121 72
93 120 72
92 120 72
94 121 72
94 121 72
93 120 71
96 123 74
94 121 73
92 118 70
94 121 73
96 123 74
90 117 69
94 122 73
93 120 71
97 124 75
96 123 74
88 115 68
113 135 103
194 204 211
199 209 216
195 206 215
195 205 212
198 208 216
199 209 217
202 212 222
200 211 220
200 211 220
197 208 218
200 210 219
198 208 217
201 212 221
195 206 215
190 202 208
188 199 206
191 202 210
187 198 204
200 210 220
191 203 210
202 212 222
206 216 227
196 207 213
149 165 151
90 117 70
89 116 69
95 122 73
91 117 70
93 120 72
94 121 73
94 122 73
93 121 73
91 118 71
92 119 71
96 123 74
90 116 69
95 123 73
94 121 73
93 120 72
93 121 73
96 123 75
91 118 70
95 123 73
89 117 70
92 119 71
142 160 145
199 210 220
197 209 219
202 212 220
196 207 216
205 213 222
202 211 219
202 212 219
194 205 212
188 200 204
175 188 189
171 185 183
148 164 156
139 157 142
136 154 134
114 137 105
93 119 75
93 120 72
93 120 72
92 119 72
97 124 75
149 164 151
195 206 214
191 203 212
198 208 214
201 210 219
200 211 219
192 204 211
199 210 219
198 208 217
202 211 219
200 210 219
198 209 218
200 210 219
200 210 220
205 214 222
201 210 218
194 205 212
200 209 216
193 204 212
188 200 207
111 134 100
93 120 72
92 119 71
97 124 74
92 119 71
91 118 71
90 117 70
95 122 73
94 121 73
96 123 73
90 116 69
85 111 66
93 121 72
91 117 70
93 120 71
91 118 70
97 124 75
94 120 72
91 117 70
89 115 68
93 120 71
95 122 72
95 122 74
127 147 124
162 177 174
180 193 195
95 122 74
91 118 70
93 119 71
94 121 73
91 118 70
90 117 70
92 119 71
95 122 73
95 122 74
95 123 74
92 119 72
92 120 72
89 117 70
93 120 72
92 119 71
89 116 69
95 122 73
92 119 71
95 122 73
95 121 72
94 121 73
93 120 72
95 122 73
93 120 71
173 185 184
195 206 212
198 207 213
166 179 174
128 147 126
96 122 75
94 121 72
93 120 71
98 125 75
89 115 69
95 122 73
96 123 74
90 116 69
91 118 70
92 119 71
93 120 72
96 124 75
94 121 72
96 124 74
94 121 72
89 115 68
97 125 75
93 119 71
92 119 71
95 122 72
117 138 113
202 211 219
199 209 217
191 202 207
198 209 216
198 208 216
200 211 219
201 211 219
204 213 222
198 209 217
203 213 222
192 203 210
197 207 215
200 211 221
194 204 210
195 206 214
182 194 197
168 181 177
147 163 151
98 124 81
92 118 71
95 122 74
95 122 73
96 123 74
90 117 70
90 117 69
93 120 72
197 208 215
190 201 206
201 211 218
190 202 209
194 205 212
197 208 218
195 207 216
201 212 221
199 210 218
203 213 223
203 213 224
202 212 222
200 210 220
197 207 214
199 210 218
208 217 227
194 205 213
202 213 223
194 204 212
193 203 208
198 208 217
188 200 204
196 207 215
198 209 217
196 207 216
204 214 223
198 209 216
100 127 79
94 120 72
90 117 71
94 121 73
95 123 74
94 121 72
89 116 69
95 122 73
93 120 72
95 122 73
94 121 73
96 123 74
95 123 73
90 116 69
91 117 69
91 117 69
95 122 76
130 149 125
143 160 148
182 194 197
193 204 208
199 208 216
200 211 220
197 208 217
198 208 217
195 207 217
198 208 214
114 137 105
94 121 72
91 118 71
94 121 73
96 123 74
94 121 73
91 118 70
94 121 72
90 117 69
91 118 70
92 119 71
93 120 72
92 119 71
90 117 70
96 123 74
96 124 74
95 122 73
96 123 74
94 121 73
94 121 72
94 121 72
91 118 70
91 117 70
94 120 72
91 117 70
98 125 75
92 119 71
159 174 165
196 207 216
197 208 216
189 201 210
197 207 214
202 212 219
199 210 217
195 205 214
196 206 213
199 209 217
199 211 220
208 217 225
194 204 210
201 210 218
203 212 222
202 212 219
196 206 214
192 203 208
193 203 210
205 215 222
201 211 222
195 205 212
193 204 211
202 212 220
198 208 216
201 212 223
199 209 217
151 167 155
93 121 72
91 119 72
92 119 71
95 121 73
92 119 71
97 124 74
94 122 73
91 117 70
94 120 72
92 118 70
94 121 73
93 121 73
96 123 75
95 122 73
94 121 73
92 119 71
92 119 71
92 119 71
96 123 74
95 122 72
89 115 68
94 121 72
93 120 72
90 118 70
94 121 72
91 117 70
179 191 194
203 213 222
199 209 218
199 209 214
187 199 204
179 191 193
180 192 191
169 183 182
174 186 183
139 155 141
135 153 136
140 157 140
110 133 100
107 131 96
93 120 72
93 120 72
90 117 70
93 120 72
95 123 74
93 120 72
90 116 70
93 120 72
92 118 70
94 121 73
93 120 72
90 116 69
166 180 174
189 200 207
194 205 212
202 212 220
198 209 219
194 205 214
200 210 218
188 201 210
198 208 215
203 213 222
199 209 217
207 217 228
193 204 211
195 206 212
195 206 215
203 212 222
194 206 214
201 212 221
196 205 210
192 203 210
200 210 219
190 201 207
203 213 222
197 207 215
201 211 219
172 185 184
94 121 72
91 118 70
91 117 70
92 118 70
94 121 73
96 123 74
96 123 74
93 120 72
91 118 71
91 118 70
97 124 74
93 121 72
92 119 72
92 119 72
92 118 70
93 119 71
91 118 70
93 120 72
95 121 73
95 122 73
94 121 73
94 121 73
91 118 71
93 120 73
179 191 192
196 206 215
201 212 221
188 200 207
204 213 221
196 207 214
206 215 222
192 203 210
204 213 221
191 202 209
206 215 225
195 206 216
199 210 218
201 210 217
195 206 214
195 204 210
193 205 213
202 212 219
192 203 208
201 211 220
196 206 215
203 214 224
199 210 219
167 181 181
94 121 72
91 118 70
93 120 72
94 120 72
93 120 72
95 122 74
90 117 69
93 120 72
89 116 70
94 121 73
96 123 74
93 120 72
95 121 72
95 123 74
92 119 71
91 117 70
93 121 72
93 120 73
93 120 72
91 118 71
98 124 79
123 145 116
175 188 188
170 183 181
170 183 180
162 177 171
137 154 135
134 152 132
115 137 109
110 134 98
94 121 72
91 119 72
94 121 72
92 118 71
94 121 72
93 120 72
92 119 71
91 118 70
95 122 74
90 117 70
92 119 71
91 118 70
123 143 120
197 207 214
200 211 221
189 201 209
202 212 219
191 202 210
202 212 220
196 206 213
196 206 214
201 211 220
194 206 215
199 210 219
195 207 216
202 213 222
198 208 215
196 206 213
197 208 215
197 207 216
196 207 215
193 204 211
130 149 130
93 121 72
92 120 72
94 121 72
91 118 70
95 122 73
93 120 73
94 122 73
90 116 69
91 118 70
90 117 70
94 121 73
92 119 71
92 120 72
91 117 69
111 133 98
106 128 96
102 128 87
92 119 70
93 120 72
96 123 74
88 114 68
92 119 71
92 118 71
90 117 69
90 117 70
99 122 85
156 171 162
122 143 117
96 124 74
93 120 72
93 120 72
91 118 70
95 122 73
94 121 73
93 120 73
94 122 73
94 121 73
88 114 67
88 114 67
87 114 68
94 121 72
86 112 66
95 122 73
92 118 70
91 118 70
91 117 70
94 121 72
94 121 73
92 119 70
94 120 71
174 186 186
195 205 214
200 210 220
199 209 215
187 199 207
185 197 204
170 184 181
114 136 104
92 120 72
91 118 70
92 118 71
94 121 73
93 120 72
91 119 72
95 122 73
93 120 72
96 123 74
91 117 70
92 118 71
91 118 70
90 117 70
93 120 72
93 120 72
95 122 73
92 119 71
115 137 107
207 216 225
197 208 216
201 212 223
188 199 207
201 211 219
199 209 216
200 211 221
206 215 224
195 206 213
196 207 215
192 202 210
198 208 215
203 212 221
192 202 210
189 200 207
198 208 214
190 201 209
191 203 211
196 207 215
181 194 198
146 162 153
122 142 113
92 119 71
90 117 70
89 115 69
92 119 71
187 199 205
202 212 221
203 213 221
203 213 221
206 215 224
192 203 210
193 205 211
198 208 217
197 207 214
186 198 204
204 214 222
195 206 215
200 209 216
197 207 215
200 210 218
206 215 223
192 203 209
197 207 215
199 209 218
200 210 219
196 207 217
188 199 206
203 213 223
190 202 208
200 210 217
201 211 221
191 203 211
92 119 71
92 119 71
96 123 74
89 115 69
89 115 69
92 119 70
95 123 74
96 124 74
91 118 70
92 118 70
94 121 72
91 117 70
96 124 74
92 119 71
93 121 72
95 122 73
93 120 71
92 119 71
93 120 72
91 118 71
95 122 73
127 147 120
148 164 153
171 185 184
188 199 201
199 209 218
190 202 209
101 126 82
93 121 73
94 121 72
94 121 73
95 122 73
96 123 75
93 119 71
90 117 69
93 120 72
90 116 69
94 121 72
92 120 71
88 114 67
95 122 73
95 122 73
91 118 70
92 119 71
90 117 69
91 117 70
94 121 73
92 119 71
93 119 71
92 120 72
93 121 73
91 118 71
93 119 70
93 121 72
186 198 199
202 212 222
194 206 213
195 206 217
201 211 220
200 210 217
204 214 223
201 212 221
200 211 222
200 210 217
203 212 221
196 206 214
201 211 217
201 210 218
195 205 211
197 208 216
198 208 218
197 207 216
196 206 213
197 207 212
199 209 217
199 210 219
194 205 214
191 202 209
189 199 204
195 206 214
202 212 221
118 139 109
96 123 74
93 120 72
94 121 72
90 117 70
90 117 70
92 119 70
92 118 70
93 120 73
90 116 69
93 120 72
94 121 72
89 116 70
89 115 69
92 119 71
95 122 74
93 120 72
95 122 73
91 117 70
94 121 73
95 123 74
94 121 72
95 122 73
94 122 73
91 118 70
99 126 75
123 144 120
198 208 215
200 209 215
200 211 220
198 208 215
191 202 209
202 211 219
197 207 217
203 213 220
197 207 214
200 211 219
194 205 212
201 212 221
203 212 220
193 203 210
199 209 217
195 206 208
179 191 192
177 189 187
159 174 170
148 164 155
156 172 160
156 172 166
125 146 122
141 159 141
117 138 111
115 136 106
198 208 216
199 210 219
198 208 218
200 210 218
198 208 216
198 209 219
196 205 212
203 212 220
202 212 222
199 209 218
202 211 220
196 207 216
205 215 224
200 212 223
202 211 220
197 208 216
194 204 211
196 206 214
200 210 218
198 209 218
197 207 214
194 205 213
200 210 219
199 209 219
195 205 211
108 130 98
92 119 71
95 122 74
91 118 70
91 117 70
92 120 72
88 115 69
94 121 72
93 119 71
90 117 70
88 114 68
94 121 72
94 121 72
94 121 72
94 121 73
93 119 71
90 116 69
92 120 71
97 124 74
96 124 74
92 118 71
93 121 73
90 117 69
93 120 72
147 163 151
193 204 212
199 209 219
202 212 222
198 208 216
206 215 225
201 211 218
201 211 219
202 212 222
186 198 204
193 204 211
200 210 218
198 209 217
187 198 206
201 211 219
200 210 218
195 205 214
201 210 218
186 198 204
202 212 221
199 209 218
194 205 214
194 205 213
191 202 207
105 129 92
93 120 72
93 119 71
94 122 73
95 122 73
95 122 73
91 118 70
90 116 68
99 126 76
110 133 97
109 132 95
121 142 112
135 153 134
142 159 142
140 157 141
158 173 167
159 173 167
166 179 178
158 173 172
197 207 213
188 200 207
200 210 218
111 133 102
96 124 75
91 118 71
93 120 72
94 121 72
92 119 71
91 118 70
93 120 73
92 118 71
92 119 71
92 119 71
96 123 74
94 121 72
89 116 68
92 119 71
92 119 71
92 119 71
94 120 72
92 120 72
91 118 71
109 132 99
203 212 219
192 202 208
202 212 221
198 208 216
203 214 223
204 214 224
202 212 221
201 212 223
197 208 218
200 210 220
197 208 217
193 205 215
191 201 207
193 204 214
201 211 220
195 206 213
190 202 210
199 209 217
204 213 221
143 159 142
92 119 71
93 120 72
91 118 70
93 120 72
90 116 68
96 123 74
93 120 72
90 117 70
91 118 70
93 120 72
91 118 71
94 121 73
103 127 88
110 134 102
115 138 105
206 216 226
198 208 217
205 215 225
186 196 203
200 210 217
196 207 215
193 205 214
192 202 208
186 198 204
189 199 203
179 191 194
178 190 192
143 160 145
133 151 127
111 133 101
119 139 111
169 182 178
157 172 164
154 168 158
154 170 161
162 176 169
147 164 155
147 164 148
149 166 157
147 163 151
146 162 150
149 166 153
133 151 132
135 154 136
139 157 139
131 150 127
131 149 128
129 147 127
128 146 125
114 136 105
121 142 113
150 166 154
183 194 199
191 202 210
188 199 204
193 204 211
195 205 211
205 214 223
197 207 213
181 193 197
152 169 161
113 136 105
95 122 74
92 120 72
93 120 72
93 120 72
93 119 71
95 122 73
93 119 71
92 119 71
94 121 73
98 126 76
97 125 75
95 122 73
91 117 70
95 122 74
108 131 98
199 209 217
201 211 221
198 208 216
190 200 206
203 213 224
196 206 213
196 207 215
194 204 211
196 207 216
191 202 208
198 208 216
196 206 211
198 209 216
193 204 212
197 207 215
200 210 219
195 206 215
186 197 202
197 207 215
199 209 215
192 203 210
193 204 210
195 206 212
157 172 162
125 145 122
101 127 82
195 206 212
194 205 214
195 206 213
197 208 218
192 203 212
203 213 222
198 208 215
199 209 217
203 213 221
201 211 220
192 202 209
205 214 223
194 204 211
197 207 215
199 209 217
196 207 214
198 208 215
200 210 219
201 211 222
203 213 222
197 207 217
199 209 218
202 212 221
200 211 220
194 205 212
188 199 207
174 187 189
90 117 70
93 120 72
94 121 73
95 123 73
89 115 68
89 116 69
93 120 72
92 119 71
95 122 72
96 123 74
92 119 71
93 120 72
95 122 73
93 120 72
94 120 72
93 120 71
93 120 72
91 117 69
94 122 73
91 118 70
90 116 69
89 116 69
95 122 73
96 123 74
88 115 68
106 131 91
136 154 137
152 167 157
139 156 139
104 128 93
94 121 73
89 115 68
91 118 70
91 117 70
97 124 74
89 115 69
89 116 68
93 120 72
93 120 72
87 114 67
95 122 73
96 123 74
91 118 71
92 119 71
91 117 70
93 120 72
92 118 70
94 120 71
94 121 73
91 118 70
93 119 71
91 118 70
90 117 69
120 141 112
201 211 220
199 209 217
200 209 215
204 214 221
194 204 211
207 217 227
188 199 204
194 204 211
194 204 211
198 209 219
184 196 200
194 205 214
197 208 216
197 208 216
196 206 213
198 207 216
204 213 220
199 208 215
199 209 216
195 205 211
198 208 216
199 208 214
203 213 222
193 205 212
207 217 227
192 202 206
175 188 187
90 117 70
93 120 72
91 118 70
94 121 73
94 121 72
93 120 71
96 124 74
92 119 72
94 122 73
91 118 71
95 122 73
94 121 72
90 117 69
92 119 71
93 120 72
93 120 72
89 116 69
94 121 72
92 118 71
91 118 71
94 121 73
92 119 71
96 123 74
88 115 68
94 121 73
92 119 71
165 178 176
192 203 212
194 204 214
194 205 213
200 211 219
203 213 222
198 208 216
200 210 217
201 211 220
200 209 217
199 208 214
195 205 212
203 212 220
200 210 219
197 207 216
192 203 210
190 201 206
204 213 221
193 204 211
192 203 208
193 204 213
193 204 211
202 212 221
205 214 224
193 204 210
196 207 214
138 156 140
94 120 74
99 124 82
108 130 95
116 138 109
131 150 128
124 144 120
149 164 153
153 169 158
158 172 168
156 171 163
164 177 172
154 169 160
171 185 183
171 184 181
175 187 188
174 187 187
188 199 205
184 196 200
192 203 210
186 198 203
202 212 222
198 208 217
200 211 218
200 209 217
171 185 184
90 117 69
93 120 72
92 119 72
94 121 73
89 116 70
95 122 72
93 120 72
91 118 71
93 121 73
93 121 73
95 122 73
91 119 71
88 114 68
92 120 72
95 122 74
91 118 71
92 119 72
96 123 74
93 120 72
88 114 68
92 119 71
90 116 69
93 121 72
116 137 109
196 206 214
192 203 211
193 204 211
190 201 205
191 201 208
198 209 219
196 206 213
202 212 220
196 207 215
205 215 224
197 208 216
190 201 207
201 211 221
198 209 218
195 206 213
182 194 197
185 197 200
185 197 201
177 189 188
165 180 179
176 190 191
171 184 182
181 192 192
172 185 184
156 171 166
158 173 167
172 185 183
176 189 190
173 186 184
181 193 196
187 199 204
189 200 206
201 210 217
202 213 223
194 206 214
203 213 223
196 207 215
196 207 216
193 204 210
198 208 217
195 205 211
199 210 217
202 212 220
193 203 210
203 212 219
142 159 146
93 120 72
91 118 70
93 121 72
95 121 72
91 118 70
93 119 70
91 118 70
92 118 70
92 119 72
93 120 72
92 118 70
94 121 73
95 122 73
91 118 70
98 124 78
100 125 82
96 121 82
98 124 84
108 132 97
117 139 108
168 181 179
183 194 196
175 188 187
184 196 198
172 184 185
165 178 176
168 182 182
172 185 185
169 182 178
172 185 184
168 182 177
151 165 155
157 172 165
148 164 153
139 155 141
158 173 167
143 160 149
149 165 154
136 153 138
171 184 182
156 171 167
173 187 184
173 186 185
173 186 184
188 199 202
182 196 200
187 199 204
189 200 203
187 199 204
202 211 219
202 212 220
200 210 216
200 210 219
189 199 204
191 202 209
194 205 211
189 200 207
197 207 215
186 197 204
194 204 212
186 197 201
195 205 212
189 200 208
193 203 211
197 208 216
200 210 219
196 207 213
195 205 212
130 149 127
96 123 74
94 121 73
91 117 69
95 121 77
133 151 138
182 194 195
195 205 213
196 207 215
197 208 215
203 213 223
197 208 216
193 204 210
192 203 211
195 205 213
191 202 210
196 207 215
196 206 214
196 207 215
188 200 207
194 205 212
192 202 209
203 212 220
191 201 206
149 166 154
91 117 70
96 123 74
93 120 71
91 118 70
95 123 74
96 122 78
95 119 81
99 124 81
109 132 98
112 134 101
104 128 88
143 160 145
178 190 190
180 192 193
183 194 197
175 188 186
175 188 188
182 193 196
164 178 178
179 190 188
171 184 183
160 175 170
160 173 168
151 166 159
158 172 166
155 170 162
133 151 131
149 164 152
150 166 155
145 161 146
146 163 148
168 182 181
153 169 160
164 178 173
160 175 169
159 173 167
173 185 183
154 170 159
165 179 173
173 187 186
158 174 169
163 177 171
183 195 197
170 184 182
173 186 187
169 182 180
170 184 184
166 179 177
179 191 190
179 191 191
177 191 194
154 169 160
177 190 192
184 196 200
185 196 202
195 205 212
191 202 208
194 204 208
197 207 215
195 206 214
189 200 205
200 210 217
182 194 199
195 205 212
196 207 216
201 210 217
187 198 202
198 208 213
188 200 209
196 206 215
206 215 224
198 208 216
203 212 221
196 206 212
195 206 214
195 206 213
197 207 216
173 186 182
95 122 73
93 120 72
91 117 70
95 122 74
89 115 68
92 119 71
95 122 73
88 114 67
96 124 75
93 120 72
93 121 72
93 120 72
94 121 72
94 121 73
89 115 68
92 119 71
92 119 71
95 122 73
98 125 75
91 118 71
96 123 74
91 118 71
95 122 73
89 116 69
93 120 71
94 121 72
149 166 154
198 209 216
196 206 213
201 211 220
190 201 206
168 181 180
145 161 151
132 151 130
91 117 73
93 120 72
91 118 70
91 118 70
92 119 71
92 119 70
91 118 71
89 115 69
95 122 73
90 116 68
90 116 69
96 123 74
90 117 70
90 117 70
89 116 69
88 114 69
95 122 73
91 117 70
94 122 74
146 162 151
195 205 211
196 206 213
202 211 218
191 201 207
199 209 218
201 210 218
191 201 208
201 212 221
200 210 218
189 201 209
194 205 212
193 202 207
197 208 215
195 206 212
197 208 217
192 204 212
194 205 212
195 206 213
198 209 220
197 208 217
200 211 221
199 209 217
203 213 220
192 203 211
201 212 220
196 206 213
160 175 168
91 118 71
93 120 72
95 121 72
91 118 70
94 120 72
91 117 70
93 120 72
92 120 72
95 122 73
92 119 72
94 121 73
94 122 73
89 116 69
86 112 66
92 119 71
90 117 70
92 119 71
94 121 73
95 122 73
95 122 74
89 116 69
92 119 71
93 119 71
87 113 66
91 118 70
122 143 115
200 210 219
188 201 209
191 202 209
193 205 212
203 213 221
195 205 213
197 208 216
197 207 216
200 210 217
194 204 211
198 208 216
200 210 220
195 205 213
198 208 216
196 207 218
195 206 215
201 211 219
205 215 224
198 208 217
197 206 213
197 207 215
198 208 215
201 212 221
201 210 217
197 208 216
189 200 206
96 124 74
91 118 71
92 119 72
89 115 68
91 118 71
93 119 71
93 120 72
93 120 72
92 118 71
90 117 70
93 120 72
94 121 72
90 117 70
94 121 72
91 118 70
95 121 72
91 118 71
91 118 70
88 115 68
91 118 71
91 117 70
93 119 77
97 124 77
99 124 80
107 129 95
178 190 190
187 198 205
190 201 205
185 197 198
180 192 195
156 171 167
175 188 191
180 193 196
164 178 172
171 185 184
170 184 181
158 174 171
159 173 166
169 182 180
162 177 173
169 183 180
163 177 176
174 187 186
165 179 176
157 171 165
172 185 183
173 185 184
175 188 187
154 170 164
122 142 118
129 147 126
137 155 138
133 152 133
133 151 132
136 155 142
128 147 124
128 147 126
126 147 124
137 156 139
123 142 120
124 144 120
110 133 100
111 133 105
116 139 108
124 144 119
126 145 125
124 144 121
126 146 124
130 148 130
134 153 133
130 149 128
132 151 131
134 152 134
162 177 173
169 184 186
161 175 172
152 168 159
168 181 181
164 179 178
159 174 169
150 166 157
145 161 149
153 168 158
163 176 171
160 174 165
150 166 154
136 154 142
147 163 152
146 163 150
138 157 140
147 163 150
137 154 138
146 163 150
149 164 151
159 174 168
183 195 198
164 179 176
176 188 189
163 176 173
180 192 193
182 194 198
176 188 185
184 196 199
183 194 195
192 203 210
189 200 206
196 207 213
193 205 212
193 204 209
187 199 205
200 209 215
197 207 215
200 210 219
199 210 220
200 210 220
131 150 130
90 116 69
94 121 73
95 121 72
91 118 71
94 121 72
90 116 68
92 118 70
93 120 72
95 122 73
93 120 72
92 118 70
94 121 72
91 118 70
90 117 69
90 117 70
92 119 71
90 117 70
89 116 69
144 161 149
193 204 212
195 205 212
204 213 222
194 205 213
199 210 219
199 210 219
200 211 221
203 213 223
205 215 225
204 213 222
192 203 210
196 207 215
188 199 205
197 208 216
191 202 208
189 201 210
195 206 212
193 204 211
198 208 215
200 210 218
201 212 220
188 200 206
193 204 213
204 213 222
193 203 209
192 203 210
194 204 211
192 202 209
202 211 218
147 164 153
90 117 69
93 121 73
93 120 72
92 120 72
92 119 71
92 119 71
108 131 98
159 174 165
180 192 196
191 203 211
193 203 210
193 204 211
193 203 212
196 206 214
193 205 212
192 203 211
195 205 212
193 203 209
190 203 211
200 210 219
198 209 217
198 210 220
194 204 213
154 170 161
92 119 71
92 119 70
92 120 72
89 116 68
88 115 68
92 119 71
90 117 69
90 117 69
93 120 72
93 119 71
94 120 71
95 123 74
93 120 72
122 143 117
164 178 176
177 189 193
201 211 218
196 206 213
186 196 202
203 212 221
204 214 223
195 207 215
198 208 217
194 205 212
181 194 196
91 118 70
94 121 72
93 120 73
94 121 73
92 118 70
90 116 69
87 114 68
91 117 70
94 121 72
90 117 70
91 119 71
93 120 72
91 118 71
93 120 72
92 119 71
93 120 72
90 117 70
94 121 73
92 118 71
94 121 72
93 121 73
91 118 70
96 123 74
95 123 74
92 119 71
118 139 113
201 212 221
199 209 217
189 201 207
174 187 189
159 173 168
131 151 129
99 125 82
90 116 69
91 117 70
94 121 73
87 114 68
94 121 72
91 118 70
93 120 71
89 116 69
93 118 73
93 118 75
99 124 82
102 127 87
108 131 96
101 125 87
108 131 98
115 137 104
121 142 114
111 131 104
116 138 107
161 175 171
190 201 205
183 195 198
184 196 198
174 188 189
190 201 204
183 195 196
179 191 194
181 194 194
176 189 191
168 183 180
183 193 195
191 201 206
177 189 189
166 180 179
171 184 183
166 179 178
173 186 188
170 184 180
183 195 200
170 183 179
159 173 169
168 180 177
153 168 164
171 184 182
163 178 175
168 182 180
140 158 141
153 168 156
146 162 152
144 160 145
140 157 142
141 159 144
147 164 154
141 158 144
155 170 158
124 144 121
105 129 91
114 137 103
136 154 134
157 173 168
155 170 164
157 172 163
160 174 168
140 157 144
142 158 148
152 168 157
150 166 154
145 161 148
156 170 161
157 173 162
146 161 148
149 166 153
145 160 151
160 175 169
149 165 156
159 175 167
155 169 161
154 168 159
163 178 173
159 174 167
151 166 159
165 180 178
150 167 158
156 172 163
160 174 168
158 172 169
156 170 161
156 171 162
162 176 170
162 176 169
164 177 172
157 172 167
155 171 163
161 176 167
166 180 173
170 183 181
158 174 166
172 184 182
157 172 166
159 174 167
152 167 158
155 170 162
148 164 153
144 162 146
144 161 149
145 162 149
151 167 158
137 154 139
137 155 140
152 167 158
136 155 139
144 161 147
157 172 165
144 159 151
149 166 154
141 160 144
143 160 148
151 167 157
140 157 142
142 159 146
157 172 164
160 174 165
157 172 163
145 162 148
134 153 137
150 166 154
146 162 148
152 169 158
149 165 153
150 165 155
164 178 176
159 173 167
161 175 169
148 165 153
155 169 158
163 178 174
149 167 159
144 160 151
159 174 168
162 176 171
154 170 165
156 171 163
158 172 166
165 179 172
150 166 153
163 177 170
148 164 155
150 165 156
151 167 157
146 163 149
147 162 153
148 164 152
168 181 178
151 167 158
159 174 167
155 169 161
160 175 169
156 172 162
165 180 175
170 184 184
170 184 180
176 188 187
162 177 173
164 177 175
164 177 171
166 181 179
166 179 174
165 179 176
169 184 182
170 183 179
167 180 177
163 178 177
165 179 176
172 186 184
163 176 170
173 186 185
179 191 190
127 147 124
122 143 118
125 146 122
118 139 110
117 138 116
131 150 128
121 141 119
124 144 120
114 136 108
124 145 116
126 145 121
115 137 109
113 136 105
102 126 89
112 134 103
116 137 114
110 134 98
107 130 95
112 135 101
105 129 94
108 132 94
100 125 85
98 123 81
94 121 74
136 154 136
196 207 215
205 215 227
194 206 214
192 203 211
198 209 218
193 203 210
200 210 219
195 206 212
190 202 210
190 202 210
196 206 214
192 203 209
200 210 218
203 213 223
200 210 219
201 211 221
203 213 223
203 213 222
181 193 197
203 212 221
200 210 217
194 205 213
174 187 186
97 122 80
95 123 74
95 122 73
90 116 69
91 118 70
92 119 70
88 115 68
93 120 71
88 115 68
94 120 71
91 118 71
97 124 74
92 119 71
93 120 72
93 120 71
92 118 70
94 121 72
94 121 73
93 120 72
92 119 70
93 121 72
119 140 113
202 211 217
202 211 220
200 210 217
191 202 208
196 206 215
202 211 219
190 201 208
195 205 213
200 210 219
198 208 216
191 203 211
196 207 214
191 202 208
196 206 214
200 210 219
203 213 223
201 211 219
194 204 211
193 204 212
203 213 222
149 166 154
93 120 72
89 116 69
90 117 70
92 119 71
95 122 73
88 115 69
95 122 73
95 123 74
94 121 72
95 123 74
90 116 69
95 121 72
92 119 71
90 116 69
94 122 73
88 115 68
88 115 68
88 114 68
142 159 145
199 209 216
196 206 213
194 205 212
193 204 212
193 204 213
194 204 210
198 209 218
204 213 221
201 211 221
198 208 216
186 197 203
200 211 222
194 205 211
190 202 210
194 205 211
185 197 202
179 192 192
182 194 196
193 204 211
198 208 216
191 202 210
192 202 208
198 208 214
191 202 209
189 201 207
202 212 220
197 208 216
188 200 209
197 208 217
187 197 202
176 188 188
92 118 71
90 117 70
90 116 70
93 120 72
95 123 74
90 117 69
91 118 70
91 118 71
93 120 72
134 153 135
175 189 190
190 201 208
197 208 217
185 197 206
202 212 222
194 204 211
192 203 211
199 209 216
198 208 216
193 204 211
196 207 215
190 200 205
194 205 212
171 184 184
92 119 71
93 120 72
95 123 74
91 118 70
89 116 69
91 118 71
93 120 72
90 118 71
94 121 72
88 115 68
92 119 71
96 123 74
95 123 73
94 121 72
89 116 69
90 116 70
109 132 98
148 163 152
184 196 200
198 209 218
195 206 215
196 207 214
190 202 209
203 214 224
189 200 204
92 119 71
95 123 74
89 116 68
91 119 71
91 118 71
90 117 70
93 120 71
94 121 72
92 119 72
90 118 70
91 118 70
94 120 72
91 118 71
92 119 71
91 118 71
93 120 72
94 121 72
93 120 72
97 125 75
91 118 70
93 120 72
94 121 73
94 122 73
96 123 74
90 117 69
118 139 114
196 206 212
196 206 212
198 208 216
188 199 205
193 204 212
201 210 217
193 204 211
175 187 186
154 170 160
122 143 116
92 120 72
96 123 73
93 119 71
93 120 72
93 119 71
89 116 69
88 114 67
95 122 73
92 119 71
91 118 70
91 118 70
92 119 71
91 117 70
89 116 68
92 119 71
90 117 70
188 200 204
187 199 206
192 203 209
195 205 212
188 200 207
198 209 218
189 200 207
204 214 223
191 202 209
197 207 214
199 210 218
199 209 216
203 213 222
199 208 215
194 204 212
193 204 211
197 208 216
191 202 206
203 212 220
198 208 217
199 209 216
194 205 213
207 217 228
205 214 223
195 206 213
195 206 214
196 206 212
104 129 89
89 116 70
93 120 72
91 118 70
94 120 72
91 118 70
94 121 72
91 118 71
95 121 72
89 116 69
90 116 69
91 118 71
91 117 70
97 123 81
127 147 120
144 160 148
171 184 181
181 194 199
188 199 203
197 207 214
202 212 220
193 204 212
192 204 212
196 206 214
192 205 215
196 206 213
190 200 207
93 119 77
92 118 71
92 119 71
95 122 74
93 120 71
94 121 72
93 121 73
94 121 72
91 118 70
91 118 71
91 118 71
98 126 76
95 123 74
96 124 75
89 116 69
94 121 73
90 116 69
90 116 69
89 116 70
94 122 73
94 120 72
93 120 72
93 121 73
93 120 72
94 121 72
94 121 72
135 152 134
186 197 203
200 210 217
195 205 213
199 208 216
192 202 209
201 212 220
196 206 213
196 206 214
192 202 209
197 209 219
202 212 222
196 206 214
190 201 208
197 209 217
184 196 203
202 212 219
196 207 215
186 199 207
195 205 212
195 206 213
203 213 223
191 202 210
197 208 217
202 212 222
197 208 216
193 205 213
99 122 84
92 119 71
91 118 71
91 118 71
92 119 71
95 122 73
90 117 70
92 119 71
93 120 71
88 114 67
94 121 72
96 123 74
92 119 72
90 116 69
88 115 68
90 117 70
88 115 69
90 117 70
93 120 72
93 121 72
94 122 74
95 122 72
94 121 72
89 116 69
94 121 72
116 138 109
205 215 225
198 207 214
194 205 212
197 206 212
197 209 219
189 200 204
198 209 219
195 206 216
203 213 223
203 212 220
197 207 216
193 204 210
202 211 219
187 198 204
190 201 206
204 213 222
195 206 214
193 203 208
199 209 217
195 206 215
189 200 208
198 210 222
199 209 218
192 203 210
192 203 211
97 122 79
89 115 68
89 115 68
88 115 69
94 121 73
92 118 70
89 116 69
93 120 71
89 116 69
89 116 69
87 112 66
93 120 72
92 119 71
95 123 74
89 116 69
92 119 71
93 120 71
94 121 73
91 118 70
96 122 73
93 120 72
90 116 69
93 119 71
102 126 88
194 205 212
198 208 218
193 204 212
192 204 212
202 212 223
192 203 209
197 208 217
193 204 211
202 212 222
202 214 226
197 208 215
205 215 223
194 205 213
192 203 209
194 205 212
201 212 220
194 205 212
199 210 221
190 201 208
202 212 223
196 206 213
197 208 217
201 211 218
113 134 106
92 119 71
94 122 73
91 118 71
92 119 71
94 121 72
95 122 73
95 123 74
92 118 70
95 122 73
94 122 73
94 122 73
96 124 75
91 117 70
90 117 70
91 118 70
96 123 74
93 119 72
93 121 73
91 118 70
91 118 70
114 136 108
194 205 211
193 203 211
196 207 215
194 206 213
200 210 218
188 199 205
197 207 215
201 211 220
194 205 213
195 205 210
198 208 217
195 206 215
197 208 219
202 212 221
204 213 220
192 203 212
196 207 214
195 206 212
202 212 222
193 203 210
147 163 155
90 116 70
91 118 71
91 118 71
93 119 70
88 115 69
90 117 70
91 117 71
93 120 71
92 118 70
91 117 70
93 120 72
95 122 73
90 117 71
96 124 74
91 118 71
93 120 72
92 119 71
92 119 71
142 160 144
198 208 217
201 211 220
202 211 220
195 207 217
196 206 213
192 203 209
198 209 218
201 211 219
193 204 210
192 202 209
190 201 208
189 200 204
185 197 200
157 172 165
138 154 141
116 137 109
95 121 80
169 182 180
206 216 227
104 128 93
148 164 156
177 189 191
190 203 211
195 206 214
190 202 209
198 209 218
200 209 217
194 204 213
193 204 210
202 211 217
195 205 211
193 204 210
90 117 70
94 121 73
89 116 69
94 121 73
88 115 68
91 117 71
91 118 71
89 116 69
89 115 69
92 119 71
96 123 75
93 118 73
134 153 136
161 174 171
193 204 212
200 211 220
184 196 200
198 208 215
191 202 209
198 208 215
198 208 215
201 212 222
195 207 216
178 190 192
92 119 71
93 120 71
92 118 70
89 116 70
95 122 74
93 120 72
91 118 71
91 117 70
89 115 68
93 120 72
92 118 70
91 118 70
93 121 72
94 121 73
92 119 71
93 120 72
88 115 69
93 120 72
91 118 70
116 136 109
155 170 161
179 191 191
188 200 207
198 208 216
184 196 199
94 121 72
95 122 74
95 123 74
95 122 73
94 120 72
90 116 69
95 122 73
92 119 72
91 118 71
90 116 69
92 119 70
92 120 72
93 120 72
88 115 68
93 120 71
92 119 71
95 122 73
89 115 69
92 119 72
95 122 74
93 121 72
89 116 69
94 121 72
95 122 73
94 121 73
118 138 112
187 198 205
193 203 209
203 212 219
195 206 214
185 197 202
199 210 218
193 203 209
196 207 216
195 206 215
197 207 215
180 193 196
165 178 173
129 148 129
103 128 88
89 116 69
92 120 72
91 119 71
91 118 70
94 121 73
91 118 71
92 119 71
94 121 72
95 122 73
90 117 70
93 120 71
96 123 74
178 191 194
199 209 218
197 207 214
202 212 220
197 207 214
204 214 222
189 201 209
193 204 210
198 208 215
198 208 215
200 210 219
201 211 221
198 208 217
194 205 213
196 206 214
194 204 212
201 211 219
201 211 220
189 201 207
194 205 212
191 203 212
203 213 221
204 213 221
199 208 215
198 209 218
198 209 218
186 197 199
96 123 74
92 118 70
94 121 73
90 116 69
93 120 72
91 118 71
91 117 70
93 120 71
95 122 73
88 114 68
91 118 71
92 119 71
90 117 70
91 117 70
89 116 69
92 118 69
92 119 71
93 120 71
94 121 75
114 134 107
145 161 149
153 169 162
180 193 193
187 199 202
202 211 218
201 210 215
170 184 184
96 124 74
94 121 72
92 118 70
85 111 66
88 114 68
88 114 68
95 122 73
92 119 71
94 121 73
94 121 73
92 118 70
93 120 72
94 121 72
93 121 73
89 115 68
95 122 73
92 119 71
93 120 72
94 121 73
92 118 70
91 118 70
95 122 73
95 122 73
90 116 69
94 121 71
93 121 72
168 181 179
198 208 217
202 211 219
196 206 214
192 203 210
190 201 208
184 197 205
190 200 206
192 203 211
202 213 221
203 212 221
202 212 219
195 206 215
197 208 215
196 207 214
195 206 213
198 208 216
195 206 213
197 208 216
199 210 219
201 211 219
199 208 215
195 204 212
197 207 214
189 200 206
187 199 205
161 176 168
94 121 72
93 121 72
90 116 69
95 122 73
91 117 70
92 120 72
91 118 70
88 115 68
94 121 72
91 118 71
90 117 70
91 117 69
90 117 69
95 122 73
90 116 69
92 119 71
90 117 70
92 118 71
86 112 67
92 119 71
86 112 66
92 119 71
91 117 70
88 114 67
94 122 73
176 190 193
195 205 212
193 203 209
200 210 220
199 210 221
198 208 216
199 208 216
201 211 220
201 211 220
192 202 209
203 212 219
204 213 222
195 205 213
196 206 214
193 205 215
193 204 211
195 205 212
201 212 221
196 207 216
198 208 217
200 210 219
195 205 213
203 213 222
198 209 217
195 205 214
120 140 117
86 113 67
92 119 71
92 119 71
92 119 70
94 121 72
90 117 70
92 119 71
91 118 70
92 119 71
93 120 71
95 122 73
96 123 74
92 119 72
91 119 71
89 116 69
96 124 74
91 117 70
89 115 69
92 119 72
91 118 70
87 114 68
92 119 71
89 115 68
169 182 177
200 211 220
195 205 214
196 207 215
194 205 212
201 211 218
192 203 210
195 206 215
192 203 211
196 207 214
193 204 213
197 208 217
204 213 222
206 214 222
202 212 223
190 200 206
197 207 215
200 210 217
205 215 224
198 209 219
192 204 213
197 207 214
200 210 218
147 163 151
93 120 71
91 117 70
96 123 74
93 119 71
95 122 73
93 120 72
93 120 71
92 119 71
92 119 71
92 119 71
91 118 71
91 118 70
91 118 71
90 116 69
89 116 69
93 120 72
93 119 71
91 119 71
95 122 73
93 120 72
96 121 80
177 191 193
202 211 220
199 209 216
194 206 217
203 213 223
195 205 213
191 203 210
199 208 215
197 207 216
197 206 213
195 205 212
192 203 209
201 211 219
192 202 209
203 213 220
195 206 213
189 200 208
192 203 211
196 206 214
192 203 210
178 190 192
98 124 79
90 116 70
92 118 70
94 121 72
94 121 72
91 118 70
94 121 73
88 114 67
92 119 70
93 120 72
91 118 70
92 119 71
92 119 72
95 122 74
88 115 68
90 116 70
92 119 72
94 121 73
140 157 143
191 202 208
199 210 218
198 208 218
199 209 218
189 200 207
194 204 212
205 214 222
196 205 210
173 186 187
163 177 169
146 162 148
111 133 99
93 121 73
92 120 72
91 118 71
94 121 72
101 126 83
175 188 190
190 200 205
192 203 210
95 122 73
93 119 71
92 119 71
115 135 107
182 194 195
194 205 211
191 201 208
191 203 212
190 201 207
198 208 217
192 202 209
198 208 216
193 204 212
97 123 79
91 118 71
93 120 72
95 122 73
91 118 70
94 121 73
93 121 72
93 120 72
89 116 69
92 119 72
93 119 71
91 117 70
91 117 71
90 117 70
112 135 102
131 150 131
169 182 179
194 205 212
194 205 211
196 207 214
200 210 217
192 203 209
201 211 220
182 194 197
93 119 71
93 120 72
93 120 72
92 118 71
93 120 73
96 123 74
94 121 73
91 118 71
88 114 68
96 123 74
94 120 72
89 116 70
95 122 73
89 116 69
91 118 71
94 121 73
93 120 72
94 122 73
86 112 67
94 121 73
94 122 73
94 121 73
116 137 108
150 166 156
164 177 174
92 119 70
94 121 72
94 121 73
91 118 71
94 121 73
94 121 73
91 118 71
89 116 68
95 122 73
95 122 73
93 120 72
89 116 69
91 117 70
91 117 70
95 122 73
93 120 71
95 122 73
90 116 69
89 115 68
87 113 67
95 122 73
94 121 73
89 116 69
93 120 72
92 118 71
148 165 151
196 206 215
199 209 217
185 196 199
194 204 211
200 210 218
195 205 213
198 209 217
195 206 214
195 206 213
187 197 201
191 201 208
199 209 217
205 215 224
189 201 208
186 198 203
148 164 154
127 147 128
102 126 87
93 120 72
92 120 72
93 120 71
93 120 72
92 119 71
91 118 71
90 117 71
98 122 80
199 209 218
192 203 211
199 209 217
199 209 217
192 202 209
199 209 215
199 209 218
193 205 214
190 201 207
198 208 218
196 207 215
203 214 224
197 208 215
201 211 221
197 208 216
189 200 207
193 204 211
189 201 208
191 202 207
198 208 216
204 214 221
194 205 211
203 212 220
197 208 218
189 201 206
199 209 217
176 189 187
90 117 69
90 116 69
95 122 73
89 116 69
89 116 69
93 120 71
90 116 69
91 117 69
94 122 73
92 119 71
94 121 71
91 117 69
95 122 74
94 121 73
94 121 72
92 119 72
93 120 72
93 120 72
91 118 70
96 123 74
94 121 72
92 119 72
94 121 72
90 117 70
108 131 98
121 141 120
165 179 175
141 159 142
126 147 123
94 121 75
95 122 73
92 119 71
91 118 71
90 116 69
95 122 73
94 121 72
95 122 73
93 120 72
92 118 70
88 116 69
89 115 68
97 125 76
93 120 72
95 122 73
99 126 76
92 120 72
90 116 69
93 120 71
89 117 70
94 120 72
88 115 68
93 120 72
108 131 97
198 208 217
199 209 216
200 211 220
199 210 220
198 209 216
200 210 219
191 203 209
201 211 221
196 206 213
200 211 220
197 208 217
201 210 219
196 206 213
192 203 212
197 207 216
197 206 214
199 209 218
201 211 219
195 205 210
192 204 212
201 210 219
192 203 211
190 202 209
193 203 211
198 208 216
189 199 207
118 139 111
92 118 70
90 116 69
90 117 70
89 116 70
88 115 68
95 123 74
92 119 71
95 123 75
89 116 69
91 118 70
97 124 74
93 120 71
90 116 69
94 121 72
93 120 72
91 118 71
92 119 71
95 122 73
90 117 70
93 121 73
92 119 71
90 117 70
90 116 69
89 115 69
133 150 134
199 209 218
195 205 211
198 208 214
197 207 213
191 202 210
193 203 209
195 204 209
192 203 210
199 209 216
199 209 217
198 207 215
198 208 218
199 209 216
184 196 203
193 205 213
193 204 211
196 208 216
195 206 214
192 204 212
205 215 224
196 206 214
196 207 215
195 206 214
194 204 211
185 197 201
92 118 70
89 116 69
91 119 71
96 124 75
90 117 69
94 121 73
93 120 72
89 115 69
90 116 69
93 121 72
89 115 68
91 118 70
91 117 70
93 120 72
94 121 72
91 119 71
91 118 71
93 120 72
92 119 71
95 122 73
93 120 72
91 117 69
93 120 72
135 153 134
196 206 215
195 206 216
197 208 216
199 209 217
191 203 209
203 212 220
196 206 216
196 206 211
196 207 217
192 202 210
194 205 213
198 209 217
194 205 215
188 200 206
196 207 215
197 207 215
199 209 218
208 217 226
190 201 207
197 207 215
196 206 213
196 206 214
175 188 190
94 121 72
93 121 72
92 119 71
93 119 71
94 121 73
95 122 74
93 120 72
92 118 70
95 122 73
92 119 71
93 120 72
92 120 72
92 119 71
94 121 73
91 117 70
94 121 72
94 121 73
95 123 74
91 117 70
90 116 69
90 116 69
157 172 163
197 207 215
193 204 211
199 208 217
196 207 215
192 202 210
204 213 221
196 207 215
201 211 218
200 210 218
199 209 219
196 207 214
196 206 213
198 208 214
190 201 209
196 207 214
197 207 216
189 201 207
198 209 217
198 209 218
173 186 185
104 128 89
93 120 71
92 119 71
93 120 72
93 121 73
93 120 72
96 124 75
90 117 70
91 118 70
95 123 74
89 115 68
95 122 72
88 114 68
93 120 71
92 119 71
88 114 67
90 117 70
94 122 73
134 151 135
189 200 206
194 205 213
201 210 218
190 202 208
169 183 181
161 176 170
137 154 140
124 144 120
96 122 75
95 122 73
90 117 71
91 118 70
93 120 72
91 118 70
92 119 71
92 119 72
102 125 89
168 181 181
193 204 213
194 206 216
195 206 215
89 115 69
93 120 72
92 119 71
93 120 71
94 121 72
105 129 94
141 159 147
179 191 193
191 201 209
193 204 212
200 210 218
195 205 212
190 201 208
111 134 104
88 114 68
89 116 70
89 115 68
90 117 70
91 118 71
91 118 71
94 121 73
93 120 72
97 124 74
91 117 69
90 117 70
89 116 70
91 118 69
93 119 71
92 119 71
92 119 70
120 139 116
150 165 157
180 192 194
202 211 221
194 205 212
192 202 209
194 205 212
89 116 68
91 118 71
92 119 71
94 121 72
91 117 69
90 116 69
93 119 71
93 120 72
91 118 70
91 117 70
91 118 70
92 118 71
93 120 72
87 114 68
88 114 68
93 119 71
89 116 69
92 119 71
91 118 71
94 121 72
94 122 73
94 121 71
93 120 72
90 117 69
120 142 118
185 196 197
151 165 158
126 146 123
94 119 78
93 119 71
88 114 68
93 120 72
93 120 72
89 116 70
91 118 70
90 117 69
97 124 75
93 120 72
91 117 70
93 121 73
92 119 71
91 118 70
90 116 69
91 117 69
89 116 69
92 118 70
93 120 72
94 121 72
92 118 71
91 117 70
151 167 157
198 209 218
197 208 215
194 204 212
189 199 207
186 197 202
198 209 219
188 199 205
196 206 214
193 203 211
192 203 209
195 205 213
207 217 227
201 211 221
200 211 220
199 208 214
190 200 207
191 202 210
204 213 221
162 176 174
146 162 153
124 143 119
102 128 84
89 115 68
90 117 70
93 120 71
117 138 112
195 206 215
198 208 217
192 203 210
194 205 211
190 202 209
188 199 205
190 202 207
198 209 216
193 204 210
193 204 211
194 205 213
197 208 216
201 211 220
201 210 219
200 210 218
195 205 212
192 203 209
187 199 205
187 198 203
210 218 227
199 210 218
197 208 218
199 210 219
201 211 221
207 216 226
198 209 217
145 161 147
90 116 69
89 115 69
91 118 71
91 118 71
90 116 69
94 121 73
89 116 69
90 117 70
92 119 71
90 116 69
89 115 69
95 123 74
90 117 71
92 118 70
94 121 73
93 120 72
93 121 73
92 119 71
88 115 68
93 120 72
95 123 74
90 117 69
93 119 71
95 122 73
90 117 70
93 119 74
192 203 210
194 205 213
188 199 207
196 207 216
173 187 188
167 181 180
147 163 153
136 153 140
114 137 105
95 122 76
91 118 71
91 118 71
95 122 73
90 117 70
90 116 69
95 122 74
92 118 70
93 120 72
94 121 72
92 119 71
94 121 72
89 115 68
91 118 71
92 120 72
97 125 76
93 119 72
150 166 157
190 202 210
197 207 214
193 205 214
187 199 204
198 209 218
193 203 210
196 206 214
192 203 209
190 202 211
196 207 217
205 214 222
195 205 212
196 206 215
198 208 216
200 210 218
192 203 211
193 204 213
198 207 212
200 210 218
201 211 221
202 212 220
194 205 213
196 207 215
194 205 214
188 200 207
171 184 181
98 125 75
93 120 72
93 120 71
89 115 67
92 119 71
91 118 70
96 124 75
89 116 70
91 117 70
91 118 70
89 116 69
92 118 70
86 112 66
94 121 72
95 123 73
96 123 74
91 119 71
89 115 68
90 117 70
95 123 74
92 118 70
94 122 74
90 116 69
90 117 70
94 120 72
179 191 191
201 210 218
201 211 220
196 207 215
195 206 216
194 204 211
193 204 212
196 207 214
192 203 209
189 200 207
198 209 218
197 208 214
206 216 228
199 210 220
199 209 218
198 208 216
203 213 222
196 207 214
201 211 220
195 206 213
201 211 220
200 211 220
195 204 211
194 205 212
193 204 212
104 129 90
91 118 70
95 122 73
92 119 71
91 118 70
89 116 68
89 115 67
91 117 70
95 122 73
93 119 71
96 123 75
90 117 70
92 118 70
86 112 67
90 116 69
92 119 71
93 120 72
94 121 72
93 119 71
88 115 68
90 117 70
94 121 73
93 120 71
93 119 74
176 190 192
200 210 217
190 202 210
190 200 206
186 199 205
192 204 212
190 201 208
189 201 208
198 208 217
202 212 220
197 208 216
201 210 218
198 208 216
187 197 202
198 209 218
186 197 205
195 205 212
202 211 219
201 211 220
196 207 215
192 203 212
200 210 218
194 204 211
94 119 78
90 117 70
91 118 70
86 113 67
89 115 68
92 119 71
92 119 71
89 115 68
92 119 71
89 116 69
91 118 71
95 122 73
91 117 70
93 120 71
90 117 70
89 116 69
93 120 71
93 120 72
96 123 74
93 120 72
93 120 72
140 157 145
192 203 212
200 211 220
193 205 213
190 201 209
199 209 218
206 214 223
195 206 214
188 198 206
188 199 204
197 208 218
201 211 220
198 209 216
194 204 210
198 209 217
190 201 206
198 209 219
198 208 214
191 203 211
198 208 216
186 198 203
109 133 99
91 117 69
88 115 68
90 116 68
92 118 71
92 118 71
92 119 71
93 120 73
90 118 71
90 116 69
90 116 69
93 120 71
89 116 70
92 118 71
89 115 69
89 116 68
92 119 71
96 123 77
112 134 101
167 180 178
154 169 161
136 154 138
115 137 105
92 119 72
90 117 70
91 118 70
91 117 70
91 118 70
93 120 71
92 119 71
91 119 71
92 119 71
94 121 72
94 121 73
92 120 72
97 123 79
180 193 195
201 211 222
193 204 212
190 201 207
194 205 213
93 120 71
92 118 71
90 117 69
90 117 70
90 117 69
92 118 71
92 119 71
93 120 72
126 145 122
163 177 171
191 202 208
201 212 220
201 211 220
140 158 144
94 122 73
91 118 70
86 113 67
91 118 70
88 114 67
93 120 72
89 115 68
91 118 70
90 118 70
89 116 69
91 118 70
91 119 72
92 119 71
92 119 71
90 117 70
90 115 68
91 117 70
89 115 68
94 120 74
126 144 125
143 160 148
188 199 205
195 205 214
99 124 82
93 119 71
92 119 71
89 116 69
87 113 67
92 119 71
91 118 71
93 120 71
94 121 72
92 119 71
93 120 72
93 120 72
90 116 69
93 120 72
90 117 70
91 119 71
94 120 72
92 118 70
91 118 71
91 118 70
94 121 72
91 118 71
88 115 68
89 115 68
113 135 104
198 209 216
199 210 217
199 210 218
187 199 203
157 172 166
128 147 126
96 122 78
88 115 69
95 122 73
90 117 70
90 117 70
90 117 70
94 121 72
91 118 71
90 117 70
95 121 72
94 121 72
88 115 68
90 117 69
90 117 70
85 111 65
91 118 70
90 117 70
92 118 71
89 115 69
156 172 167
190 201 207
200 210 220
190 201 208
185 197 203
202 212 222
202 213 222
195 205 213
193 204 211
193 204 212
194 205 214
192 203 211
201 211 220
194 206 214
192 203 211
201 213 226
195 206 214
200 210 219
191 202 210
202 212 221
202 212 220
195 205 212
193 204 210
169 182 183
148 164 155
128 148 126
146 164 150
195 205 213
202 212 219
196 207 215
199 209 217
190 200 207
188 200 206
195 206 214
196 207 213
199 209 218
197 207 215
193 204 211
180 192 197
192 203 210
191 203 213
193 203 210
194 205 212
202 211 218
199 209 216
201 211 221
202 212 222
194 206 214
202 212 220
191 203 211
191 203 212
195 205 213
196 208 218
117 137 110
91 118 71
92 119 71
94 121 72
91 117 69
93 120 72
90 116 69
92 119 71
89 116 68
94 121 73
92 119 71
95 122 73
88 114 67
88 115 69
84 111 65
92 119 71
88 115 68
91 118 71
93 119 71
91 117 70
93 120 72
91 117 70
95 123 74
94 122 73
95 121 72
91 118 71
141 157 143
195 206 215
189 201 208
202 211 220
198 208 216
193 204 211
202 211 221
196 206 213
202 212 221
199 209 215
200 210 218
182 194 195
170 183 181
144 161 150
127 145 126
122 143 116
96 121 80
92 119 71
94 122 73
94 121 72
93 119 72
94 121 73
95 122 73
93 120 72
94 121 73
89 116 70
90 117 69
186 197 199
188 199 205
197 207 216
203 213 220
196 205 213
201 211 220
192 202 209
192 203 211
198 208 218
205 215 224
197 208 218
198 209 218
200 211 222
195 206 213
195 206 213
198 209 217
203 213 221
194 204 210
197 208 217
199 209 215
200 210 219
186 198 206
187 198 202
206 215 223
195 206 215
197 208 216
124 143 118
92 119 71
88 115 68
92 119 70
90 117 71
89 116 69
94 121 73
93 120 72
90 117 70
91 118 70
91 118 71
91 118 71
93 119 71
91 118 70
94 120 72
89 115 69
90 117 69
89 116 69
92 119 71
91 117 70
92 119 71
92 119 72
91 117 70
92 119 72
90 117 70
133 152 132
202 211 218
188 198 204
188 199 207
197 207 216
199 209 216
203 212 220
197 207 214
188 199 207
199 209 218
186 197 202
194 205 214
196 207 217
193 205 212
187 199 206
189 200 205
196 206 214
198 209 217
195 207 215
201 211 220
194 204 211
196 206 214
201 211 221
196 206 216
199 209 217
142 160 145
92 119 71
90 116 69
95 123 74
97 125 75
95 122 73
92 119 70
86 112 66
92 119 71
92 119 71
94 121 72
90 117 70
95 122 73
93 120 72
93 120 72
94 121 73
95 122 73
90 116 69
93 120 72
97 124 74
91 118 70
90 116 70
92 119 71
88 115 69
161 174 171
197 208 217
197 207 215
192 203 212
193 204 213
198 208 215
193 204 211
189 200 205
201 211 220
199 210 221
186 198 204
197 207 216
199 210 222
195 206 215
191 202 211
200 209 216
195 206 214
196 207 215
190 201 210
190 200 206
194 204 213
198 207 213
196 207 215
126 146 123
93 119 70
92 119 71
96 123 74
87 114 67
92 119 71
89 116 69
92 118 70
90 117 70
91 118 71
95 123 74
91 118 70
92 118 70
87 114 67
96 123 74
88 115 68
91 118 71
96 123 74
90 116 70
92 118 71
94 121 73
121 142 116
197 208 216
198 207 214
193 204 212
192 202 207
196 206 213
194 205 212
195 207 216
193 205 213
195 206 213
185 197 203
196 208 217
199 209 219
196 208 215
188 199 206
192 203 210
199 209 219
191 202 212
193 204 209
196 207 214
192 202 206
114 136 104
85 111 65
97 125 74
91 118 72
90 117 70
94 121 73
90 116 69
92 118 69
93 120 72
92 118 70
95 123 74
96 123 74
92 119 71
110 133 101
131 149 131
147 164 152
156 171 165
179 192 194
191 202 207
103 127 91
90 117 70
94 121 73
94 121 73
91 118 71
97 124 74
88 114 68
93 119 71
88 114 67
94 121 72
88 114 67
90 117 70
94 121 73
95 122 73
94 121 72
95 122 73
106 130 92
178 190 192
195 206 214
189 200 206
199 210 218
183 194 200
191 201 207
94 121 72
91 118 70
91 118 70
91 118 70
90 117 70
91 117 69
89 116 69
91 117 70
92 119 71
91 118 70
103 128 86
142 159 145
169 183 180
158 173 169
92 118 70
91 117 70
90 116 69
90 117 70
90 117 70
88 115 69
89 115 68
90 118 71
95 122 73
91 118 71
95 122 73
94 121 73
96 122 73
91 118 70
91 117 69
90 117 69
92 119 71
91 117 69
91 118 71
92 119 72
88 115 68
91 118 71
120 140 116
133 150 134
100 123 88
93 120 72
91 118 71
92 118 70
92 119 72
93 120 72
94 121 72
91 118 71
90 117 70
91 118 71
89 115 69
92 118 70
92 118 71
93 120 73
91 118 70
94 122 74
90 116 69
91 118 70
89 116 70
92 118 71
92 119 71
93 120 72
91 118 70
114 136 108
194 204 209
195 206 212
189 200 206
196 206 212
193 204 211
197 207 214
199 209 217
169 183 185
147 162 152
103 128 93
91 117 70
92 119 71
90 116 70
93 120 72
94 121 73
92 119 72
87 114 68
91 118 70
90 117 69
90 116 69
93 120 72
91 117 70
89 116 69
90 117 70
87 114 68
172 186 184
183 194 199
197 207 215
193 203 210
190 201 207
200 210 219
188 199 206
198 209 218
190 201 206
192 203 212
188 199 206
188 199 207
198 208 216
192 203 208
196 206 214
192 203 211
200 210 219
197 207 214
184 196 201
191 201 208
197 207 217
199 209 216
196 206 213
191 201 207
206 216 225
203 213 221
156 170 168
127 147 126
152 168 157
179 193 196
191 202 210
195 206 214
192 203 209
198 208 217
197 208 216
187 199 205
201 211 219
202 212 221
197 208 215
195 206 216
195 206 216
191 202 208
199 209 219
195 205 212
199 210 219
200 211 221
199 210 219
193 204 211
197 207 216
194 205 212
195 205 211
182 193 196
187 199 204
91 118 70
93 120 73
90 117 69
91 118 72
92 119 71
89 115 69
90 117 69
92 119 72
93 120 71
93 120 72
95 121 72
90 117 70
94 120 72
91 117 70
91 117 70
95 123 73
87 114 67
92 119 71
88 114 67
94 122 73
89 116 69
94 121 73
92 120 73
93 119 71
92 119 71
92 119 71
157 172 165
190 200 208
198 207 215
196 208 216
194 205 212
192 204 211
194 205 214
192 203 211
191 202 209
200 211 221
192 203 211
195 206 214
193 203 210
192 202 209
196 207 216
200 209 217
189 200 205
180 191 194
183 196 199
163 177 171
136 154 138
128 146 130
111 133 101
92 118 70
94 122 74
89 116 70
138 156 136
192 203 212
188 199 206
201 211 219
188 199 206
193 204 211
194 205 212
199 208 215
190 200 205
200 211 220
187 198 206
196 206 212
197 207 216
191 202 210
201 212 220
193 204 213
202 211 221
196 206 215
198 208 217
194 204 211
194 205 211
194 204 210
200 210 220
187 199 205
201 211 221
193 204 212
173 186 187
90 117 69
92 119 72
93 119 71
92 119 72
90 117 69
91 118 70
95 122 72
89 116 69
90 117 70
91 118 71
88 114 68
93 120 72
92 119 71
91 118 71
93 120 71
91 117 70
94 122 73
88 114 68
95 123 74
91 118 71
91 118 71
90 117 70
93 119 72
95 122 73
93 119 70
179 192 196
199 209 218
192 203 210
195 205 214
194 204 211
189 201 208
198 208 218
199 208 215
203 212 223
198 208 215
197 207 215
203 213 221
201 211 219
194 205 212
198 209 217
188 199 205
208 217 225
201 211 219
194 205 213
195 205 210
193 204 212
196 208 220
192 202 208
188 199 204
187 198 202
93 118 76
94 121 73
92 118 70
91 118 71
94 121 72
93 120 71
90 116 69
93 119 71
91 118 70
94 121 73
95 122 73
98 125 75
95 122 73
93 120 72
91 118 70
94 121 73
91 118 71
93 120 72
87 113 67
92 120 72
92 120 72
94 121 73
94 122 74
134 152 131
189 200 207
193 203 209
186 198 204
194 206 214
193 204 211
195 206 214
191 202 210
199 210 218
199 209 219
194 205 213
197 207 214
196 207 215
200 210 218
189 200 207
198 207 215
195 206 213
199 209 219
196 207 215
199 209 219
196 207 215
195 206 215
195 205 214
163 177 170
93 119 71
90 117 70
90 118 71
92 119 71
92 119 71
91 118 71
92 118 71
94 121 72
92 119 71
91 117 70
90 117 70
90 117 70
92 119 71
88 114 68
88 114 67
88 114 68
94 120 72
96 124 74
90 117 70
92 119 71
103 128 89
191 201 207
193 203 210
201 211 219
194 205 211
189 200 208
186 197 201
194 205 212
182 195 201
197 207 214
193 203 208
197 207 216
185 197 201
190 201 209
195 206 215
197 207 214
190 201 209
198 208 215
198 209 217
192 202 208
187 198 203
126 144 123
89 116 69
89 115 69
91 118 71
96 123 74
92 119 71
90 117 70
94 120 74
111 132 102
134 152 134
161 175 168
165 179 176
186 198 204
186 198 205
188 199 205
189 200 206
197 208 217
195 205 214
190 200 205
111 133 103
93 120 72
93 120 72
89 115 68
93 120 71
94 121 72
92 118 70
92 118 70
92 120 72
94 122 73
95 122 73
89 116 69
92 119 71
90 117 70
91 117 70
90 117 69
105 129 91
182 195 198
202 212 222
194 205 213
191 201 207
197 208 216
199 209 217
190 201 210
90 116 69
90 117 69
93 120 72
94 121 73
97 124 74
89 116 69
91 118 70
88 115 68
92 119 70
92 119 72
87 114 68
91 119 71
89 115 68
128 148 125
158 173 166
115 136 106
90 117 69
94 121 72
89 116 69
90 117 69
90 116 69
91 118 71
94 121 72
93 120 72
92 119 71
88 115 68
89 115 68
89 116 68
91 117 71
95 122 73
91 117 70
92 120 72
90 117 70
90 116 69
95 123 73
94 121 72
91 117 70
167 179 178
185 197 202
184 196 199
124 145 120
98 124 79
89 116 69
93 121 73
91 117 69
94 121 73
93 121 73
96 123 73
93 120 72
91 118 71
93 120 72
92 119 71
89 116 69
91 118 70
93 120 72
89 115 68
94 121 72
94 121 72
95 122 73
94 121 73
90 116 69
116 137 110
187 199 207
195 205 211
201 211 221
184 196 201
195 205 212
191 203 209
196 207 215
194 204 212
200 209 217
194 204 209
185 196 198
157 172 165
126 146 120
91 118 70
91 118 71
93 121 72
91 118 71
95 122 72
93 120 73
92 118 70
94 121 72
89 116 70
89 115 68
89 116 68
90 117 69
184 195 198
193 204 210
195 206 215
195 207 217
193 204 209
197 208 215
191 202 209
185 198 206
194 205 213
194 205 212
195 206 214
195 206 214
192 203 210
190 201 208
186 198 203
203 214 224
192 203 210
198 208 216
191 202 209
197 207 214
192 203 210
191 202 208
201 211 221
191 202 209
200 210 220
200 210 219
128 147 126
89 115 68
91 118 72
90 117 70
92 119 72
122 143 116
146 162 153
179 191 193
200 209 215
196 206 213
196 207 214
193 204 211
190 201 209
191 202 209
190 202 212
196 206 213
200 210 218
197 207 215
199 209 217
194 205 212
191 203 211
197 207 214
203 213 222
193 204 212
192 204 212
190 202 209
160 174 171
93 119 71
92 119 72
92 119 70
91 118 70
94 122 73
94 120 72
95 122 73
96 123 74
95 123 74
90 117 70
91 118 71
91 118 71
91 118 71
92 119 71
89 116 69
91 118 70
89 116 69
92 120 72
94 121 73
92 119 71
91 118 70
93 120 72
94 121 73
89 116 68
94 121 72
90 116 72
195 205 211
197 207 215
203 213 221
196 207 215
196 207 213
197 208 218
192 203 209
192 203 213
188 200 208
194 203 211
176 188 195
198 209 219
198 208 217
201 211 220
189 200 207
195 205 211
193 205 214
197 208 217
201 211 219
193 205 213
199 209 218
197 207 215
196 206 214
193 204 212
180 192 195
176 188 189
143 159 149
158 173 167
171 184 185
184 196 201
193 203 210
197 208 218
194 205 212
191 202 209
197 207 214
190 201 209
196 205 213
197 206 212
191 202 209
198 209 217
196 207 215
197 208 216
193 205 214
198 208 218
199 209 216
192 202 208
193 204 211
193 203 210
199 209 218
197 207 214
194 205 213
200 210 219
131 148 131
90 117 70
90 117 70
92 119 71
89 115 69
95 122 73
90 117 69
89 116 69
92 119 72
94 122 73
92 119 71
93 120 72
92 119 72
87 114 67
91 118 70
89 116 69
90 117 70
92 119 71
91 118 71
92 119 71
91 117 69
92 118 70
90 118 70
94 121 73
92 119 72
127 146 125
205 214 222
188 200 207
193 204 213
194 204 212
191 202 208
191 201 208
185 197 204
199 208 217
196 206 215
193 204 211
193 204 213
198 209 217
193 203 211
198 209 217
183 194 200
198 209 217
191 202 209
201 211 219
193 203 210
197 208 217
196 207 216
198 208 217
189 200 207
189 200 207
144 159 145
93 120 71
90 117 69
96 123 73
93 120 71
90 117 70
89 116 69
89 116 69
87 113 67
92 119 71
92 119 72
88 114 68
93 120 72
94 121 72
93 119 71
90 117 70
91 118 71
96 123 74
94 122 73
96 124 74
92 119 71
92 119 71
89 116 69
96 121 80
184 196 201
201 211 220
189 200 207
188 199 205
195 206 214
193 204 212
191 203 210
195 205 213
198 208 217
187 199 206
197 207 216
190 202 209
198 208 217
193 204 211
193 205 214
199 209 217
197 208 217
195 207 217
196 207 216
188 199 206
196 206 214
199 210 218
171 185 183
90 116 71
89 115 67
91 117 70
93 120 72
92 119 71
93 120 72
90 117 70
89 116 69
94 121 72
92 119 71
92 119 71
93 120 72
92 118 70
90 116 69
92 119 71
90 116 70
90 117 70
87 114 67
90 116 69
91 118 71
92 118 74
174 187 187
191 203 215
193 204 211
201 212 222
194 206 214
192 202 208
185 196 202
196 206 213
195 205 212
193 205 213
204 214 224
193 203 211
197 208 217
194 205 212
195 206 213
193 205 214
194 205 212
193 204 210
190 202 208
197 207 214
131 149 133
88 114 67
107 131 98
118 138 113
130 147 132
169 182 180
165 178 174
170 183 184
185 197 204
198 207 215
196 207 216
197 207 215
193 204 213
198 209 219
195 205 211
196 206 213
203 213 222
191 202 210
181 193 196
100 124 89
87 113 67
92 118 70
90 117 70
92 119 71
94 121 73
92 119 72
93 120 73
89 115 69
90 118 71
95 122 74
87 114 68
92 119 71
92 120 72
93 120 71
92 119 71
105 128 92
176 188 191
192 203 209
206 215 224
186 197 201
193 204 213
203 213 224
192 204 213
195 205 214
87 114 68
93 120 72
91 118 70
90 117 70
90 118 71
92 119 71
90 116 69
90 117 70
91 118 70
87 113 67
94 121 73
94 121 72
89 115 69
96 120 82
187 198 202
197 207 214
173 186 187
138 156 139
100 125 82
89 116 69
91 119 71
90 117 70
86 112 66
91 117 70
91 118 71
92 119 71
93 120 72
91 117 70
89 116 69
91 119 71
91 118 71
92 119 72
93 119 71
94 121 73
94 121 72
92 119 71
89 115 68
176 189 189
195 207 216
193 203 211
193 203 209
184 196 201
167 180 177
134 153 135
98 124 81
92 118 71
92 119 71
92 118 70
92 120 72
93 119 71
90 117 69
92 119 71
93 120 72
91 118 70
94 121 72
95 122 73
90 117 69
95 123 74
89 116 70
90 117 69
89 116 70
113 135 102
193 205 214
195 205 212
193 203 209
194 205 211
201 210 217
190 201 208
197 208 215
191 202 210
192 202 209
177 189 193
197 207 216
188 200 206
200 210 219
186 197 201
159 172 165
139 157 143
100 123 87
90 117 70
91 117 70
92 119 71
92 119 71
95 121 73
91 117 70
95 122 73
95 122 74
183 195 200
194 205 213
195 206 214
197 206 213
197 207 214
188 200 207
199 209 218
204 213 222
192 202 209
197 208 218
199 209 216
196 207 216
192 203 212
199 209 216
187 199 207
196 205 211
201 212 222
197 208 217
186 198 205
200 211 221
196 206 214
189 200 206
185 196 201
195 206 215
188 200 207
188 198 203
108 131 96
93 120 72
90 118 71
93 121 72
91 118 71
92 118 70
92 119 71
93 119 71
87 114 68
116 138 110
143 160 148
170 183 182
186 198 203
195 206 214
199 209 218
199 210 219
191 202 209
196 208 218
198 209 217
192 203 210
186 198 203
190 201 208
197 208 216
201 212 222
192 204 214
192 204 212
153 168 157
92 120 72
92 119 71
91 117 70
92 118 71
92 119 71
90 117 71
91 117 70
87 112 66
94 121 73
92 119 71
95 122 73
89 116 69
91 118 70
93 119 71
91 118 70
86 112 66
94 121 73
89 116 69
90 116 69
91 117 70
91 118 70
87 113 67
92 120 72
92 118 71
92 118 70
118 138 114
198 208 216
199 210 220
197 208 218
187 199 206
196 206 213
199 208 214
188 199 207
198 209 219
195 206 211
199 209 219
192 202 207
193 203 209
194 205 213
196 207 213
199 209 217
195 205 211
194 204 211
197 208 218
191 202 208
195 205 211
189 200 208
198 209 218
201 211 218
188 200 209
201 212 223
193 203 209
97 122 78
93 120 73
91 118 71
95 122 73
93 120 72
105 129 95
138 155 140
140 157 142
155 170 163
161 176 173
171 183 184
185 196 199
196 207 218
194 205 212
189 200 204
194 205 212
202 212 222
197 206 213
198 209 218
196 207 216
195 206 214
198 208 216
192 203 211
198 208 215
197 208 216
172 185 184
96 122 78
93 120 71
90 118 70
91 117 70
93 119 71
92 119 71
92 120 72
91 118 71
88 115 68
92 119 72
93 120 72
92 119 71
89 116 69
93 120 72
93 121 72
93 120 72
90 117 70
96 123 74
90 117 69
92 119 71
92 119 71
89 115 68
91 117 69
89 116 69
94 121 72
181 193 193
199 208 217
189 200 207
183 195 199
191 201 209
191 203 210
198 208 217
201 211 220
199 209 217
196 206 214
192 203 209
196 208 220
198 209 216
183 195 203
202 213 223
201 212 221
195 206 216
189 200 206
200 210 218
196 206 214
180 193 199
194 204 213
199 209 216
190 201 207
173 186 185
89 116 69
91 118 70
89 116 69
90 116 69
95 122 73
90 117 70
90 117 70
93 120 72
94 120 72
94 121 73
90 117 69
93 120 72
93 121 73
95 122 74
94 121 73
89 116 68
93 120 71
91 118 71
87 113 67
90 117 70
90 117 69
92 119 71
90 117 69
166 180 180
185 198 206
186 198 206
194 205 212
195 206 213
199 209 217
198 209 217
201 211 218
191 202 210
194 204 212
187 199 207
203 212 222
193 203 208
194 203 210
199 209 218
203 212 219
190 200 206
191 202 209
193 203 210
187 199 205
195 205 213
202 211 220
191 202 209
104 128 91
91 118 70
90 116 69
92 119 71
88 114 67
92 118 70
95 122 73
89 116 69
88 114 68
90 116 69
92 119 72
92 119 71
94 121 73
89 115 68
93 119 71
91 118 70
92 119 71
94 121 73
88 115 68
92 118 70
90 117 70
156 171 163
196 206 214
190 202 210
198 209 217
194 204 211
198 208 214
188 199 206
196 207 216
191 201 207
197 208 216
186 197 203
189 201 209
195 206 214
186 197 201
193 203 211
193 205 215
178 190 191
177 189 188
148 164 155
154 170 162
172 185 184
184 196 199
188 198 203
198 208 215
183 195 201
196 206 210
196 206 213
192 203 209
195 206 216
197 208 217
192 202 208
193 203 210
186 198 204
196 206 215
199 209 219
195 206 215
198 209 217
197 207 216
183 194 199
101 124 93
94 121 73
91 118 70
91 118 70
88 115 68
91 118 70
93 120 71
91 118 71
95 122 73
94 121 72
91 118 71
89 116 69
86 112 67
91 118 71
92 119 71
93 120 72
110 132 100
188 200 205
200 209 215
193 204 212
193 204 211
197 207 216
191 203 210
191 202 207
192 203 210
194 205 214
128 147 126
90 116 69
89 116 69
92 119 71
92 120 72
92 119 71
89 115 69
92 119 71
90 116 69
93 120 72
85 111 65
91 118 71
90 116 69
89 116 70
184 195 200
194 204 212
193 204 212
193 203 210
187 199 206
168 183 182
120 140 114
94 121 73
91 118 70
89 115 68
93 121 73
95 123 74
90 117 70
92 118 71
89 116 69
91 117 69
92 119 71
94 121 72
95 122 73
92 119 71
94 121 72
89 115 68
90 117 69
161 176 174
205 214 225
197 208 217
183 193 198
190 201 209
196 206 214
197 207 215
182 195 200
170 184 183
125 145 123
100 126 81
94 120 72
90 117 70
96 123 74
94 121 72
91 117 69
91 118 70
92 118 70
90 116 69
92 119 72
95 122 73
91 118 71
89 116 69
91 118 71
111 133 103
194 205 212
186 198 205
200 210 219
194 205 213
187 198 203
189 201 209
192 202 211
195 206 213
192 203 211
191 202 208
202 212 221
188 200 207
184 196 201
197 207 217
191 202 210
191 203 210
190 201 207
182 195 197
155 168 162
106 129 93
92 119 71
91 117 70
88 114 68
92 119 71
94 120 71
185 196 200
196 206 213
189 200 205
203 212 221
193 204 211
192 203 211
200 211 219
197 207 215
195 206 216
187 199 207
193 204 212
192 203 211
193 203 211
195 206 213
200 210 220
191 202 207
202 211 219
193 203 210
193 204 212
188 200 206
191 202 209
187 198 204
196 207 214
186 198 203
199 209 217
196 206 212
93 118 75
95 122 73
92 120 72
93 119 71
92 119 71
90 117 69
93 120 72
89 117 70
92 118 70
89 116 70
96 123 74
90 117 69
95 122 73
113 135 103
142 160 144
158 173 168
178 190 190
186 197 202
193 203 211
188 199 206
192 203 211
188 199 205
193 205 212
202 212 219
193 203 209
190 201 210
113 134 105
90 117 69
89 116 68
91 119 72
90 116 69
88 115 68
93 120 71
96 123 74
95 122 73
94 121 73
88 115 68
90 116 69
92 119 71
90 117 70
93 119 71
93 120 73
92 119 71
94 121 72
89 115 68
93 120 72
92 119 71
92 120 71
92 119 71
90 116 69
90 117 70
90 117 70
156 171 163
196 206 214
199 209 216
197 208 216
198 208 216
196 207 213
193 204 213
198 208 216
196 207 215
195 205 213
197 208 215
199 209 218
188 198 204
186 198 205
197 208 216
188 199 206
191 202 207
199 209 218
196 207 213
200 209 216
188 200 209
197 207 214
197 207 215
195 206 213
189 200 207
193 204 213
163 177 171
90 117 70
90 117 70
90 116 70
91 118 70
87 113 67
88 114 68
93 120 72
93 120 72
92 119 72
92 119 71
90 116 69
91 118 71
100 126 80
118 140 113
130 149 130
143 159 145
164 178 174
167 180 178
173 186 188
185 196 199
183 195 201
197 208 217
196 207 214
183 195 201
198 209 217
148 164 153
89 116 68
93 120 72
88 115 69
94 122 73
89 116 69
94 121 72
93 119 72
92 119 71
89 115 68
92 118 70
90 117 69
91 117 70
90 116 69
94 121 72
96 123 74
90 117 70
91 118 70
93 120 71
92 119 71
91 117 70
92 119 71
92 119 71
91 118 70
91 118 71
138 155 137
203 212 220
191 202 210
190 201 207
197 207 216
189 200 206
190 200 207
195 206 213
189 201 209
196 206 212
195 206 215
198 209 217
193 204 212
197 208 218
203 213 223
200 210 218
195 206 215
196 206 213
191 202 210
193 203 210
189 201 209
192 203 210
191 202 209
189 200 206
187 199 207
108 130 98
98 125 75
93 120 73
90 116 69
92 119 71
92 118 70
90 117 70
94 121 72
94 121 72
92 119 71
89 115 68
91 119 71
91 118 71
89 116 70
91 118 70
91 118 70
92 119 71
88 114 67
89 116 68
90 117 70
94 121 72
90 117 70
91 117 70
137 155 138
201 211 218
190 201 208
195 205 215
194 205 213
186 198 204
203 213 222
196 206 215
195 205 214
197 209 218
191 202 208
197 207 216
194 205 213
196 207 213
193 204 212
190 201 210
200 209 216
194 204 211
188 199 205
188 199 207
195 206 212
198 208 218
200 210 218
125 145 124
95 122 73
92 119 71
92 119 71
91 117 70
94 121 72
90 116 69
94 121 73
92 119 71
87 114 68
94 121 73
93 120 71
90 116 69
91 117 70
89 115 68
89 116 69
95 122 73
90 117 71
92 119 72
87 113 68
86 113 67
147 163 148
193 205 212
199 208 215
199 209 217
196 208 217
197 208 217
197 208 219
195 205 212
188 200 205
166 180 181
176 189 189
168 182 180
148 163 149
142 158 147
118 140 109
111 134 100
91 118 71
92 118 71
91 118 70
91 117 70
144 160 147
191 203 210
202 212 221
196 207 215
199 209 218
189 200 205
191 202 209
192 204 213
194 205 214
199 209 217
193 204 212
193 204 211
201 212 222
191 202 209
198 208 216
203 213 222
191 202 209
192 203 210
190 201 206
114 136 108
87 114 69
93 120 71
91 117 69
91 118 70
88 115 69
93 119 71
86 113 67
92 119 70
89 115 68
87 114 68
90 116 68
92 118 71
91 117 70
94 120 72
92 118 70
119 140 112
165 179 180
191 202 208
194 203 211
189 201 210
189 200 207
199 210 219
194 205 214
198 208 215
188 199 203
168 182 183
193 204 212
192 203 207
137 154 139
103 126 95
90 117 69
92 119 71
89 116 69
92 119 70
93 120 72
87 114 67
91 118 71
91 118 71
93 120 72
90 117 70
164 178 174
187 198 203
196 207 217
194 204 211
180 192 197
198 208 216
185 196 201
189 200 206
158 173 167
115 137 111
94 121 73
90 116 69
90 117 69
95 122 73
90 117 70
93 120 72
91 118 70
95 123 74
95 122 73
90 117 69
92 119 71
88 115 68
93 120 72
143 159 149
204 214 224
194 205 212
193 204 212
193 205 213
194 204 212
189 200 207
199 209 217
191 203 212
191 201 208
190 202 208
175 188 187
128 147 126
91 118 74
90 117 70
95 121 72
96 123 74
94 120 71
94 121 73
93 120 72
91 118 70
89 115 68
91 118 71
89 116 70
112 135 105
197 207 216
201 212 223
194 204 211
194 204 212
199 208 217
194 205 213
191 202 209
195 206 215
196 207 217
185 197 202
195 206 213
189 200 206
189 201 209
196 207 215
197 207 214
189 200 206
192 203 211
200 210 219
194 204 213
199 209 219
188 199 203
164 177 173
136 154 139
100 126 83
95 122 76
180 192 196
190 201 209
189 200 208
193 204 212
192 204 211
194 205 214
193 204 211
191 203 213
193 203 210
197 207 216
202 211 219
195 205 213
197 207 216
189 200 206
189 201 206
197 207 215
199 209 216
196 207 214
184 196 201
195 206 215
192 203 211
184 196 201
196 206 215
188 200 206
194 205 213
174 188 188
91 117 70
91 118 70
89 116 69
93 120 72
93 121 73
95 123 73
91 118 70
91 118 70
89 115 67
86 113 67
92 119 71
91 118 71
91 118 70
92 119 71
93 120 72
93 120 72
87 113 67
95 119 80
126 144 124
137 154 138
165 180 179
187 198 203
195 206 212
190 201 208
187 199 208
189 200 205
94 120 75
92 118 71
91 118 70
93 119 71
92 120 72
94 121 72
93 120 71
84 110 64
90 117 70
90 117 70
94 121 73
85 112 67
89 116 69
91 118 70
93 120 72
94 121 72
90 117 70
90 117 70
90 117 70
88 115 69
96 123 73
95 122 73
89 116 69
94 121 73
92 118 70
92 119 71
190 200 204
189 200 207
195 205 211
191 202 210
197 207 214
203 214 223
201 211 219
197 207 215
192 203 210
181 193 198
196 207 216
198 207 214
195 205 213
201 211 220
191 202 210
202 211 219
194 205 212
189 200 207
199 209 218
185 197 204
200 210 219
201 211 221
190 202 208
193 203 209
200 209 215
195 207 216
120 141 114
92 119 71
92 119 71
92 119 71
93 119 71
92 118 71
89 116 69
91 118 70
92 119 71
92 120 71
90 116 69
90 116 69
92 119 71
90 116 69
92 120 71
92 118 70
91 118 70
93 120 71
93 120 72
88 115 68
91 118 71
90 117 70
100 125 85
116 137 113
132 151 131
152 167 157
148 164 156
142 159 145
136 155 135
131 148 132
103 127 94
101 126 83
91 118 70
90 116 69
90 116 69
95 122 74
90 117 70
94 121 72
85 112 66
95 122 73
94 121 72
88 115 68
92 119 71
91 118 70
90 116 70
90 116 69
89 115 69
89 116 69
92 119 71
90 116 68
97 122 81
186 197 204
204 214 223
196 207 217
186 198 204
197 207 214
191 203 211
189 200 205
200 209 215
184 195 201
190 202 209
203 213 223
195 206 214
196 207 215
195 206 214
194 205 212
202 212 222
186 197 201
182 194 199
198 208 215
197 206 212
202 212 221
196 206 215
200 211 220
193 204 212
153 168 160
89 115 68
93 120 71
89 115 68
92 119 71
91 117 70
90 117 70
92 119 71
89 115 68
88 114 69
88 115 68
95 122 73
92 119 72
86 112 66
92 119 71
91 118 70
92 119 71
94 121 72
88 115 68
94 121 72
88 114 68
86 112 66
92 119 72
104 128 91
184 195 199
200 209 218
185 197 204
192 204 211
194 204 212
190 201 209
197 209 219
186 198 206
183 195 201
192 203 211
195 207 217
191 202 208
194 205 212
193 203 210
202 212 220
192 203 209
196 205 212
194 204 210
199 210 220
192 203 211
195 206 213
192 203 210
152 168 160
94 120 72
91 117 70
91 119 72
89 116 69
93 120 72
88 115 69
94 121 73
90 117 71
89 116 69
92 120 73
92 119 71
94 121 72
93 119 71
95 122 73
89 115 69
93 119 71
88 115 68
92 119 71
84 110 65
96 121 80
123 142 117
173 186 183
172 185 187
160 173 168
140 156 139
138 155 139
131 150 129
115 137 106
96 122 78
89 116 68
94 121 73
91 118 71
95 122 74
89 116 69
94 121 72
91 118 70
89 115 68
89 115 68
92 119 72
91 119 72
141 159 144
197 208 216
196 207 216
195 206 214
183 195 202
193 204 211
200 209 219
193 204 213
193 203 209
193 203 209
188 199 205
196 208 217
194 204 211
189 201 208
184 195 200
201 211 219
196 206 212
198 209 219
184 195 200
113 134 107
89 116 69
90 117 71
91 118 70
90 116 69
92 118 70
87 113 67
93 120 71
93 120 72
89 116 69
92 118 71
96 123 74
90 117 69
89 115 68
94 121 73
94 121 73
116 137 110
184 196 202
201 211 220
189 201 209
193 204 212
202 212 222
181 194 200
163 177 174
140 157 143
105 129 93
94 121 73
89 115 69
192 202 210
187 199 205
192 202 208
188 199 205
162 176 175
130 148 130
92 119 71
94 121 72
86 112 67
90 116 69
92 119 71
90 117 70
92 119 71
94 121 73
136 153 137
188 199 206
193 204 213
193 204 211
191 203 211
194 204 211
184 197 205
193 204 214
185 196 203
193 203 210
179 191 195
147 163 150
120 141 115
90 116 69
92 119 71
92 119 71
88 114 68
89 116 69
86 112 66
85 111 66
90 117 70
91 118 70
87 114 68
137 153 137
187 198 204
196 206 216
193 204 212
193 204 211
193 205 215
187 199 207
198 209 217
189 201 209
199 210 221
195 206 214
194 205 213
200 210 216
193 205 212
173 185 182
151 166 155
102 125 90
88 114 68
91 118 70
93 120 72
94 121 73
93 120 72
93 120 71
92 119 71
111 133 101
195 206 215
185 197 203
191 202 208
185 197 202
192 202 210
194 204 211
184 196 203
190 201 209
189 199 205
194 204 212
183 196 203
193 205 212
190 201 209
196 206 215
195 206 214
202 212 220
191 202 211
197 207 214
195 206 216
192 203 211
198 207 213
195 206 213
191 203 210
192 203 211
179 190 190
151 167 156
182 194 197
181 193 198
197 207 217
189 201 209
197 208 216
199 209 219
193 203 210
193 203 210
189 200 207
195 206 215
195 205 212
188 199 205
188 199 205
196 206 215
198 209 219
190 201 206
194 205 212
188 199 207
197 208 217
188 199 205
192 203 211
183 195 201
194 205 214
185 197 204
147 163 154
91 118 70
93 120 72
90 117 70
93 119 71
91 117 69
87 113 67
88 115 69
91 117 69
89 115 68
86 113 67
92 120 72
91 118 70
91 118 70
93 120 71
92 118 71
91 118 71
91 118 71
92 118 70
90 116 69
91 118 70
93 119 71
91 117 70
115 137 107
130 149 129
162 177 172
160 174 167
95 121 77
87 114 67
92 119 71
91 117 70
91 117 70
90 117 70
93 120 72
92 119 71
91 118 71
92 118 70
90 116 70
89 116 68
94 121 72
91 117 70
87 113 67
91 117 69
90 117 69
92 119 71
92 119 71
92 118 71
90 117 70
90 117 69
90 116 69
92 119 71
92 119 71
121 143 116
201 211 220
195 206 215
183 195 200
196 206 214
194 204 212
190 201 207
200 210 218
203 214 224
194 205 211
185 196 200
197 208 218
195 206 215
189 201 207
197 208 215
193 203 211
184 195 200
196 207 215
194 205 212
181 193 199
188 200 208
190 202 209
181 192 197
190 202 210
205 215 225
200 210 219
166 180 178
90 116 69
90 117 70
91 118 71
93 120 72
89 116 69
87 114 67
86 112 67
91 117 71
90 116 69
95 123 74
91 118 71
90 117 70
89 116 70
87 113 67
93 119 72
92 119 72
86 112 66
90 116 69
89 115 69
90 117 69
90 117 69
93 120 72
89 115 68
92 118 70
90 117 69
163 176 174
191 202 208
191 202 208
193 204 212
179 191 194
192 203 209
196 206 211
194 205 213
184 196 200
162 175 175
173 186 182
176 188 185
138 155 145
144 160 147
137 154 140
119 138 117
121 142 116
107 130 95
106 130 91
91 118 71
92 119 70
93 120 71
92 119 71
90 117 69
93 119 72
149 165 154
199 210 220
192 204 212
190 201 205
184 195 202
199 209 215
197 206 213
193 204 212
181 193 200
195 205 211
199 210 219
191 201 208
203 213 220
200 210 218
197 207 214
191 202 210
186 198 202
188 199 204
187 199 204
198 209 219
188 200 208
191 202 209
199 209 215
194 204 213
185 196 200
93 117 75
91 118 71
90 117 70
92 119 71
88 115 68
91 118 71
89 116 69
92 119 72
88 114 68
91 119 71
92 118 71
95 122 73
90 117 71
90 117 70
92 119 71
93 120 71
92 118 70
94 121 72
90 117 70
89 116 69
91 118 70
93 121 72
88 115 68
167 181 178
202 211 220
184 195 198
189 201 209
189 200 207
190 201 207
192 204 212
189 200 206
190 201 207
192 202 210
193 205 215
198 207 215
194 205 213
201 212 222
199 210 221
192 204 211
186 198 205
195 206 212
197 207 215
185 196 201
193 203 208
195 205 211
172 186 186
92 118 71
90 117 69
94 121 72
88 114 68
91 118 71
91 118 70
95 122 74
90 118 70
99 124 81
107 132 97
122 141 118
124 143 124
140 156 141
143 160 150
153 169 161
163 176 170
166 180 176
183 194 195
175 188 189
182 194 198
172 185 187
105 130 89
91 118 71
95 123 73
89 115 69
89 116 69
90 116 69
90 117 69
92 118 71
90 116 69
90 117 70
91 117 70
93 120 72
88 114 69
90 116 70
89 116 69
91 117 69
95 122 73
89 116 70
90 117 70
134 152 133
192 203 212
197 207 215
195 206 214
194 206 215
188 199 207
185 196 202
193 204 211
197 208 218
194 204 212
198 208 215
194 205 211
187 198 203
190 202 210
188 200 207
195 206 212
192 202 208
188 199 207
193 203 207
113 134 107
90 116 68
92 119 71
88 114 67
86 112 67
91 118 71
91 118 70
91 117 70
87 114 67
88 114 68
94 121 72
92 118 70
87 113 68
93 119 71
91 118 70
88 114 68
127 147 124
184 196 199
196 206 213
179 191 192
143 158 147
135 153 136
101 125 87
90 117 69
91 118 71
92 119 71
92 118 71
87 113 67
92 118 71
197 208 217
193 204 212
198 208 217
195 206 215
190 201 209
188 199 204
186 197 202
159 173 166
107 130 98
88 114 68
88 114 68
93 120 73
90 117 69
92 119 72
119 141 114
187 198 204
190 201 208
193 204 211
193 204 212
196 206 213
198 209 218
193 204 213
195 207 217
194 204 211
201 211 219
190 200 208
193 204 212
168 181 179
131 150 131
107 131 94
94 121 72
90 117 69
88 115 68
89 115 69
91 117 69
88 115 67
95 122 73
143 159 144
187 198 204
193 204 210
193 204 212
186 197 202
191 203 212
194 205 212
192 204 215
195 205 211
183 196 203
194 205 214
185 196 201
196 206 214
191 202 209
189 201 209
189 200 208
183 194 200
160 174 171
139 156 142
99 123 86
89 116 69
96 123 74
89 115 69
90 117 69
119 140 114
195 205 213
187 198 205
198 208 219
193 204 212
191 202 211
186 198 205
188 201 209
196 207 215
197 207 214
187 199 203
186 198 206
197 207 215
194 204 213
203 213 223
186 198 205
193 205 213
194 205 212
195 206 215
202 212 221
190 202 211
188 199 206
196 207 215
194 205 212
191 203 211
170 183 186
93 120 72
91 118 70
94 120 77
129 148 130
166 180 176
180 193 196
190 201 207
192 203 210
198 208 216
201 211 217
179 191 196
192 204 214
193 203 208
190 202 212
197 207 213
190 201 207
197 208 218
197 207 215
193 203 207
189 200 209
198 209 217
191 202 207
193 203 211
189 199 204
198 208 217
144 160 148
94 121 73
87 114 68
90 117 70
89 116 70
89 116 69
94 120 71
93 120 71
91 118 71
90 117 70
87 113 67
90 117 69
91 117 71
90 116 69
93 120 72
93 120 71
89 116 69
90 117 70
86 113 67
89 116 68
93 120 71
95 122 73
90 116 70
91 118 70
88 115 68
92 119 72
164 177 172
200 210 218
179 192 195
166 180 178
145 162 146
122 143 118
95 121 80
94 121 73
90 116 68
89 115 69
91 119 72
92 118 71
90 116 69
89 116 68
92 119 71
93 120 72
90 116 69
89 116 69
87 114 68
92 118 71
91 118 70
87 113 67
89 116 68
91 117 70
92 119 71
91 118 72
154 169 164
192 202 207
187 199 206
190 201 208
187 198 206
190 201 210
192 203 211
187 198 204
189 200 206
198 209 216
199 209 216
193 203 210
182 193 197
188 199 207
183 195 199
199 209 217
196 207 216
195 205 209
190 202 210
202 213 222
189 201 208
192 202 209
191 202 208
192 203 210
189 201 209
189 200 208
141 158 147
91 117 69
94 121 72
93 120 71
90 117 69
89 116 69
89 115 69
91 118 70
91 118 72
88 114 68
92 118 70
89 116 68
92 119 72
87 114 67
92 119 71
93 120 71
90 116 69
88 114 68
89 115 69
91 118 70
90 116 69
88 115 69
89 116 69
92 119 71
91 117 70
102 126 90
187 199 205
193 204 213
201 211 220
193 204 213
196 207 217
184 195 199
195 206 213
191 201 208
199 210 220
199 210 219
190 201 209
190 200 206
201 211 219
188 199 204
203 212 222
185 196 200
186 198 205
197 207 215
195 205 213
194 205 212
195 205 212
183 195 197
176 189 192
166 180 179
157 172 166
131 150 130
150 164 156
148 164 153
152 166 159
169 182 179
168 182 182
173 187 186
184 195 198
177 189 193
179 192 196
187 199 203
188 198 203
192 203 211
191 202 208
188 199 206
192 203 211
194 204 212
193 203 211
197 208 217
191 202 209
189 200 208
187 198 205
196 207 213
197 207 216
122 142 119
92 119 71
90 117 70
92 118 70
92 119 71
89 115 68
88 115 67
91 117 70
91 117 69
96 124 74
90 118 71
91 117 69
93 120 72
95 123 73
92 118 70
88 114 68
93 120 72
93 121 72
93 119 71
90 117 69
89 116 69
86 112 66
90 117 69
130 148 131
181 192 195
194 206 215
204 214 225
196 207 216
196 206 213
195 206 214
197 208 218
189 200 207
192 202 210
189 201 209
188 200 209
193 205 213
192 202 208
193 203 210
199 209 217
183 195 202
183 194 197
185 197 201
185 197 202
170 183 181
165 178 176
168 181 180
155 170 164
144 160 148
147 162 154
156 170 166
166 180 177
169 182 183
176 189 196
184 196 199
192 202 208
196 207 217
194 205 212
193 204 210
184 196 203
199 209 218
196 207 216
192 203 210
192 203 211
186 198 204
193 204 213
189 200 208
191 202 209
123 142 121
92 119 72
91 118 70
92 119 72
87 114 68
93 120 72
91 118 70
89 116 69
92 119 71
89 116 68
91 118 71
88 115 68
86 112 66
88 115 69
90 117 70
96 123 74
88 114 68
90 117 70
90 116 69
113 135 106
184 195 200
196 206 212
188 198 204
192 203 208
194 204 210
186 198 207
200 209 216
186 197 204
200 209 217
202 212 220
198 209 220
189 201 209
194 204 211
193 203 212
193 204 211
193 204 211
195 206 215
195 205 213
113 134 107
90 116 69
93 119 72
92 119 72
90 117 70
91 118 71
90 117 69
92 119 71
89 116 70
92 118 71
91 118 71
89 116 69
89 116 69
87 113 67
88 114 68
103 126 96
107 130 97
138 155 138
127 145 123
92 117 72
89 115 68
91 117 70
90 117 70
93 120 71
92 118 71
91 118 71
89 115 68
86 112 67
96 123 73
91 118 70
184 196 202
196 207 215
205 215 226
184 196 203
189 200 208
192 203 211
189 201 207
195 205 213
197 208 217
169 182 182
137 155 139
95 120 79
89 116 69
93 120 72
97 123 80
192 204 212
188 200 208
195 206 213
190 201 209
187 199 206
179 190 195
191 202 209
195 205 212
196 206 213
199 209 218
191 202 211
190 201 206
192 203 211
186 197 201
197 207 214
173 186 186
123 142 123
102 125 88
87 113 66
87 113 67
93 120 72
91 118 71
108 130 100
180 193 200
185 196 202
197 207 216
184 197 205
190 201 207
194 205 213
181 193 197
196 206 214
186 197 203
191 201 207
185 196 202
190 202 209
194 205 213
193 204 212
191 202 210
188 200 207
186 196 203
202 212 223
187 199 208
177 189 192
147 164 154
111 133 101
91 117 70
114 136 108
197 208 216
191 203 210
180 192 197
195 206 215
183 195 199
190 200 204
186 197 204
191 202 209
185 196 202
189 200 209
187 199 207
187 197 201
191 203 211
191 200 208
191 201 207
188 199 207
194 204 212
199 209 218
189 200 207
180 191 196
191 203 211
201 211 221
197 207 216
182 194 200
175 188 190
89 116 69
90 117 69
88 114 67
91 118 70
91 118 70
94 121 72
123 143 118
140 158 143
173 185 185
189 199 205
192 203 209
196 206 214
200 211 220
195 206 216
187 197 202
193 204 210
191 202 208
191 202 208
195 205 213
182 195 203
189 200 206
194 204 210
179 191 195
195 206 216
195 205 213
123 141 120
91 117 70
93 120 72
88 114 67
90 117 70
94 121 72
90 117 70
89 115 69
92 119 71
89 115 69
93 120 72
88 114 67
91 118 70
88 114 69
89 116 70
89 115 69
88 115 68
94 121 73
92 118 71
91 118 70
93 120 72
94 121 72
92 119 71
91 118 70
91 118 70
91 118 70
176 189 192
187 199 206
193 202 208
195 206 214
192 205 215
201 210 220
186 197 203
172 185 185
166 179 176
147 164 153
131 150 128
96 121 80
88 115 69
86 112 66
89 116 69
90 117 69
94 122 74
94 121 73
87 113 67
90 117 70
92 118 71
93 120 72
92 119 72
90 117 69
89 115 68
92 119 70
183 195 200
198 209 218
193 203 210
193 204 211
197 207 215
186 198 204
194 204 211
205 215 224
183 195 201
197 207 215
180 192 196
188 199 205
197 207 211
192 203 208
196 206 214
194 206 215
197 207 215
195 206 216
192 203 210
192 203 214
189 200 208
192 203 210
194 205 212
185 196 202
190 202 209
191 201 205
93 118 78
92 118 71
88 115 68
93 119 72
88 115 68
90 118 71
93 120 72
89 116 69
93 120 72
89 115 69
92 119 71
87 114 68
95 121 73
89 116 70
93 120 71
93 120 71
90 117 69
93 120 72
91 118 70
91 117 70
94 121 72
89 116 69
94 121 72
92 118 70
92 119 71
148 164 154
192 203 212
193 204 210
194 205 215
186 197 202
193 204 212
190 201 209
203 212 221
186 198 203
194 205 213
193 204 212
200 211 219
193 204 211
184 195 201
191 202 209
194 206 214
193 203 210
194 205 212
189 200 208
199 209 218
196 206 214
193 203 211
196 206 212
187 197 201
204 214 224
141 158 144
85 112 66
91 118 70
93 120 72
92 118 71
94 121 72
87 114 68
88 113 67
92 119 71
88 115 69
90 117 70
89 115 68
88 115 69
94 121 72
106 130 91
101 124 90
117 138 109
121 141 115
113 133 106
130 149 127
131 150 130
134 153 133
133 150 132
133 151 136
158 172 165
164 178 175
161 175 170
158 173 165
153 169 163
145 162 149
150 165 160
158 172 166
142 159 145
151 167 157
151 166 157
139 157 145
148 164 156
143 160 147
141 157 144
155 169 158
162 176 171
151 168 160
146 163 151
160 174 168
143 160 144
150 166 156
157 171 163
137 155 141
136 154 138
136 153 143
140 158 142
143 161 146
138 155 142
133 151 135
129 146 129
126 145 125
117 138 111
123 143 121
115 135 107
112 134 104
107 129 99
94 119 80
90 116 71
90 117 71
91 117 70
90 117 70
86 112 66
88 114 68
86 113 67
94 120 72
172 186 184
193 203 210
194 205 213
188 200 207
177 189 194
190 201 208
188 199 206
194 205 213
202 212 219
180 191 196
187 198 204
199 208 214
188 199 206
191 202 210
199 210 220
187 199 206
195 206 214
193 203 212
190 200 206
190 201 208
186 197 201
113 133 107
89 116 69
92 119 71
87 114 67
88 115 69
90 116 69
90 117 70
88 115 68
92 119 71
89 115 68
89 115 69
88 115 69
94 122 73
89 116 69
93 120 71
87 114 68
88 114 68
91 118 70
88 114 68
124 143 120
177 190 193
195 205 214
196 206 213
193 203 210
196 206 213
193 203 209
205 215 223
190 201 206
189 200 206
180 192 198
192 202 208
188 199 204
194 204 212
193 203 210
195 206 214
199 209 218
188 201 210
184 195 199
119 139 117
90 116 69
90 117 70
91 118 70
97 124 75
93 120 72
93 120 73
93 120 71
90 117 70
92 119 71
90 116 69
101 124 88
122 143 118
152 167 163
176 188 192
193 204 211
169 182 179
93 119 76
87 113 68
89 115 68
93 120 71
86 112 66
90 116 69
92 118 70
88 115 69
93 120 72
87 114 68
88 114 68
91 117 69
90 117 70
88 115 69
182 194 202
191 202 210
188 200 207
191 201 205
193 204 212
194 205 211
197 208 218
196 207 215
196 207 214
193 204 212
195 206 213
184 196 202
154 168 161
126 145 126
93 119 73
167 180 178
191 202 208
190 201 210
187 198 205
182 193 198
191 202 209
186 197 203
186 196 202
189 200 208
198 209 218
187 199 206
192 203 210
191 203 211
197 208 217
194 205 213
185 197 203
198 208 215
181 192 196
157 170 164
135 152 137
97 123 85
94 121 72
117 137 108
188 201 209
187 198 205
191 202 209
195 206 214
190 200 205
205 214 224
188 200 208
192 203 209
187 199 205
193 203 209
194 205 212
185 197 202
195 206 214
195 205 214
192 201 208
192 203 210
195 205 211
196 208 216
190 201 206
187 199 207
190 202 212
189 201 210
176 190 192
149 165 154
178 190 191
188 199 204
187 199 206
196 207 215
195 205 213
200 210 219
200 211 220
190 201 207
193 204 214
193 204 212
195 205 212
191 201 208
186 197 200
195 205 213
191 203 212
190 200 206
193 204 212
193 203 209
195 205 210
193 204 210
194 205 214
189 200 206
197 207 216
192 202 208
168 181 177
88 114 67
88 115 69
90 117 69
89 116 69
93 120 72
92 119 71
86 112 67
85 111 66
91 118 70
92 118 73
114 137 107
157 172 164
167 180 181
179 192 195
191 201 209
187 198 203
196 207 214
195 207 218
183 196 201
190 201 207
193 204 212
195 206 214
202 212 221
189 201 208
189 201 207
116 137 110
91 117 71
91 118 72
90 117 70
84 110 66
86 112 67
96 123 75
90 117 70
90 117 70
86 112 67
89 116 69
92 119 71
89 115 68
89 116 70
88 114 68
91 118 70
87 114 68
90 117 70
86 112 67
92 119 71
89 115 68
89 115 69
89 116 69
91 118 71
89 116 69
109 132 99
205 215 226
196 206 214
190 202 210
199 209 218
190 201 207
191 202 211
197 207 215
190 202 209
187 198 203
191 202 208
191 202 208
195 205 213
185 197 198
162 176 170
140 156 143
132 150 132
105 129 96
89 116 70
85 111 65
91 118 70
90 117 71
90 117 69
86 113 67
92 118 71
94 122 73
117 139 112
187 199 206
198 209 217
195 205 212
189 201 210
187 198 204
190 202 212
192 203 212
197 207 216
206 216 226
185 197 205
192 203 211
184 196 203
201 211 221
197 207 215
196 207 214
191 202 210
202 212 219
192 203 210
200 210 220
195 206 215
195 206 215
191 202 208
191 201 209
192 204 212
205 215 225
162 176 174
93 120 72
87 114 68
92 119 71
92 119 72
88 114 68
92 119 71
95 122 74
91 118 70
94 121 73
92 119 71
90 116 69
90 117 70
94 121 73
85 111 66
92 119 71
88 114 67
94 120 72
88 115 68
88 114 67
94 122 74
91 118 70
89 117 70
89 116 69
85 111 65
106 128 97
183 195 201
186 196 200
197 207 215
190 201 209
197 207 215
196 207 216
182 194 199
193 204 210
191 202 209
188 199 208
189 200 207
196 207 216
197 208 217
189 200 207
198 208 216
188 200 207
191 202 209
191 202 208
190 201 208
192 202 209
196 205 211
185 197 204
190 201 208
189 201 208
190 201 205
93 119 76
91 117 70
86 112 66
90 117 69
89 115 68
87 114 68
91 118 70
86 112 67
92 119 71
91 118 71
93 120 71
90 117 70
92 118 70
90 116 69
91 117 70
88 115 68
93 119 71
90 117 70
91 118 70
93 120 72
91 118 70
94 121 72
89 116 69
108 130 99
175 188 191
198 208 217
189 200 206
194 206 214
188 200 207
197 207 214
192 204 212
184 196 203
183 195 199
185 195 199
193 203 211
185 196 201
193 203 210
195 206 214
192 203 211
197 207 213
198 209 215
190 200 207
196 205 211
196 207 215
198 208 216
186 197 202
184 196 203
120 140 116
93 120 71
89 116 69
91 119 72
88 114 68
91 118 70
89 115 69
94 120 72
88 114 68
91 118 71
93 121 72
91 118 70
92 118 71
91 117 70
93 120 72
92 119 71
88 115 69
91 117 70
90 116 70
93 120 72
94 121 73
90 117 70
163 176 173
189 200 207
188 200 206
193 203 210
180 193 197
198 208 217
196 206 214
192 204 211
190 200 206
196 207 217
196 207 215
197 207 215
193 204 213
194 204 210
197 207 214
191 201 210
192 203 212
196 207 214
186 198 203
187 198 205
188 200 207
144 160 148
89 116 68
91 118 70
89 115 68
88 115 69
88 114 67
87 113 67
91 118 71
92 119 71
90 117 70
88 115 68
91 118 70
91 118 70
93 121 73
93 120 72
91 118 70
90 117 70
89 116 69
90 116 68
111 132 104
180 192 197
186 196 203
185 197 204
195 206 213
191 202 207
195 205 211
189 200 206
193 204 211
191 202 209
190 201 208
184 195 201
195 206 216
195 205 213
193 204 212
193 204 212
199 209 218
198 209 216
173 186 189
121 141 115
93 120 72
90 118 71
90 116 70
89 116 70
90 117 70
91 118 70
102 124 90
131 150 129
142 159 146
167 180 176
180 193 198
194 205 211
193 204 212
198 207 214
188 200 208
152 167 158
90 116 69
95 122 74
92 119 71
89 115 68
85 112 66
90 116 69
89 116 69
89 116 69
94 121 72
91 117 70
90 117 70
84 110 66
93 120 72
92 120 71
163 176 171
191 202 212
185 196 202
189 201 209
198 209 218
179 191 195
181 194 201
195 206 212
183 195 200
192 203 211
193 203 209
190 201 206
188 199 206
191 201 208
188 199 205
181 193 197
153 169 164
172 185 187
187 198 205
196 207 214
181 193 198
191 202 210
192 203 211
191 202 209
193 204 213
187 199 206
200 210 218
187 199 205
187 197 203
196 206 215
190 201 211
195 206 214
189 201 210
190 200 207
191 202 211
193 204 211
192 203 210
169 182 178
125 145 124
194 204 210
181 193 198
195 206 215
191 202 209
193 204 212
198 208 214
191 202 210
193 203 208
191 201 208
191 202 210
197 208 217
183 194 200
189 200 205
184 196 202
199 209 219
191 203 213
188 199 205
196 206 215
190 201 208
189 200 206
199 210 221
189 200 206
192 203 209
181 193 195
94 122 73
115 136 108
150 167 157
175 188 187
196 206 212
194 204 210
202 212 221
192 203 211
190 201 209
186 197 204
192 202 210
193 204 210
194 205 213
195 206 215
191 203 211
190 201 209
184 197 203
191 202 209
192 203 209
197 206 213
193 204 211
194 204 210
195 207 216
194 205 212
151 167 161
89 115 69
90 116 68
90 116 69
87 113 67
89 116 69
94 121 73
88 114 68
90 116 69
92 119 71
92 119 71
92 118 71
89 115 69
90 117 69
93 119 74
127 145 127
162 177 173
179 191 193
194 206 213
195 206 213
194 205 214
190 201 208
186 198 204
195 205 214
195 206 213
184 195 198
87 114 67
91 118 71
87 114 68
90 116 69
91 118 71
92 119 71
94 121 73
91 118 71
85 110 65
92 119 70
89 116 69
92 119 71
91 117 69
90 117 69
92 118 71
85 111 65
91 118 71
91 117 70
88 114 67
92 119 71
91 118 71
89 115 69
92 118 70
90 117 70
89 116 70
123 144 120
188 200 207
190 201 209
190 202 210
196 206 215
196 206 212
192 204 213
202 212 222
190 201 206
192 203 210
191 201 208
177 189 194
191 202 210
187 198 204
188 199 205
184 196 202
194 204 210
197 208 217
177 189 190
177 190 188
144 161 151
145 161 149
112 133 105
91 117 72
91 118 70
93 120 72
153 168 159
192 203 211
197 207 215
191 201 206
196 206 212
196 206 214
190 202 210
188 199 205
193 204 211
191 202 211
194 204 211
202 212 220
198 208 218
198 208 216
196 206 213
195 205 212
200 210 219
197 206 213
197 207 215
194 205 212
197 208 216
193 204 212
193 204 212
196 207 214
191 202 210
186 198 204
118 139 111
90 116 69
90 117 70
89 115 68
91 118 71
90 117 70
88 114 67
89 116 70
91 117 70
88 114 68
89 115 68
91 118 70
92 119 71
90 117 70
91 118 71
93 120 72
93 120 71
93 120 72
91 117 70
90 116 68
88 114 67
91 118 71
89 116 69
92 118 70
92 119 71
154 170 159
190 202 210
188 199 206
188 198 205
200 210 218
196 206 213
190 201 208
194 204 211
190 202 212
184 196 203
192 203 212
186 197 202
186 198 205
188 198 204
189 200 205
200 210 220
188 200 206
191 201 207
190 201 209
181 193 199
189 200 207
195 205 212
194 204 212
200 210 218
193 203 210
125 146 126
89 115 68
92 119 71
87 113 67
91 117 69
90 117 69
91 118 70
92 119 71
89 115 68
92 118 71
90 117 70
92 119 71
88 114 68
90 116 69
89 115 69
92 120 72
91 117 71
87 114 68
89 116 68
89 115 68
90 117 70
89 115 68
87 113 67
97 124 75
161 175 174
191 201 207
195 205 211
190 200 207
198 207 214
198 208 216
188 199 206
189 199 204
195 206 213
189 201 209
189 200 206
184 195 199
181 193 199
190 201 209
191 201 208
194 205 214
194 205 212
199 209 218
194 204 214
192 203 212
190 202 210
206 215 223
188 200 206
154 170 164
88 114 68
91 117 70
91 118 70
90 117 70
90 117 69
89 116 69
88 114 68
90 117 70
94 121 73
91 118 70
87 114 68
90 116 68
89 115 68
94 121 73
91 118 71
90 116 69
87 114 68
89 115 69
92 119 71
85 111 66
91 117 69
131 151 133
189 199 205
190 201 209
195 207 218
188 199 205
193 204 211
188 199 206
193 205 214
197 207 214
188 200 207
195 205 212
198 208 216
196 206 212
191 202 209
192 204 212
190 201 206
195 205 213
187 198 205
193 205 213
193 203 208
190 201 207
154 169 160
89 114 68
88 114 68
90 116 69
93 120 71
87 113 67
90 117 70
89 115 69
90 117 70
92 118 70
88 115 68
91 119 71
90 117 69
87 114 68
91 118 70
92 118 71
93 120 71
88 114 67
90 117 70
97 122 82
181 193 196
191 202 208
190 201 206
182 194 201
194 205 212
184 196 205
190 202 208
194 205 213
194 205 211
194 206 216
191 201 208
190 201 208
190 201 207
193 204 212
201 212 222
186 197 201
193 203 209
183 194 200
117 138 111
86 112 66
86 112 66
111 132 104
128 147 129
148 163 154
161 175 172
184 195 199
188 200 208
188 199 204
185 196 201
178 190 193
191 203 212
196 207 216
192 203 210
186 197 202
155 170 163
91 118 71
86 112 66
87 113 68
89 115 69
92 119 72
90 117 70
90 116 68
93 120 72
89 115 68
85 112 67
92 119 71
86 113 67
91 118 70
101 124 90
177 189 191
197 207 216
107 131 96
135 153 137
175 188 189
187 198 204
190 202 209
190 202 211
183 194 201
179 191 197
190 201 207
189 200 208
196 207 215
191 201 209
185 196 201
193 204 212
179 191 197
158 172 166
93 120 71
126 146 120
161 175 171
182 193 196
193 203 211
191 202 209
191 202 209
190 201 207
192 203 209
185 196 202
197 207 215
189 200 207
185 196 199
194 205 212
192 203 211
192 203 213
188 198 204
189 199 206
192 203 210
194 204 212
188 199 206
200 209 217
110 132 102
138 155 141
168 181 180
191 202 208
194 204 212
189 201 210
196 207 215
191 202 209
188 199 206
186 198 205
193 204 213
190 201 206
188 198 203
188 199 206
190 201 207
190 200 205
187 199 206
195 204 212
193 204 211
201 211 219
190 201 208
187 199 205
193 204 213
181 194 197
90 116 69
91 119 71
93 119 71
92 119 72
101 125 87
140 157 140
147 163 150
169 181 181
187 199 205
196 207 215
194 205 212
191 201 207
195 206 212
187 198 203
195 206 213
196 206 213
198 208 216
195 206 213
186 198 205
198 208 216
193 204 215
193 204 212
190 201 207
188 200 206
150 166 155
92 119 71
87 114 68
92 119 71
91 118 71
92 119 71
93 120 72
91 118 70
92 118 71
90 117 70
87 113 67
91 118 70
91 117 70
85 111 66
91 118 70
84 110 64
92 119 71
90 117 70
97 122 80
127 147 123
166 179 176
160 174 171
188 199 207
189 200 208
193 204 212
178 190 192
86 113 67
88 114 68
89 115 69
88 115 68
89 115 68
89 116 70
91 118 71
93 120 72
91 117 69
93 120 72
90 117 70
91 118 70
88 114 67
88 114 68
91 118 70
88 114 68
89 114 68
93 120 72
89 115 69
91 117 70
90 116 69
87 114 67
90 117 69
93 119 71
93 120 71
168 181 180
195 205 212
196 206 214
198 208 217
190 201 209
198 208 216
189 200 207
186 196 204
193 204 211
196 207 216
199 209 218
191 202 211
187 199 207
187 198 203
199 209 217
190 202 209
191 201 207
198 208 217
200 210 219
192 203 211
195 205 214
195 206 215
197 208 218
184 196 201
181 193 198
174 186 185
138 156 141
163 177 174
181 192 194
192 203 210
192 203 210
197 207 216
188 199 205
190 201 207
196 207 215
192 203 211
189 200 209
184 195 200
191 202 211
192 203 212
193 204 213
186 197 202
200 210 219
193 203 211
195 205 214
197 207 217
189 200 205
197 207 215
195 205 213
188 200 206
201 211 218
174 187 189
89 115 68
89 116 69
91 118 71
88 115 68
92 119 71
88 115 69
89 116 70
93 120 72
88 115 68
89 115 69
91 118 71
93 121 73
88 115 68
88 115 68
91 118 71
84 110 65
90 117 70
95 123 74
91 118 71
92 119 71
87 113 67
92 119 71
88 114 68
89 116 68
106 129 95
187 198 202
195 206 215
182 194 200
187 198 202
200 210 217
190 200 206
185 196 201
196 207 217
199 210 219
193 203 210
189 201 209
190 201 207
192 204 212
189 201 208
194 204 212
189 200 205
190 201 206
189 200 208
189 202 210
182 194 199
188 200 206
190 200 206
193 204 210
195 206 215
178 189 190
90 116 70
94 121 73
88 113 67
86 113 67
92 119 71
89 116 70
90 117 70
93 119 72
93 120 72
90 117 70
92 119 71
91 117 69
90 117 70
89 115 68
89 116 70
93 119 72
86 112 67
86 113 67
91 117 70
92 118 71
94 122 73
89 116 69
89 115 68
123 141 122
198 208 215
199 209 218
198 208 214
189 200 207
182 194 201
191 202 209
189 201 209
183 194 199
197 208 215
191 202 210
180 192 197
191 203 210
193 204 211
182 194 203
193 204 213
182 194 200
192 203 211
185 197 203
177 189 192
194 205 213
202 211 219
188 199 206
169 182 182
92 119 74
89 116 69
93 120 73
89 116 70
91 117 70
92 119 71
92 119 72
89 115 68
91 118 70
92 118 71
90 117 70
89 116 69
91 118 70
86 112 66
94 121 73
93 120 72
90 116 69
89 116 69
89 116 69
93 120 72
83 109 64
120 142 114
189 200 206
197 207 214
196 206 212
191 202 208
196 207 213
184 196 201
193 204 214
193 203 209
193 204 211
193 204 212
190 200 207
189 199 206
189 200 208
182 195 201
181 193 197
187 198 206
184 196 202
196 207 215
184 196 204
190 202 210
166 180 179
85 110 68
87 114 68
83 110 65
88 114 68
92 119 72
91 118 71
90 117 70
88 114 67
92 119 71
88 114 69
91 118 71
90 117 69
89 116 69
90 116 69
85 111 65
90 116 69
93 120 72
91 118 70
93 118 76
172 186 188
186 197 204
195 205 215
181 192 198
195 206 214
188 199 205
190 200 207
189 200 207
181 193 197
195 206 215
194 204 212
190 201 208
193 204 212
196 206 215
193 203 212
196 208 217
193 205 214
180 192 196
156 170 162
156 171 165
162 177 177
191 202 209
192 203 211
190 201 207
178 190 194
194 205 213
194 204 212
194 204 211
192 203 210
198 209 218
194 205 214
195 205 210
192 202 209
187 198 202
149 164 154
89 116 69
90 117 69
87 113 68
88 114 67
90 116 70
91 118 70
89 116 70
91 118 70
91 118 70
89 116 70
87 114 68
93 120 72
88 114 68
109 132 97
177 189 192
186 197 203
179 191 195
173 185 188
169 182 184
167 181 181
179 191 194
166 180 177
147 163 153
149 165 155
156 170 165
172 184 186
174 186 187
172 184 185
183 195 200
187 198 203
188 199 205
175 187 191
177 189 190
91 118 70
88 114 68
88 114 68
88 114 70
144 159 146
157 171 167
174 187 190
191 202 210
188 200 207
191 202 210
189 200 208
203 214 224
190 201 210
190 201 206
187 198 203
195 207 215
187 198 206
190 202 209
192 202 211
190 201 209
189 201 208
186 197 204
117 138 112
89 116 70
87 114 68
92 116 77
133 151 137
168 182 183
195 205 212
178 190 197
198 208 217
189 199 204
198 208 216
190 201 209
182 194 199
193 204 213
188 199 205
193 205 214
189 200 206
186 198 205
185 197 204
191 201 207
188 199 205
194 206 215
187 198 204
165 179 177
91 118 70
92 119 71
86 113 67
89 115 68
92 119 71
87 114 68
91 118 70
90 117 69
128 147 128
143 159 149
186 197 200
189 200 206
197 208 216
194 206 216
190 201 209
183 195 199
188 199 205
193 203 210
183 194 199
195 206 217
189 200 207
186 198 203
197 207 215
183 194 199
133 151 133
90 117 70
90 117 70
89 116 69
90 117 69
94 121 73
88 114 68
91 118 70
90 117 70
87 114 67
90 117 70
92 119 71
92 119 71
92 119 71
92 118 70
91 118 71
94 121 73
87 113 67
89 115 68
89 116 69
89 115 69
91 118 70
96 122 79
125 144 124
154 170 162
142 159 150
95 121 80
94 121 73
94 121 73
92 119 72
88 115 68
88 114 68
89 115 69
88 114 68
89 116 68
90 116 69
93 119 71
88 115 68
86 112 66
90 116 69
88 115 68
89 115 68
89 116 69
94 121 73
90 117 70
91 117 70
87 113 67
90 117 69
86 111 65
92 119 71
92 119 71
172 185 186
182 193 197
184 196 204
192 203 209
185 196 202
194 204 212
192 203 213
205 213 220
191 202 209
196 206 215
186 197 204
193 204 212
193 204 211
190 201 208
193 204 211
194 204 212
207 217 226
192 202 207
189 201 208
195 205 213
195 205 211
196 207 215
197 208 216
192 203 210
200 210 220
183 194 196
89 115 69
89 116 70
93 121 72
87 113 70
116 138 107
135 152 135
155 170 163
170 183 181
168 182 181
191 202 210
191 202 210
196 206 213
191 202 209
190 200 205
185 196 202
193 204 213
190 200 206
192 203 210
194 206 215
190 201 209
197 207 214
195 205 210
188 200 207
193 204 211
195 205 211
125 145 117
91 117 70
86 112 67
92 119 71
94 120 72
89 116 68
90 117 70
86 113 69
91 118 71
90 117 70
93 120 72
88 115 69
88 114 68
91 118 71
91 117 70
90 116 69
89 115 68
88 115 69
91 118 70
88 115 69
85 111 65
88 114 67
85 111 66
90 117 70
95 122 73
154 169 160
193 204 213
196 205 213
184 196 202
189 200 207
186 197 201
189 200 206
196 207 217
193 204 210
193 204 212
192 202 211
188 200 208
190 201 208
192 203 211
179 191 198
189 201 209
187 198 205
191 202 210
198 208 216
189 200 206
186 198 206
179 191 196
194 205 212
179 190 194
188 200 206
124 144 120
91 118 70
93 120 72
90 116 69
91 118 71
89 116 68
93 120 73
87 113 67
90 116 68
91 118 70
94 121 72
90 116 69
90 117 70
89 115 69
88 114 67
88 114 68
92 119 71
88 115 68
91 118 70
92 119 72
91 118 70
91 117 71
95 122 74
94 118 80
186 197 202
200 210 219
189 201 208
190 200 206
190 201 207
199 208 216
187 198 204
189 200 207
196 207 216
187 198 206
186 198 205
198 208 216
186 197 203
188 199 208
195 206 215
196 206 214
192 203 211
189 201 209
195 205 210
187 199 207
192 203 209
189 200 208
181 193 199
105 129 93
94 120 72
92 118 71
91 118 70
89 116 69
87 113 67
90 116 69
88 115 69
91 118 71
86 113 67
89 115 69
92 119 72
88 114 67
89 115 68
95 121 72
90 117 70
89 115 69
88 115 69
89 116 70
93 120 71
90 117 70
103 127 91
187 198 203
193 204 213
196 207 215
194 204 211
182 194 200
189 200 206
184 196 203
185 196 203
193 205 213
191 202 209
188 200 208
200 211 220
184 195 201
187 198 204
195 206 213
190 202 210
195 205 214
184 197 204
187 198 204
193 204 212
174 187 187
95 122 78
92 119 71
89 116 69
91 118 70
90 117 70
89 116 69
89 115 69
91 118 70
92 119 70
94 121 72
90 116 69
91 118 70
87 114 68
86 112 66
93 120 72
88 114 68
91 118 70
90 117 69
96 121 80
172 186 188
185 196 200
191 201 205
188 199 203
186 198 203
188 200 206
181 192 197
199 209 217
188 199 206
192 203 209
192 204 213
188 199 206
184 195 198
162 176 172
150 166 158
136 153 139
103 127 94
103 126 94
181 194 198
186 197 203
182 194 200
195 205 212
187 198 206
198 209 217
190 202 211
185 197 203
192 202 210
190 202 209
187 198 205
183 195 201
193 205 213
195 206 214
198 208 216
190 201 208
130 148 132
88 115 68
87 114 67
88 114 67
92 119 72
89 115 71
96 120 84
112 134 105
119 139 116
124 145 123
129 147 130
134 151 138
148 164 156
163 178 174
131 149 132
156 171 167
179 191 193
188 199 205
184 195 201
199 210 221
188 199 206
187 198 206
189 200 207
196 206 214
191 202 209
159 172 168
117 136 113
89 115 71
89 115 69
92 118 70
87 114 68
91 117 71
90 117 69
96 120 83
105 128 94
188 199 204
162 176 172
164 177 177
171 184 183
158 173 167
147 162 151
151 167 159
181 193 199
188 199 204
171 185 183
169 182 182
178 191 192
179 191 196
188 199 205
174 186 189
194 204 210
189 201 208
198 208 216
192 203 211
185 196 202
198 208 216
188 200 205
132 149 131
91 117 70
88 114 68
88 114 68
89 116 69
90 116 69
88 113 73
140 157 146
159 173 168
191 201 208
188 200 209
181 193 196
193 204 211
189 200 208
180 191 196
180 192 197
190 202 209
197 206 211
191 203 211
189 201 206
187 199 205
191 202 209
190 201 208
173 185 185
90 117 70
92 119 71
92 118 71
89 116 69
87 113 67
91 118 70
91 117 70
89 117 71
90 117 70
91 118 70
92 118 71
93 119 74
113 135 105
159 173 169
186 198 204
196 207 215
184 195 200
187 199 207
189 200 207
177 188 192
190 201 210
190 202 210
192 202 208
194 205 215
122 142 119
93 121 73
92 119 72
88 115 69
89 116 69
89 115 68
90 116 69
91 118 70
87 113 67
86 113 66
92 119 71
91 117 70
95 122 73
89 115 69
89 115 69
87 113 67
89 116 69
92 119 71
93 120 73
89 115 69
89 115 69
89 116 69
95 122 73
91 118 70
88 114 68
158 173 170
189 200 207
161 175 175
167 182 180
126 146 124
101 125 87
87 113 67
89 116 69
91 118 70
87 113 67
90 117 70
92 119 70
89 116 69
92 119 71
90 117 69
89 115 68
91 118 70
89 116 69
88 115 68
90 117 70
89 116 69
93 120 72
85 111 65
94 121 72
93 120 72
103 125 90
198 208 217
195 205 210
191 202 208
193 204 214
197 207 215
189 201 209
194 205 212
184 196 204
189 201 208
188 198 205
198 209 218
198 208 217
186 197 203
191 202 210
187 198 205
202 212 223
191 202 209
192 202 211
193 204 211
179 190 195
192 203 210
196 207 214
191 202 207
190 201 208
190 201 209
141 158 147
87 113 67
89 115 68
87 113 67
89 116 68
89 115 68
92 119 71
92 119 71
90 117 70
90 117 69
89 115 69
115 136 109
128 146 127
140 158 143
156 172 167
173 187 190
193 204 212
193 204 210
193 204 210
176 188 193
187 198 204
195 205 213
183 194 199
203 212 220
191 202 208
174 187 191
93 119 74
89 116 69
91 117 69
90 117 70
97 124 75
93 120 72
86 112 66
88 113 67
92 119 71
90 117 70
90 117 70
93 120 72
92 119 71
91 117 70
89 115 68
87 113 67
86 112 66
89 115 69
91 117 70
91 117 70
91 118 71
91 118 70
93 119 71
86 112 66
102 126 90
187 198 203
193 205 213
194 205 213
182 194 199
188 200 208
185 196 202
192 203 211
192 204 212
191 202 211
202 212 220
198 208 216
185 196 202
182 194 201
192 204 212
196 206 214
195 205 210
186 198 205
192 203 212
190 201 208
183 195 202
195 206 216
188 200 208
189 200 205
192 203 211
151 166 158
85 111 65
88 114 68
91 118 71
91 118 70
89 116 70
89 116 68
92 119 72
88 115 68
87 113 68
90 116 69
90 116 69
88 115 69
89 116 70
90 117 70
92 119 70
91 118 70
92 119 71
88 114 68
93 119 71
89 115 68
90 117 70
92 118 71
91 118 71
162 175 171
198 208 216
194 205 212
191 202 211
185 197 202
195 207 218
199 210 218
190 202 210
194 205 213
196 206 216
191 201 207
182 194 199
189 201 207
190 201 209
194 205 213
191 202 209
190 201 207
190 201 210
192 203 210
182 193 197
186 197 204
182 194 198
195 205 212
142 159 145
86 113 67
91 117 70
89 115 68
88 115 68
92 119 71
89 115 68
87 113 67
86 113 67
91 117 70
91 118 71
89 116 69
90 117 69
90 116 69
89 115 68
85 111 65
92 118 70
90 117 71
88 114 68
92 119 71
88 115 68
91 117 72
165 178 176
188 199 203
190 201 207
192 202 208
192 204 213
180 192 196
192 202 208
195 206 216
199 210 220
185 196 201
195 206 215
196 206 214
190 201 210
188 199 207
195 205 211
194 205 212
193 203 211
187 198 204
199 210 219
184 196 203
176 189 193
98 122 82
92 119 71
91 118 71
89 116 70
90 118 70
88 115 68
92 119 71
90 117 69
88 115 69
88 114 67
86 111 66
90 117 70
92 120 72
91 118 70
91 118 70
88 115 69
90 116 69
89 116 69
100 125 87
172 185 188
193 202 209
192 203 212
190 202 210
192 204 211
195 205 214
195 205 213
178 191 191
175 187 184
143 159 149
128 147 129
116 137 110
95 121 76
90 117 70
88 115 68
84 110 65
88 114 68
122 143 114
179 191 197
189 201 209
196 206 215
186 198 206
185 197 203
181 192 197
178 190 194
177 190 193
172 185 186
169 182 182
168 182 180
158 171 167
154 167 163
139 157 142
146 162 153
147 162 152
176 188 192
170 184 184
170 183 186
181 193 197
185 197 202
181 192 197
195 205 212
188 199 204
191 202 209
198 209 218
193 204 213
184 195 199
171 184 184
142 159 150
150 166 160
188 200 206
194 205 214
185 197 202
191 202 210
184 196 201
186 198 204
182 194 201
190 201 209
183 194 201
189 200 206
185 196 204
194 204 213
186 197 205
183 194 197
145 161 150
114 133 111
86 112 66
88 114 68
83 109 64
86 112 67
89 115 69
170 183 183
196 207 214
196 206 213
184 195 201
195 206 213
186 197 204
188 199 204
192 203 210
183 194 201
179 191 196
155 170 164
119 138 118
91 118 71
89 116 69
87 113 68
88 114 68
98 121 84
104 127 95
114 135 107
112 133 107
121 141 119
124 144 123
144 160 148
152 168 162
146 162 152
145 162 150
138 155 143
141 158 145
133 152 132
130 148 132
130 148 132
133 153 132
167 180 179
170 183 184
187 198 205
184 196 201
189 200 207
189 200 208
191 201 208
189 199 205
194 205 213
188 200 207
186 197 204
191 203 210
188 199 207
177 189 191
91 118 71
92 119 71
93 119 71
90 116 69
87 113 68
90 116 69
90 117 70
87 114 68
92 119 71
87 114 68
90 116 70
91 117 70
90 117 70
88 115 69
95 121 77
115 136 110
157 172 164
170 184 187
187 199 203
179 191 197
187 197 203
193 203 211
187 198 202
189 200 208
127 146 126
91 117 70
91 118 71
90 117 70
89 115 68
93 120 72
90 117 70
88 114 67
89 116 68
88 114 67
91 118 71
91 118 70
84 110 65
87 113 67
90 117 70
87 114 68
86 112 66
90 117 70
90 117 70
90 116 69
87 114 68
91 118 70
86 113 68
91 117 69
92 118 71
185 196 200
185 196 202
185 197 204
189 201 208
189 200 207
191 202 210
185 196 200
162 176 172
148 164 153
119 139 118
95 119 79
91 117 70
86 112 67
89 116 68
86 112 66
88 115 68
95 122 73
89 115 69
89 116 70
91 118 71
87 114 67
93 120 72
93 120 73
88 114 68
93 120 71
136 153 137
185 197 204
202 212 221
182 194 201
191 203 210
194 205 213
193 205 213
192 203 210
188 200 208
189 200 206
192 202 210
193 204 212
196 206 213
185 196 202
197 207 214
197 208 218
189 200 208
185 196 201
184 196 203
186 198 204
194 205 214
192 203 210
183 195 201
197 208 217
190 201 206
198 209 218
102 126 92
90 116 68
92 119 70
88 114 68
88 114 67
86 112 66
93 119 71
89 115 69
89 116 70
89 116 69
91 118 71
92 119 71
90 117 70
89 116 69
90 116 69
95 122 73
90 116 69
96 121 80
108 131 100
121 142 119
148 163 155
165 178 175
165 179 178
185 197 202
185 196 200
149 163 154
90 116 69
87 113 67
90 117 70
88 114 67
92 118 70
84 110 65
89 116 69
90 116 69
92 119 72
86 112 67
92 119 71
93 119 71
88 116 69
82 108 64
89 115 68
89 115 69
90 116 69
86 111 65
90 116 69
88 114 68
84 111 65
87 114 68
93 120 72
87 114 68
136 153 136
190 201 208
190 200 206
196 206 214
191 202 209
189 200 206
185 196 202
196 207 215
197 207 215
187 200 208
190 201 207
188 199 206
193 204 211
195 205 211
191 203 211
188 198 205
190 200 209
189 200 208
188 199 204
197 209 220
194 203 209
191 202 210
179 191 195
200 211 220
183 194 200
89 113 72
91 118 71
88 115 69
91 118 71
91 118 71
93 120 72
86 112 67
86 113 67
89 116 69
92 119 72
91 117 70
91 118 71
90 118 71
90 117 70
92 119 71
91 118 70
86 112 67
84 110 65
92 120 72
91 117 70
89 116 69
88 114 67
92 118 70
121 141 118
192 202 209
185 196 200
197 207 216
192 203 212
186 198 204
193 204 211
197 207 215
193 203 211
191 203 209
192 202 207
195 206 215
192 203 209
195 205 213
191 202 208
191 202 212
186 198 206
188 199 205
195 206 212
191 201 206
189 200 208
190 201 208
185 197 204
145 161 152
88 114 67
90 117 70
89 115 69
92 118 70
93 120 72
89 115 68
91 118 70
89 116 70
91 117 70
91 118 70
89 116 69
92 118 70
91 118 71
95 122 74
90 117 70
89 115 69
89 116 70
88 114 68
91 118 70
91 118 70
85 111 66
162 176 170
188 199 206
187 199 207
198 209 219
195 206 215
192 203 212
193 203 210
178 190 194
190 201 209
186 197 202
195 205 213
196 207 215
188 200 206
191 202 209
190 202 210
194 205 215
192 202 207
189 200 208
194 206 215
188 199 206
185 197 202
103 126 92
90 116 69
88 115 68
90 117 70
87 113 67
85 111 65
88 114 67
88 115 68
84 110 66
88 115 69
92 119 72
91 117 70
88 115 68
88 115 68
90 117 69
91 119 71
93 120 71
88 115 68
98 123 83
159 174 169
175 188 188
165 179 178
147 163 155
137 154 139
133 150 133
131 150 128
112 134 107
122 141 116
144 160 147
137 155 139
150 165 157
157 171 162
139 156 146
151 166 161
155 169 162
157 172 166
159 173 167
113 136 106
119 139 114
107 130 94
95 119 84
103 125 93
92 118 73
90 116 70
93 120 72
86 113 67
87 113 67
88 115 69
92 119 71
83 110 65
89 116 69
89 114 68
112 134 104
176 188 187
178 191 195
188 199 207
188 199 205
198 208 218
189 200 206
189 201 209
186 197 203
181 192 199
161 176 171
136 154 140
116 136 111
89 116 69
98 122 87
174 187 188
194 204 213
192 202 210
191 203 212
188 200 206
186 198 203
188 199 206
185 196 203
190 201 207
188 199 206
197 208 217
188 200 206
189 200 205
182 193 198
194 205 215
190 201 207
189 200 207
193 203 211
173 185 186
126 145 126
102 124 92
88 114 68
88 114 68
153 167 161
185 197 203
190 202 210
192 203 213
185 197 201
179 191 196
190 200 207
192 203 212
191 202 210
188 199 207
195 207 217
191 202 209
183 195 199
145 161 150
112 134 104
88 114 68
86 112 67
86 112 66
87 113 67
86 113 68
91 118 71
86 112 67
144 160 149
185 198 205
194 204 212
186 198 204
185 197 203
196 207 215
187 198 204
193 203 210
195 206 214
192 203 210
182 194 200
188 200 207
188 199 206
158 173 165
137 155 140
112 134 105
108 130 99
104 127 96
112 135 102
120 141 116
133 153 135
132 150 135
134 152 137
137 154 141
163 176 173
151 166 156
142 159 148
147 163 152
142 159 147
144 160 148
145 161 150
139 155 141
146 162 152
127 146 127
115 138 105
126 145 123
116 137 111
113 135 110
95 119 81
101 125 88
92 119 74
92 118 70
102 128 88
125 144 123
162 175 171
166 180 179
189 200 206
197 207 216
104 127 92
92 118 70
88 115 69
91 118 70
86 112 67
89 116 69
89 116 68
90 117 70
87 113 67
87 113 66
88 114 68
91 118 70
88 115 68
88 114 68
90 117 69
90 116 69
88 114 68
90 117 70
92 120 72
85 111 65
91 117 71
89 115 68
91 118 71
89 116 69
87 114 68
195 204 210
191 202 209
189 201 208
196 206 213
194 205 213
193 204 209
187 199 207
194 206 215
202 212 221
189 200 208
190 201 208
172 184 186
156 171 166
128 147 129
100 126 85
88 114 68
89 115 69
94 122 74
94 121 73
89 114 68
91 118 71
86 112 66
92 119 70
91 118 70
88 115 68
161 176 172
189 201 210
195 206 215
184 194 198
191 203 212
185 197 204
192 202 210
191 202 209
192 203 210
202 212 221
185 195 200
187 199 207
187 199 206
185 198 205
192 203 212
188 198 202
188 198 203
189 200 209
190 201 209
193 204 213
194 205 213
187 198 206
190 201 209
197 207 213
198 208 217
165 178 176
87 114 68
89 116 70
91 117 69
85 111 66
88 115 69
89 116 69
92 119 71
86 112 67
87 113 66
92 119 71
87 114 67
88 114 67
95 122 73
91 118 70
87 114 68
87 114 68
93 120 72
86 112 66
92 119 71
89 115 68
90 116 69
89 116 69
91 118 70
94 121 72
90 116 70
185 196 202
175 187 190
161 175 170
149 164 156
139 156 145
121 141 115
119 140 112
98 122 83
92 119 72
90 117 70
87 112 66
88 114 68
93 120 72
88 115 68
90 117 70
93 120 72
89 116 70
86 113 67
91 118 71
90 117 70
89 115 69
93 120 72
86 112 66
90 117 70
101 126 84
180 191 195
197 207 215
191 202 209
194 206 215
181 193 198
192 202 210
189 201 208
196 206 214
191 202 208
194 204 213
184 195 201
198 209 219
193 204 212
194 203 210
184 197 204
188 200 209
185 196 202
190 201 209
186 197 202
197 206 213
195 206 212
191 202 209
192 202 208
198 209 216
134 152 137
90 116 68
90 117 70
88 114 68
86 113 67
91 117 70
91 118 70
89 115 68
90 117 70
90 116 69
90 117 70
90 117 69
89 115 68
90 116 69
89 116 70
86 112 66
89 116 70
93 119 71
85 111 66
89 115 68
89 115 68
90 116 70
89 116 69
93 119 77
169 182 182
193 204 212
186 198 205
192 203 210
192 204 210
185 197 205
186 199 208
189 200 206
182 194 200
189 201 208
180 193 197
195 205 212
197 207 214
191 202 209
189 199 205
191 203 210
190 202 209
189 199 207
186 198 205
201 211 221
194 205 214
183 195 199
181 193 198
100 124 86
93 120 71
88 114 67
86 112 66
93 120 72
89 116 70
91 117 70
93 120 72
88 115 69
89 116 69
90 117 70
91 118 71
85 111 66
92 119 72
90 117 70
93 120 72
94 121 72
88 114 67
87 114 67
91 118 71
91 118 71
133 150 133
192 203 209
193 204 210
185 197 206
193 204 212
193 204 211
192 203 211
183 196 201
194 204 211
190 201 209
188 200 207
195 206 213
190 201 207
195 206 214
191 202 210
192 203 211
188 199 206
188 198 203
178 191 195
183 195 200
185 197 202
127 146 124
123 143 120
120 141 120
121 140 120
140 157 146
123 143 120
135 152 138
139 156 145
150 164 155
146 163 152
146 162 154
160 175 172
151 166 155
160 173 167
143 159 146
142 158 144
125 144 126
116 137 110
102 126 91
177 189 190
194 205 212
188 199 205
197 207 215
194 205 213
188 200 207
190 200 207
188 200 207
188 200 208
184 195 200
192 203 210
192 203 211
175 187 192
186 199 205
189 201 210
188 198 204
181 192 196
172 186 188
103 127 90
89 116 69
88 114 68
91 117 70
91 118 72
90 116 69
86 113 67
88 114 68
92 118 70
89 115 68
87 113 68
90 116 69
86 112 67
84 110 65
86 113 66
119 137 121
190 201 208
189 200 207
185 196 203
190 202 209
188 199 206
180 191 196
163 178 176
139 156 141
114 136 102
88 115 69
83 109 64
86 112 66
92 119 71
117 138 112
180 193 198
184 195 202
181 193 200
191 203 210
186 197 202
190 202 210
192 203 211
189 201 210
104 126 99
143 160 147
188 199 206
186 197 203
187 198 206
194 205 213
192 203 212
181 193 198
186 198 206
184 195 203
184 195 203
188 199 205
187 199 205
188 199 204
165 177 175
133 150 135
119 138 119
189 199 205
182 193 197
191 201 206
189 199 205
188 199 205
186 197 203
190 200 209
190 201 208
188 199 206
177 190 195
188 200 206
185 197 204
184 197 203
191 202 207
180 191 194
147 162 154
123 142 119
87 113 67
87 114 68
87 114 68
85 112 66
139 156 144
185 197 205
176 188 192
204 213 222
183 194 200
188 200 208
188 198 203
191 201 209
196 207 217
192 202 209
184 196 203
178 190 197
189 200 210
190 201 209
191 202 210
181 192 199
172 185 186
137 154 139
106 128 98
88 115 68
90 116 70
91 118 71
89 115 69
125 143 122
193 204 214
194 204 212
195 206 216
184 195 201
190 201 208
197 207 213
187 199 207
187 198 205
193 204 214
187 198 206
194 205 213
189 200 206
195 205 213
192 202 209
192 203 209
190 201 209
192 203 210
201 211 222
186 197 204
182 193 198
187 198 203
178 190 194
184 196 200
175 188 188
153 168 162
162 176 171
166 179 177
163 176 174
170 184 185
162 175 173
163 176 173
151 166 155
155 169 165
144 160 153
153 169 161
140 157 144
144 159 149
147 162 153
140 156 143
132 151 133
136 153 139
144 160 150
131 150 134
122 141 122
131 150 128
119 138 116
120 138 117
118 139 116
119 141 115
183 195 198
181 194 198
184 196 201
179 192 197
184 197 202
178 191 196
183 197 203
188 199 206
188 199 206
193 205 214
190 201 208
181 193 199
186 198 206
196 206 214
192 202 209
185 197 202
168 180 180
150 165 158
117 137 116
97 121 85
89 116 69
84 110 65
87 114 67
86 112 67
93 117 78
182 194 201
196 206 213
192 203 209
186 198 206
183 194 199
197 208 218
191 202 211
185 197 203
187 199 204
187 198 205
193 204 211
192 204 212
192 202 210
199 209 218
188 200 206
191 201 207
193 204 213
189 201 210
187 197 203
183 196 203
191 203 211
192 203 210
194 205 215
170 182 185
192 204 212
136 152 137
88 115 69
89 115 68
89 115 69
91 118 70
84 109 64
88 115 68
85 111 66
93 119 71
91 118 71
92 119 71
88 115 69
93 120 71
79 104 61
90 116 69
90 117 69
94 121 73
86 113 68
89 116 69
89 115 68
91 118 71
88 115 69
91 118 71
90 116 69
87 113 66
144 160 149
189 201 208
184 196 203
189 200 206
190 202 209
195 205 212
195 205 213
182 194 200
189 201 208
181 193 198
174 187 189
148 164 153
145 161 152
119 139 117
123 142 122
110 132 102
99 121 89
86 112 67
92 118 70
91 118 71
89 115 68
91 118 70
90 117 70
92 119 72
89 116 69
156 170 162
190 201 208
193 205 214
192 203 210
182 194 202
187 199 204
188 199 208
182 193 197
195 207 216
192 203 209
190 201 209
178 190 195
187 199 205
186 197 202
186 197 203
192 203 209
190 202 209
182 193 199
189 200 207
185 197 204
192 204 211
195 206 214
190 200 207
191 203 210
190 201 206
90 116 72
86 112 67
96 124 75
88 114 69
88 114 68
91 118 70
89 116 69
93 120 72
94 121 72
88 114 69
89 115 69
87 114 68
91 118 71
89 115 69
93 120 72
89 115 68
90 117 70
92 119 71
91 117 70
88 114 67
89 116 69
92 118 70
91 118 71
156 171 163
191 202 207
182 194 203
196 207 215
194 205 212
193 202 210
192 202 209
192 203 209
190 202 210
185 197 204
186 198 203
194 204 211
192 203 210
182 193 197
191 202 210
195 205 213
187 198 205
195 205 213
193 204 212
186 196 201
193 204 211
189 200 208
176 188 191
127 147 126
97 121 82
113 134 107
108 130 100
113 134 105
112 133 110
118 138 112
107 128 96
120 139 115
115 134 111
116 135 114
111 132 108
124 143 121
118 138 111
136 153 140
133 151 135
132 149 135
123 141 125
152 167 160
148 165 156
150 165 158
125 144 125
142 159 148
139 156 140
131 149 129
139 156 142
139 157 142
132 149 134
125 144 122
116 137 111
110 129 104
117 137 111
108 130 100
115 136 111
95 120 81
92 116 77
98 122 83
90 117 73
89 116 69
89 116 69
90 117 70
93 119 74
187 198 203
193 204 213
193 204 212
193 203 211
182 193 197
194 204 211
184 196 199
173 186 186
174 187 187
154 170 166
152 168 163
123 142 120
107 131 96
96 120 80
86 112 67
91 118 71
88 114 68
89 116 69
91 117 73
166 180 179
182 195 200
186 198 207
194 205 213
191 203 210
186 197 205
184 196 202
195 206 216
184 196 201
199 209 218
201 211 221
190 201 208
189 200 207
189 200 206
193 204 212
186 198 207
195 205 214
165 178 177
89 116 70
88 114 68
93 121 73
87 113 67
85 111 66
86 112 66
88 114 68
89 116 69
89 115 68
88 114 67
89 115 69
84 110 66
92 118 71
90 116 69
89 116 70
141 157 145
184 196 204
194 204 210
182 193 195
149 166 157
136 152 140
101 124 90
87 113 67
87 114 68
88 115 69
90 116 69
86 111 66
91 117 71
86 113 67
133 151 135
183 194 199
187 199 207
185 196 202
187 199 207
182 194 200
191 202 208
191 202 209
189 200 207
185 196 204
84 110 65
89 116 69
91 117 70
118 140 116
158 173 170
176 188 193
193 204 213
189 201 208
191 201 208
183 195 202
183 194 201
184 196 201
180 192 198
189 200 205
189 200 207
181 193 199
186 196 202
134 151 139
164 177 178
187 198 203
188 199 204
193 204 212
197 207 213
201 210 218
193 203 208
196 206 213
200 210 219
189 200 208
193 204 211
186 197 203
183 194 199
181 195 203
189 200 206
187 198 204
181 194 198
147 163 152
114 135 106
89 116 69
121 140 120
197 206 214
187 199 205
188 199 207
192 204 212
192 203 211
194 205 215
184 195 202
191 202 210
188 199 205
185 195 199
190 201 210
201 211 218
190 201 208
188 199 204
182 193 198
183 194 201
189 200 208
187 198 204
176 189 192
152 167 159
117 137 115
90 115 71
119 139 113
192 202 210
185 197 204
175 188 194
196 207 215
189 199 205
194 205 212
187 199 205
183 195 201
204 214 224
186 198 204
180 193 199
187 198 203
185 197 203
192 203 211
189 201 207
189 201 208
188 200 208
188 200 207
190 201 207
187 198 203
193 203 210
182 194 201
188 200 207
172 185 189
92 119 71
92 116 77
117 139 111
146 162 148
182 193 197
195 205 211
173 186 192
183 194 199
182 194 199
190 201 208
190 201 209
193 204 212
191 202 209
199 209 217
192 202 206
193 203 210
191 202 209
183 194 200
184 196 202
190 201 207
188 200 207
189 200 208
189 200 207
186 197 204
164 178 175
89 115 69
88 114 68
89 115 68
88 115 69
87 114 67
91 117 71
89 116 69
88 114 67
87 113 67
84 110 66
100 126 86
90 115 74
97 122 83
107 128 96
105 127 94
106 130 96
118 139 112
110 132 102
115 135 108
122 142 118
103 127 88
119 141 114
131 149 130
152 167 159
160 175 166
139 156 143
115 136 114
132 151 134
132 150 131
139 156 145
137 155 138
133 151 136
124 142 126
144 161 151
138 156 141
144 161 152
152 168 161
134 150 139
153 168 160
144 160 148
156 171 167
133 152 135
150 166 158
159 174 167
166 179 175
148 164 154
154 168 163
160 174 169
165 178 176
143 160 152
150 164 155
130 147 131
125 144 125
133 152 138
129 148 133
121 140 123
120 140 117
142 160 146
125 144 123
133 152 137
140 156 145
128 146 129
136 153 136
122 142 121
118 139 114
121 141 120
144 160 148
128 146 130
125 143 124
123 142 123
117 137 112
121 140 116
118 140 114
117 136 114
116 136 113
161 174 171
175 187 186
167 180 178
169 182 182
182 194 199
166 180 180
173 185 185
168 181 181
170 183 184
166 181 183
171 183 181
169 182 183
168 181 180
167 180 180
169 180 179
180 191 193
163 177 175
173 186 187
164 178 176
150 166 158
140 157 141
134 153 138
127 147 129
111 132 102
105 129 95
185 197 205
190 201 205
169 182 182
186 197 198
169 183 182
172 184 184
174 188 189
163 178 174
165 177 179
163 177 174
157 172 166
153 168 162
169 182 181
171 184 185
160 174 169
168 182 180
166 180 177
161 175 172
165 180 179
168 182 179
163 176 175
159 173 168
156 171 165
145 162 153
162 175 171
130 148 132
139 158 145
137 154 137
128 146 126
140 157 141
126 145 128
140 157 144
143 160 148
144 162 151
147 163 153
153 168 159
144 159 150
147 162 152
147 163 153
158 173 169
151 167 159
155 170 164
152 166 159
158 173 169
160 173 171
156 171 165
158 173 167
143 159 145
133 150 131
125 142 124
129 146 130
132 150 132
127 145 127
123 144 120
127 146 124
122 141 122
119 139 115
117 137 111
114 136 108
115 135 109
102 125 89
106 129 95
103 126 91
105 130 92
97 121 85
103 127 92
94 120 77
98 121 81
91 118 73
88 114 68
154 170 162
188 199 206
184 194 199
189 201 208
188 199 206
199 209 218
189 200 207
185 197 202
189 200 207
191 201 206
190 201 208
196 207 215
188 199 205
191 202 208
191 203 212
188 200 206
191 202 208
190 201 206
193 203 211
196 207 216
187 199 207
178 190 192
114 136 108
89 116 69
88 114 68
90 116 69
93 119 71
90 116 69
90 117 70
92 119 71
90 117 69
88 115 68
86 112 66
88 114 68
91 118 71
92 119 71
83 108 64
86 112 67
91 115 73
107 129 97
107 129 99
130 150 129
126 146 126
149 164 157
134 150 137
125 144 123
122 142 117
109 132 101
88 112 69
93 120 72
87 114 68
88 115 68
90 117 70
89 116 69
91 118 71
85 112 66
90 117 69
92 119 71
91 118 71
89 116 69
91 116 74
169 182 183
184 197 203
192 203 210
189 200 208
189 201 208
184 196 201
187 199 206
185 196 200
194 204 212
192 202 208
188 200 208
187 198 204
190 201 207
177 190 196
188 198 204
179 192 197
188 199 207
165 179 175
87 113 67
85 112 66
88 114 68
88 114 68
90 116 69
86 113 67
86 112 66
86 113 67
85 111 66
84 110 65
87 113 67
86 112 66
93 120 72
90 117 70
99 123 86
122 142 120
152 167 159
129 148 127
95 121 77
92 119 71
90 116 69
90 117 70
88 115 69
93 119 72
90 117 70
85 110 65
86 113 67
87 114 68
90 116 71
155 169 165
183 194 201
194 204 213
187 198 206
187 199 206
188 200 207
190 202 209
192 204 211
184 196 200
164 179 176
139 156 143
87 113 67
87 114 67
90 116 69
89 116 69
88 114 68
96 122 78
134 151 136
169 182 183
182 194 202
190 200 207
174 187 191
189 200 208
184 195 203
197 207 216
188 199 207
185 196 201
185 197 205
110 131 105
89 115 69
102 124 94
144 160 150
182 193 197
188 199 206
182 194 201
190 202 210
179 191 196
190 200 204
199 209 219
192 202 210
193 204 212
187 199 204
183 194 197
185 196 202
189 201 209
183 194 199
182 194 200
186 197 205
175 187 190
156 170 163
174 186 188
191 202 211
191 202 209
181 194 202
181 193 198
181 192 199
188 199 206
187 198 205
187 198 206
190 202 209
188 199 204
194 204 211
189 200 206
188 199 205
182 193 198
189 200 205
193 204 211
185 197 202
185 196 203
191 202 210
185 197 204
178 188 193
158 172 167
173 186 187
172 185 189
185 196 202
188 201 210
191 202 208
190 202 210
184 194 200
184 195 200
194 205 213
189 200 207
188 200 209
194 204 209
189 201 210
191 202 208
181 193 199
184 196 201
197 208 216
189 199 204
183 194 200
194 205 214
193 205 215
196 207 216
194 204 211
177 189 191
91 118 71
90 117 70
92 119 71
89 116 70
87 113 67
96 122 78
117 138 114
151 166 159
170 183 182
192 203 211
192 204 212
184 196 201
192 203 210
190 201 208
184 197 204
191 201 208
189 201 207
195 205 212
188 200 208
193 204 211
192 203 210
183 195 202
184 196 204
196 206 214
146 162 153
91 117 70
89 116 70
94 121 73
88 114 69
87 114 67
86 112 66
91 117 70
87 114 68
87 113 67
90 116 69
89 116 69
91 118 71
89 116 70
90 117 70
89 116 69
91 118 71
92 118 71
91 117 70
86 113 67
86 112 66
87 113 67
90 117 69
89 115 68
89 116 68
151 166 160
172 184 185
156 171 167
138 155 137
114 135 105
91 116 72
91 118 70
89 115 68
89 116 69
88 114 68
92 119 71
87 114 68
91 118 71
88 114 67
89 116 69
91 117 70
91 117 70
89 115 69
91 117 70
91 117 70
91 118 70
92 119 71
88 114 68
81 107 63
88 114 67
126 144 127
188 199 206
189 199 205
191 203 212
188 199 203
184 196 202
185 196 202
189 200 207
188 199 206
191 203 209
194 204 213
185 197 204
193 204 211
187 198 204
180 192 195
184 194 199
188 200 207
202 211 219
191 202 209
194 205 212
183 195 201
190 201 208
193 203 209
180 193 198
200 210 218
164 178 175
86 113 67
89 116 69
92 118 71
87 112 66
86 112 66
90 116 69
91 117 69
87 113 66
91 118 70
90 117 69
87 114 67
93 120 72
88 114 68
89 115 69
90 117 70
87 113 67
85 111 66
91 117 70
91 118 71
87 113 67
92 119 71
90 116 69
85 111 66
87 113 66
142 158 148
188 201 210
190 201 209
187 198 207
179 191 195
172 185 187
173 186 185
164 178 175
163 176 172
160 175 168
135 152 138
121 140 120
122 143 118
112 133 111
103 128 87
97 122 83
91 117 73
89 116 69
89 115 69
91 118 71
93 119 71
87 113 67
88 115 69
89 116 69
122 142 121
194 205 213
196 207 216
195 205 214
191 202 208
184 195 202
194 205 212
188 199 205
188 199 205
184 195 202
197 207 217
195 205 213
188 199 206
188 198 205
197 206 213
184 195 199
196 207 217
174 186 187
190 201 208
190 202 212
197 207 216
182 194 198
195 205 215
183 194 198
115 136 110
86 112 66
90 116 69
86 112 66
86 112 67
87 114 68
88 115 68
89 115 70
87 113 67
92 119 71
87 113 67
86 112 66
88 115 69
85 111 66
88 115 68
90 117 69
88 114 68
86 112 66
88 114 68
90 116 69
86 112 67
84 110 65
126 144 125
183 195 200
196 206 212
192 203 211
186 197 203
198 208 217
194 205 214
198 208 216
184 195 201
188 200 207
185 197 202
190 201 208
190 200 206
180 193 197
194 204 211
194 204 212
179 191 195
191 202 211
188 200 206
189 200 208
192 203 211
185 196 201
109 130 99
88 114 68
91 117 70
87 113 67
88 114 68
91 118 70
106 129 97
119 139 114
114 134 112
132 150 133
139 157 141
138 154 141
149 164 158
156 170 165
161 174 174
164 178 181
174 187 189
186 196 202
185 196 202
180 192 200
130 148 132
92 120 72
91 117 69
91 117 70
87 113 67
86 112 68
86 112 66
86 112 67
86 112 67
88 115 68
87 113 68
89 116 69
89 116 70
89 116 69
90 117 69
87 114 68
91 116 69
91 117 70
94 119 76
168 182 182
190 201 208
191 202 210
194 205 214
187 198 204
184 195 201
188 201 210
188 199 205
194 205 214
191 201 209
177 189 197
185 196 201
182 195 201
183 195 202
191 202 211
192 203 211
189 201 207
156 170 166
88 114 68
85 111 65
87 113 68
88 114 67
90 117 70
87 114 68
87 113 67
87 113 67
84 110 65
91 117 70
104 126 93
106 126 101
145 161 151
176 188 189
185 197 202
121 140 120
89 116 69
90 116 69
88 114 68
90 116 70
83 109 64
87 114 68
83 109 65
87 113 67
88 114 68
87 113 68
88 114 68
90 117 70
117 138 117
168 181 185
184 196 203
185 197 203
184 195 201
179 191 197
181 192 199
174 187 190
154 169 162
113 133 106
94 119 78
89 115 70
130 148 131
93 118 77
87 113 67
89 116 70
88 115 68
88 114 67
87 113 67
90 116 70
84 110 66
105 127 98
152 166 160
173 186 187
184 195 200
185 196 203
182 193 197
183 194 202
186 197 204
184 195 199
136 152 141
87 113 68
84 109 64
88 115 69
86 113 67
97 119 85
152 166 159
178 191 195
176 188 192
188 199 208
192 202 210
190 200 208
189 200 207
181 192 197
184 196 203
182 194 199
182 195 201
192 202 208
189 200 208
189 200 207
181 193 198
175 187 190
87 112 67
113 134 105
142 158 148
178 191 196
197 207 217
179 192 196
192 202 206
190 201 209
185 196 202
181 193 198
180 192 199
186 197 203
190 201 208
178 191 196
185 197 204
191 201 207
187 197 204
195 206 217
189 200 207
194 205 212
196 206 214
190 202 208
173 186 187
89 116 69
89 114 71
119 138 114
135 153 140
176 189 192
188 200 207
181 193 197
183 195 201
186 198 204
185 197 204
187 199 206
183 195 201
189 200 206
184 195 202
188 199 206
194 205 213
188 199 205
195 205 215
182 193 199
186 198 205
186 198 203
192 202 209
188 199 206
168 181 182
88 115 69
84 110 66
90 117 69
90 117 70
90 117 70
91 117 70
89 115 69
91 118 70
89 115 68
98 122 83
120 139 119
157 172 163
166 180 180
189 200 204
191 202 208
196 207 216
186 197 204
185 197 203
199 209 218
181 194 199
193 204 211
191 202 209
183 196 203
197 209 219
123 143 118
88 115 68
85 110 65
87 113 67
94 120 72
88 115 68
88 115 67
85 111 66
86 113 67
91 118 70
88 114 67
86 113 67
85 111 65
88 115 68
89 115 69
89 116 69
90 116 69
90 117 70
87 113 67
91 117 69
91 118 70
89 116 70
89 115 68
88 114 68
93 119 72
177 189 193
189 201 209
190 201 210
196 207 214
191 202 210
177 189 194
172 185 185
157 172 168
137 153 138
119 139 117
99 123 83
86 113 67
92 118 71
90 117 70
90 117 69
88 115 69
91 118 71
87 113 68
85 111 65
87 114 67
88 114 68
87 114 68
89 115 69
87 114 67
89 115 68
166 180 179
197 208 217
189 200 207
186 197 204
189 200 208
184 196 205
196 206 216
190 201 207
182 194 201
189 200 208
190 200 206
183 194 201
192 203 211
196 207 214
184 195 199
195 207 216
197 208 218
201 211 219
195 206 213
189 201 208
196 207 216
182 195 202
193 203 209
193 204 213
186 197 204
127 145 125
91 117 70
89 115 69
88 115 68
87 113 67
90 116 69
88 114 67
88 115 68
89 115 69
87 113 68
88 114 68
91 118 71
85 110 65
90 117 70
91 118 70
86 112 66
85 112 66
84 111 65
86 112 66
91 118 71
94 121 73
91 118 71
89 116 69
92 118 71
96 120 81
184 196 204
188 199 205
190 201 208
176 190 195
189 200 207
188 199 206
195 205 213
179 192 196
188 200 207
191 202 211
184 196 202
181 192 198
185 197 203
188 199 207
183 195 203
186 197 206
189 200 206
189 200 205
170 183 184
171 184 186
167 180 180
165 179 175
162 175 171
149 164 155
137 154 141
146 163 155
157 172 165
158 171 169
163 177 173
175 187 189
179 192 194
185 197 203
172 186 187
187 198 203
179 192 196
179 192 197
194 205 211
196 207 214
188 199 205
190 201 209
192 204 211
182 194 200
190 201 209
191 202 211
183 195 202
193 203 210
183 195 201
139 156 146
86 112 67
90 117 69
87 114 68
90 117 69
91 117 71
91 118 71
89 115 68
89 116 69
89 116 69
86 112 66
90 116 69
92 119 71
87 113 66
90 117 70
90 117 69
90 117 70
88 114 68
89 115 69
85 110 65
90 117 69
91 118 70
109 131 101
183 195 202
185 197 204
187 198 204
187 198 206
181 192 198
193 203 210
186 198 204
187 199 206
191 203 211
188 199 205
190 201 209
180 192 194
175 187 190
178 190 196
158 171 169
164 177 175
155 170 162
137 155 141
164 178 175
141 157 146
148 165 155
177 188 191
163 177 172
164 178 177
169 182 182
184 196 203
184 195 201
191 202 209
196 206 213
188 199 205
189 200 206
187 198 203
199 209 217
190 202 210
187 198 206
182 194 199
195 204 211
187 199 207
193 204 214
191 202 210
190 202 211
145 161 151
86 112 67
90 116 70
89 116 69
83 109 65
89 115 69
87 113 68
86 112 66
87 113 68
86 113 67
88 115 68
86 112 67
92 119 72
87 114 68
86 113 67
86 112 66
86 112 66
90 117 70
97 123 79
166 179 180
200 210 219
198 208 217
183 196 202
187 198 205
192 203 210
191 201 208
186 198 203
192 203 210
186 197 202
185 196 203
182 193 198
188 200 207
179 192 198
189 201 209
189 201 208
190 201 207
132 150 136
91 118 70
84 110 65
86 113 67
86 112 66
84 110 65
83 109 64
99 124 84
119 140 118
142 158 147
153 167 161
179 191 194
182 194 200
186 198 207
189 200 207
164 178 178
111 132 108
89 116 70
87 113 67
86 113 67
91 118 71
84 110 65
92 119 71
86 112 66
87 113 67
82 107 62
85 111 66
87 114 68
89 116 69
123 142 121
180 191 195
191 202 209
180 191 197
186 198 204
155 169 163
135 152 140
99 121 89
85 111 65
89 115 69
88 115 68
96 120 82
159 174 170
176 188 192
180 191 194
156 170 165
115 135 110
91 117 70
86 112 67
85 112 66
87 113 67
84 110 65
88 114 68
86 112 67
88 114 68
114 134 109
158 173 172
175 187 191
183 195 203
188 200 207
181 192 199
155 170 167
87 114 68
89 116 69
87 113 67
89 116 69
86 113 67
84 110 64
91 117 72
124 144 123
165 178 176
173 184 186
184 196 201
181 193 199
190 200 205
187 199 206
175 188 193
184 196 203
191 202 208
188 199 205
175 187 191
183 195 200
187 198 204
92 117 75
88 115 69
89 116 69
85 111 66
95 120 82
135 152 136
167 180 179
186 197 206
189 202 212
184 196 202
189 201 210
190 200 205
191 202 209
186 197 205
188 200 206
191 202 210
186 198 207
198 209 217
190 201 207
181 193 198
192 203 211
184 195 201
169 183 184
90 116 69
88 114 68
93 119 71
83 109 64
88 115 69
108 130 99
133 148 135
161 174 169
193 203 209
188 200 209
180 192 196
197 207 215
188 199 207
187 198 203
188 199 206
187 198 206
178 190 197
181 193 199
198 209 218
188 200 207
183 195 201
187 199 206
192 203 211
143 159 149
88 113 67
91 117 70
90 116 69
86 112 67
91 118 71
85 110 65
86 112 66
87 114 68
87 114 68
91 118 70
79 105 61
93 120 72
89 115 68
95 119 81
131 150 133
151 165 158
175 187 188
185 197 205
182 193 199
184 196 202
177 190 194
190 201 208
177 189 193
186 197 203
94 118 78
89 115 68
90 116 69
86 112 67
85 111 66
87 113 67
84 111 65
87 112 66
89 115 68
87 114 67
88 115 69
88 115 68
86 112 66
91 117 70
84 110 65
89 115 69
84 110 64
91 118 70
90 116 70
88 115 68
86 112 67
87 113 66
88 113 68
90 116 69
97 122 83
183 194 199
188 198 206
188 199 206
195 206 216
191 202 207
181 192 197
186 197 206
186 198 204
187 199 207
196 207 216
182 193 199
183 195 197
166 179 178
152 167 157
134 152 138
117 137 112
96 121 78
84 109 65
86 112 66
89 116 69
91 118 71
89 115 69
92 119 71
89 115 69
108 129 101
187 198 206
190 201 211
188 199 205
195 206 215
189 200 207
191 202 208
193 204 213
193 205 213
189 200 206
190 201 209
184 196 204
186 197 201
181 194 202
192 203 212
187 197 203
193 204 213
186 198 205
190 200 208
190 201 209
193 204 213
180 192 199
190 201 210
188 200 206
183 194 199
178 189 191
83 109 65
86 112 67
88 115 68
88 114 68
91 118 70
86 113 67
88 115 69
83 109 64
90 116 69
93 119 71
88 114 68
90 117 70
93 120 72
91 118 71
89 115 68
88 114 68
88 115 68
88 116 70
87 113 67
87 113 67
92 119 71
88 115 69
89 116 70
86 112 67
168 181 180
189 201 208
191 203 210
189 201 208
195 205 213
190 201 208
187 199 206
183 195 202
180 192 198
187 198 205
193 203 211
191 203 213
186 197 203
188 199 206
190 201 209
194 205 212
188 200 208
189 200 208
192 203 209
199 209 217
200 210 216
191 202 210
191 201 209
177 189 195
131 148 134
87 113 67
90 118 71
86 113 68
88 114 68
88 114 68
89 116 69
86 112 66
89 116 69
91 118 70
86 113 67
86 112 66
89 116 69
96 121 77
101 125 87
93 118 80
109 132 99
112 132 106
120 140 115
116 137 114
115 136 110
124 143 120
122 141 124
143 160 151
164 179 179
155 169 162
151 166 158
170 183 183
146 161 155
161 176 171
158 174 169
151 166 158
148 163 154
156 170 166
157 172 165
153 168 162
149 165 155
163 178 173
153 167 162
164 177 174
155 171 163
179 190 191
156 170 168
163 177 176
164 177 173
164 178 174
115 136 108
126 144 127
116 137 114
111 132 107
114 135 107
100 122 89
102 125 89
96 120 82
92 119 70
89 116 70
86 113 67
85 111 66
86 113 67
84 110 65
87 113 67
88 115 68
87 112 66
85 112 66
94 120 72
90 117 70
87 114 69
146 163 153
192 203 211
184 196 204
186 197 204
183 194 199
191 202 211
188 199 205
179 191 197
186 198 206
189 200 207
188 200 206
187 198 204
188 200 207
186 197 202
179 191 195
189 200 208
194 204 212
190 200 207
191 201 208
186 198 205
149 165 154
92 119 71
89 115 69
87 113 67
88 115 68
87 113 67
87 113 67
84 110 64
88 115 69
90 116 70
88 114 67
87 113 67
85 111 65
86 112 65
85 111 65
88 114 67
85 111 66
86 112 67
99 123 84
172 184 186
185 197 202
187 198 206
173 186 189
192 203 210
178 190 195
183 195 202
190 201 207
193 204 211
191 202 210
194 205 215
180 192 196
185 196 202
187 198 203
193 203 211
182 192 197
183 195 202
123 142 125
88 115 69
88 115 68
95 120 80
119 139 116
133 150 138
153 168 165
170 183 184
190 201 207
182 194 200
183 195 200
183 195 201
188 199 207
191 202 210
190 201 210
175 189 191
92 117 78
92 119 72
88 114 68
86 112 66
87 114 67
90 117 70
89 116 69
89 116 69
88 115 68
87 113 67
92 119 71
88 114 67
94 120 74
136 154 143
179 192 198
154 168 161
142 158 149
112 133 104
88 113 70
89 116 69
89 116 70
89 115 68
87 113 67
86 112 66
114 135 111
179 191 197
186 197 202
181 193 197
176 188 192
188 198 205
184 196 201
165 178 179
143 158 150
96 118 87
88 114 68
87 113 68
86 111 65
88 115 68
87 113 68
91 118 71
86 112 66
91 116 76
133 151 136
166 181 179
175 187 193
183 194 200
88 114 71
89 115 69
88 115 69
88 114 68
88 115 69
85 111 66
84 110 65
93 119 71
85 111 65
86 111 69
126 145 124
156 170 163
177 190 194
185 196 202
188 198 202
188 199 205
189 199 206
182 194 198
186 198 206
186 197 203
185 197 204
96 121 81
85 111 65
90 117 71
87 113 67
90 116 70
88 114 68
85 113 68
112 132 106
129 147 131
162 176 174
181 193 201
185 196 202
187 198 203
183 195 198
191 202 208
178 190 195
182 194 200
187 198 204
188 199 207
190 201 209
180 193 199
186 197 203
172 185 186
84 109 63
87 114 67
87 113 67
89 116 69
89 116 70
88 114 68
84 110 66
85 111 66
92 117 76
127 145 126
144 159 151
169 181 182
195 206 212
187 198 205
174 187 192
189 201 211
186 197 204
184 197 204
190 200 207
185 198 206
199 209 217
194 205 214
189 201 209
160 174 170
87 113 68
93 120 72
88 114 68
88 115 69
86 112 66
90 117 70
82 108 64
91 118 71
86 112 66
87 113 67
86 112 66
86 112 67
84 110 65
89 116 70
87 114 68
89 115 69
86 112 66
91 117 69
117 137 112
144 161 149
163 177 174
180 192 197
191 202 209
180 193 196
85 111 67
87 114 68
86 112 66
88 114 67
84 110 66
90 116 69
89 116 69
90 117 70
86 112 67
90 116 69
90 117 69
91 118 71
87 114 69
89 116 69
91 117 70
86 112 67
89 115 68
85 111 65
86 112 66
88 115 69
90 117 71
90 116 69
93 120 72
92 118 71
134 151 135
189 200 207
188 200 207
195 206 214
171 183 184
186 198 204
186 197 203
185 196 200
187 198 206
183 194 199
185 196 202
190 201 207
173 186 191
191 202 210
195 205 211
185 197 204
191 202 209
190 202 210
182 193 196
158 172 168
136 154 143
127 146 124
112 133 107
96 122 78
84 111 66
134 151 136
185 198 206
187 198 205
189 200 209
194 204 210
193 204 210
187 200 208
184 196 200
189 200 208
182 194 200
201 210 219
192 203 210
201 211 219
186 197 205
193 204 211
182 194 198
196 206 214
189 199 207
195 205 211
190 201 209
191 202 210
191 202 208
188 199 205
190 202 209
188 199 204
144 160 154
86 112 67
88 115 69
89 116 69
86 112 66
88 115 69
91 118 70
89 115 69
89 115 69
89 115 68
89 115 68
89 116 69
90 117 69
92 118 70
89 116 70
85 111 66
87 114 68
87 113 67
90 117 70
88 114 68
89 115 69
87 113 66
93 120 73
90 116 70
104 126 94
192 203 210
184 195 201
181 192 196
186 198 203
191 202 211
194 205 213
186 197 201
193 204 210
194 205 213
180 192 196
192 202 210
186 198 204
183 194 201
189 199 205
191 202 208
195 206 215
182 194 202
181 192 198
189 200 206
183 195 201
190 202 211
177 189 194
187 199 206
176 188 192
89 114 70
85 112 66
88 115 68
85 111 66
89 116 69
90 116 69
86 112 66
88 114 68
90 116 70
94 121 73
88 115 69
91 118 70
88 115 69
86 112 66
88 114 67
90 117 71
87 113 68
85 112 67
85 111 66
90 117 69
92 118 70
89 116 69
95 119 84
181 193 196
195 206 215
188 199 205
191 202 210
195 206 215
183 196 206
186 197 204
183 194 198
200 210 218
197 208 216
189 200 208
191 203 211
186 198 204
194 204 212
190 201 210
195 206 213
194 204 211
183 195 199
188 199 205
200 211 222
190 201 208
193 204 212
142 158 145
86 112 66
87 113 67
89 115 69
89 115 68
89 116 69
89 116 70
91 118 70
87 114 68
91 118 70
87 114 67
88 115 68
90 116 69
87 112 67
88 114 67
84 111 65
89 116 69
92 119 71
92 118 71
91 119 72
87 113 68
144 160 148
188 199 205
184 197 204
188 200 207
196 207 214
178 189 194
181 192 198
183 195 202
198 208 217
187 199 208
180 193 199
186 198 205
186 196 202
190 201 208
191 201 208
198 209 218
190 200 207
187 198 206
196 206 213
187 199 205
155 171 164
90 116 69
90 116 69
86 112 65
84 110 65
87 114 68
87 114 68
86 112 65
90 117 70
87 113 68
87 114 68
91 118 70
84 110 65
87 114 68
82 108 63
87 113 68
92 119 71
87 113 67
97 120 86
164 178 178
179 191 197
180 193 197
183 195 202
188 199 206
194 205 212
190 200 206
198 207 215
190 201 209
193 204 212
177 189 193
185 196 203
189 199 208
190 201 206
191 202 210
177 189 192
180 191 194
155 169 162
143 158 152
158 172 170
164 177 176
190 201 210
178 192 197
190 200 207
184 196 203
189 201 209
186 198 203
185 195 202
193 204 213
185 197 204
186 197 203
191 201 208
153 168 161
90 117 72
89 116 69
89 116 70
89 115 68
84 109 64
91 117 70
89 116 69
87 113 67
94 121 72
90 116 70
88 114 68
93 118 78
111 132 106
112 132 106
128 146 130
94 119 79
86 112 67
84 110 65
85 111 65
84 110 64
88 114 68
89 115 68
90 116 69
98 124 82
153 168 162
185 196 202
192 203 212
171 183 183
138 156 143
167 180 182
179 191 199
184 196 203
185 196 201
192 203 210
173 185 189
164 178 179
141 156 145
95 121 80
84 110 65
87 113 67
89 116 69
89 116 69
88 114 68
84 110 66
83 108 64
95 119 79
130 146 128
114 134 111
89 115 72
86 112 67
91 117 70
88 115 68
85 111 66
87 113 67
87 114 68
89 115 68
85 111 66
86 112 66
88 114 68
89 115 71
133 151 133
143 158 149
181 194 202
194 204 212
182 194 201
191 202 211
188 200 208
183 195 199
121 140 118
88 114 68
81 106 62
89 117 70
87 114 68
83 109 64
83 108 64
90 117 70
86 112 67
88 114 67
91 117 72
132 149 133
166 180 179
189 200 207
173 186 189
194 205 211
188 199 205
184 195 202
185 196 200
187 198 205
191 201 207
191 202 209
170 182 182
86 113 67
85 111 65
91 118 71
85 111 66
89 116 69
87 113 67
88 114 67
89 116 69
85 111 66
88 115 68
92 119 71
84 110 65
102 124 93
143 159 151
167 181 178
183 196 202
184 195 201
183 194 198
189 200 208
185 196 204
187 199 207
192 203 211
193 203 210
136 154 137
86 112 67
89 115 69
87 113 66
87 113 68
86 112 67
87 113 67
90 117 70
88 113 67
87 113 67
88 114 68
88 115 69
84 110 65
85 111 66
91 117 70
87 112 67
86 113 67
86 112 67
90 117 69
89 115 69
84 110 65
86 112 67
88 114 70
116 136 113
141 156 147
131 149 135
102 125 91
85 111 65
87 113 67
83 109 64
89 115 69
85 111 66
89 115 69
86 112 67
92 119 71
88 115 68
86 112 66
86 113 67
88 115 68
89 116 68
86 112 67
90 117 70
90 116 69
87 113 67
87 113 68
93 120 73
89 116 69
89 115 69
88 114 69
168 181 177
182 194 197
190 201 208
192 202 210
196 206 215
186 197 204
192 204 211
191 202 211
183 195 201
189 200 208
179 191 195
180 193 198
183 194 198
190 200 206
192 204 212
196 207 216
192 203 212
183 195 200
189 200 208
186 198 204
186 197 202
196 206 215
189 200 207
187 198 202
167 181 182
133 151 136
157 172 166
168 180 180
187 198 203
181 192 197
192 202 210
181 193 197
190 201 208
186 196 201
193 203 212
196 207 216
187 198 205
181 193 199
182 194 200
186 198 205
182 193 197
182 194 200
196 207 215
182 194 201
190 201 210
176 189 193
179 191 197
192 203 212
182 194 201
189 200 206
89 114 70
86 113 67
93 120 72
88 113 67
91 118 70
88 114 67
85 111 66
84 110 65
88 115 69
86 111 66
89 116 68
89 115 68
90 116 69
89 115 68
87 114 67
89 116 69
89 115 68
88 115 69
88 114 68
87 114 68
89 116 69
92 119 72
88 115 69
85 112 66
158 172 166
187 199 207
188 199 206
182 193 199
183 194 200
188 199 206
177 189 192
191 202 209
182 193 198
188 199 204
178 189 192
188 200 208
181 192 197
190 201 207
184 195 200
189 200 207
183 194 200
184 195 201
192 203 211
186 197 204
187 199 205
188 199 205
197 208 216
190 201 209
112 133 105
88 114 68
82 108 64
92 118 71
86 112 66
86 112 67
87 113 67
85 111 65
89 116 69
86 113 67
83 108 65
87 114 69
91 117 70
93 120 72
87 113 67
89 115 69
86 112 66
90 117 70
90 117 69
89 115 68
89 116 69
90 116 70
85 111 66
147 163 155
191 202 210
185 197 204
195 206 213
191 201 210
176 189 194
195 206 215
189 200 208
194 205 213
184 195 201
184 196 202
194 206 214
179 190 195
195 205 211
179 190 197
195 206 214
182 194 201
187 199 206
195 205 212
185 196 202
186 197 203
189 200 209
155 171 163
89 116 69
88 115 69
91 118 70
91 117 70
91 118 70
85 111 66
89 116 70
90 116 69
90 116 70
83 108 64
88 114 67
86 112 67
86 112 66
90 116 70
87 113 67
85 112 66
86 112 66
87 114 68
91 117 71
85 112 67
130 148 128
178 190 194
189 200 207
189 201 210
184 196 203
180 192 198
197 208 216
182 195 201
189 200 206
188 200 209
184 196 200
187 198 203
187 198 204
181 193 198
191 202 210
188 200 206
182 193 198
190 201 209
184 195 200
179 190 195
167 180 178
91 118 71
89 115 68
85 111 66
90 117 70
88 114 67
87 113 68
88 115 68
89 115 69
91 117 70
87 113 67
86 112 67
89 115 69
89 116 69
88 114 67
91 117 70
89 115 69
87 113 67
97 120 86
177 188 190
191 201 207
185 196 203
188 199 206
179 191 196
190 202 208
178 190 196
188 199 205
187 198 205
170 183 185
192 203 211
181 193 197
162 176 173
147 161 154
139 155 142
105 128 93
104 127 95
175 187 189
186 197 203
187 198 203
178 191 197
182 193 197
186 198 206
186 197 203
189 199 205
186 197 204
187 198 203
182 194 199
182 195 202
191 203 212
174 186 188
170 183 187
128 146 128
83 109 65
87 114 68
86 113 68
84 110 65
88 114 67
88 114 67
87 113 68
91 118 71
86 111 68
116 135 114
135 151 137
166 178 180
150 165 159
89 115 71
84 110 65
80 105 61
86 113 67
87 113 68
90 116 69
84 110 65
86 113 67
85 112 66
83 109 64
110 131 108
171 184 187
167 181 182
126 144 128
96 119 81
90 116 69
90 116 70
134 151 138
125 144 125
163 176 174
179 192 197
169 182 186
175 188 192
191 202 210
179 191 195
182 195 201
164 177 176
119 138 117
94 118 80
86 113 67
88 114 68
82 108 64
86 113 67
88 114 68
85 111 66
129 146 131
177 188 192
141 158 149
101 122 95
84 110 66
89 116 69
79 105 62
88 114 68
81 107 63
88 114 68
85 111 66
84 110 65
89 115 69
84 110 64
87 113 67
91 117 72
139 155 143
151 166 162
170 183 185
192 203 212
179 191 197
133 150 137
85 112 67
88 114 68
86 112 66
86 112 66
88 114 68
89 115 69
91 118 71
88 114 68
89 115 68
85 112 66
87 113 67
89 115 68
86 112 70
121 142 116
154 169 163
183 195 200
189 201 209
175 188 193
189 200 208
188 198 203
183 194 199
176 187 190
90 117 70
88 114 67
91 118 70
85 111 65
84 109 65
88 115 69
85 112 66
87 113 66
87 114 68
86 112 66
85 111 66
89 116 70
89 115 69
86 112 65
85 110 65
92 118 72
108 131 102
140 156 149
171 185 184
181 193 197
190 201 208
189 201 210
183 194 201
117 137 113
88 115 69
86 113 67
82 108 64
85 112 67
86 113 68
91 118 70
87 113 68
90 117 70
91 118 71
89 115 68
83 109 64
90 117 70
89 115 69
83 108 64
90 117 70
88 113 68
88 114 68
88 114 68
85 111 67
87 113 68
88 114 68
86 113 67
88 115 68
149 164 156
194 204 211
181 192 196
188 199 205
159 173 172
137 153 140
122 140 118
91 115 76
89 114 68
87 113 67
87 114 68
84 110 65
87 113 67
88 114 68
91 117 70
86 112 66
88 113 68
83 109 64
84 110 66
93 120 72
85 111 66
85 111 66
87 113 67
86 113 67
89 114 71
182 193 199
185 196 201
189 200 206
196 207 216
187 198 206
189 201 211
180 192 198
186 198 205
193 205 213
186 198 204
191 201 208
190 201 208
194 206 215
190 200 207
186 196 201
187 199 205
192 202 210
191 202 211
184 196 202
189 200 205
181 193 196
193 203 211
186 197 203
186 198 205
179 190 192
92 119 71
84 110 65
89 116 69
90 116 69
91 118 71
114 134 108
127 144 126
137 154 140
150 165 159
162 176 175
173 186 188
187 198 205
187 199 203
193 204 211
182 194 197
187 198 204
177 189 194
183 196 204
191 203 210
187 199 206
186 198 204
187 198 204
189 199 204
189 200 206
144 159 150
86 112 66
90 116 70
88 114 67
80 106 62
86 111 65
87 114 68
93 120 72
85 112 67
90 117 71
87 113 67
87 113 67
90 116 69
91 118 72
89 115 69
86 112 66
88 115 69
89 116 69
88 114 68
89 116 69
89 116 69
84 109 64
89 115 69
88 114 68
120 140 118
187 200 207
183 195 200
186 197 203
189 201 209
184 195 200
183 194 201
184 195 202
187 199 206
181 192 200
189 200 207
186 196 200
178 190 193
188 200 208
189 200 208
188 199 205
187 198 205
178 190 194
181 193 198
190 201 209
171 184 186
190 201 210
183 194 199
188 199 207
156 170 166
86 112 66
85 111 66
85 111 66
85 112 66
88 114 69
91 118 71
89 115 69
86 113 67
86 113 68
91 118 71
89 115 69
88 115 68
89 116 69
90 116 69
82 107 62
87 113 67
84 110 65
89 116 69
89 116 69
87 114 68
87 113 67
88 114 68
133 151 138
180 191 195
185 196 202
197 207 214
186 197 203
185 196 203
195 206 214
191 202 209
181 193 198
184 196 201
183 194 199
193 203 211
179 191 194
188 200 208
183 194 199
191 201 206
186 197 204
183 194 203
188 199 208
183 195 200
191 202 210
191 202 209
155 169 165
91 117 72
87 113 67
85 112 67
88 115 69
86 112 66
87 113 67
90 117 69
90 117 70
85 111 65
88 114 68
87 114 67
86 112 66
83 109 64
88 114 68
89 115 69
92 119 71
84 111 66
83 109 64
91 117 70
86 112 67
105 127 94
187 199 207
187 197 204
195 206 215
190 201 207
190 201 208
181 194 202
182 194 200
187 198 207
189 201 210
187 197 202
184 198 208
189 200 205
186 197 203
177 189 192
186 198 206
185 196 203
177 189 195
187 197 204
182 194 200
149 164 159
89 116 71
90 116 69
86 113 68
88 114 69
91 118 70
88 114 69
84 110 65
88 114 69
87 113 66
85 111 66
88 114 68
87 113 66
87 113 66
90 117 70
87 113 67
86 112 67
86 112 67
105 127 96
165 177 178
174 187 194
179 191 195
194 204 212
184 195 202
183 194 200
168 181 183
167 180 178
153 169 162
138 154 141
112 133 106
92 117 77
87 114 68
88 115 69
85 112 66
88 114 68
116 135 109
172 184 185
184 195 202
190 200 207
182 194 201
173 186 192
177 189 193
185 196 202
176 188 194
170 182 186
187 198 202
187 197 204
188 200 208
187 198 205
183 193 200
173 186 190
108 129 103
84 110 64
86 113 67
89 116 70
85 111 65
89 115 69
87 113 67
116 137 110
148 163 157
169 182 181
182 194 199
181 192 198
182 194 200
130 148 131
89 115 69
83 108 64
86 113 67
89 116 69
89 116 70
83 109 64
85 111 66
86 113 67
84 110 65
90 115 73
115 135 114
133 150 139
95 119 81
86 111 66
84 110 64
89 115 68
83 108 64
82 107 63
168 180 181
100 123 86
85 111 65
99 122 87
133 151 138
164 177 177
173 185 188
175 187 191
179 191 196
181 193 199
171 185 190
173 186 190
144 160 153
120 140 113
89 115 69
83 109 65
86 113 68
87 114 68
101 122 96
175 186 190
187 198 205
190 202 209
179 191 194
153 168 164
104 126 97
88 114 68
85 111 66
86 112 67
84 110 66
88 115 69
91 118 70
86 112 66
84 110 65
84 110 65
86 111 66
86 112 67
91 116 75
131 148 133
161 176 173
146 162 151
87 114 68
83 108 64
79 104 61
86 112 67
87 114 67
85 110 65
86 112 67
88 114 67
83 108 63
85 111 66
87 114 68
83 109 64
88 114 68
84 110 66
89 115 69
86 113 67
121 140 120
137 154 141
160 173 175
190 201 208
184 196 204
160 174 170
87 113 67
88 115 69
87 113 67
89 115 69
88 115 68
87 113 67
86 112 66
87 113 68
84 110 65
85 112 67
88 114 68
85 111 65
89 116 69
85 111 66
84 110 65
91 118 70
83 109 64
84 110 65
87 113 67
92 118 73
116 137 110
145 160 150
174 186 187
104 126 98
84 110 65
89 116 70
87 113 67
91 118 71
88 115 68
85 111 65
86 112 67
90 116 70
80 106 62
89 115 69
90 116 70
87 113 68
89 116 69
82 108 64
84 110 65
86 112 67
89 115 68
83 109 65
83 109 65
84 110 66
85 111 66
88 115 68
87 113 67
172 184 184
183 195 201
186 198 205
180 190 194
182 194 199
187 198 204
174 187 194
183 195 201
169 182 183
153 169 161
129 147 130
101 124 90
85 111 66
89 116 69
87 112 67
91 117 70
85 111 65
87 113 67
88 115 69
88 115 69
88 114 68
83 109 64
90 116 69
90 117 70
113 133 110
184 195 200
184 195 202
188 198 204
185 197 203
194 205 213
190 200 206
188 199 206
186 197 203
188 199 205
181 193 199
194 204 212
184 195 202
186 197 205
184 195 201
191 202 210
191 203 211
190 200 206
192 203 211
192 203 209
182 194 199
194 204 212
194 205 214
182 194 201
186 197 203
132 149 135
92 119 71
92 118 70
89 116 70
88 114 68
89 115 69
88 115 69
87 114 68
88 115 68
90 117 70
89 115 68
88 114 68
93 118 78
112 133 108
132 150 135
149 164 154
152 168 159
174 186 187
176 189 193
184 195 201
186 197 201
189 200 208
185 198 203
188 199 207
189 200 208
93 117 78
89 116 69
90 116 69
86 112 67
89 115 69
88 114 68
88 114 68
90 117 71
86 112 66
89 116 69
88 115 69
88 114 66
87 114 68
81 106 63
87 114 67
85 111 66
84 110 65
86 112 66
85 111 65
88 115 69
86 113 67
86 113 67
88 115 69
92 118 73
169 183 185
187 198 204
183 194 200
185 197 204
189 202 212
188 200 207
190 201 210
196 206 213
187 198 204
179 192 198
188 199 204
185 197 203
184 195 201
186 197 203
182 193 200
177 189 194
178 191 197
187 198 205
189 200 205
192 202 211
193 204 209
195 206 213
186 197 206
174 187 187
92 117 74
89 115 68
89 116 70
87 113 67
86 112 67
88 114 68
88 115 68
89 116 69
87 113 67
87 113 66
89 116 69
86 112 66
89 116 70
87 113 67
86 112 67
86 113 67
88 113 67
88 114 68
87 113 68
84 110 65
87 114 68
87 114 68
107 129 99
171 183 185
183 195 202
191 202 210
183 194 199
192 203 213
182 193 199
184 196 203
182 193 197
178 190 195
179 191 196
175 187 191
189 201 209
187 197 205
181 193 198
183 194 202
194 204 212
194 204 212
178 190 197
184 196 201
190 202 209
180 192 198
180 191 197
99 123 88
92 118 71
90 117 69
88 115 68
87 114 68
87 113 68
82 108 64
89 116 69
92 118 70
86 112 67
87 113 67
89 116 70
86 112 67
88 114 68
83 109 65
91 118 72
86 112 66
87 114 67
92 119 72
86 112 66
106 128 100
176 189 192
188 199 206
194 204 212
177 188 192
182 193 200
174 186 188
187 198 204
185 196 204
188 200 210
183 194 200
182 194 200
179 190 194
181 193 201
189 200 208
174 186 191
187 198 205
177 191 197
195 205 212
187 199 205
168 183 185
82 108 63
88 115 69
88 114 68
87 113 67
88 115 68
86 112 67
89 115 68
85 111 65
87 113 68
90 116 69
83 110 65
87 114 69
85 111 67
89 116 69
87 113 67
89 116 69
89 116 69
103 126 94
163 177 177
158 171 170
149 164 157
154 170 164
120 139 118
109 132 103
86 109 69
82 108 64
87 114 68
88 114 67
85 112 66
88 115 68
86 112 67
89 115 70
87 113 67
86 112 66
121 140 117
182 195 201
189 201 208
182 194 202
188 200 205
181 192 197
195 206 213
176 189 195
180 192 197
188 198 203
184 195 200
183 194 201
182 193 199
186 197 204
185 196 205
159 173 169
102 127 86
85 111 66
90 117 70
91 116 77
141 157 148
145 161 153
173 185 187
178 190 195
168 180 185
191 202 208
183 194 201
183 194 199
153 168 163
104 125 96
87 113 67
89 116 69
89 115 69
84 110 65
83 109 65
89 116 70
93 117 80
114 135 107
136 153 142
146 162 155
103 126 93
84 109 64
90 117 70
86 112 67
87 113 67
87 113 68
98 121 89
97 120 86
99 121 89
150 164 160
145 162 154
98 122 89
86 112 67
87 113 67
88 114 67
106 127 103
134 150 138
174 187 189
182 193 198
180 192 197
175 187 190
175 187 191
182 194 198
172 184 190
137 152 140
95 120 81
88 114 68
86 112 66
162 176 176
182 194 198
179 191 196
181 195 203
190 201 208
181 194 201
172 185 188
140 156 145
104 127 96
88 115 69
86 112 66
88 114 68
84 110 65
85 111 66
85 111 66
88 115 69
85 111 66
88 114 68
84 110 65
85 111 66
131 149 137
160 174 173
137 153 141
102 125 91
88 114 67
86 112 67
85 111 66
87 113 67
84 109 64
86 112 66
83 108 64
86 112 67
87 113 67
84 110 66
93 120 73
83 109 65
86 112 67
88 114 68
89 115 68
84 110 65
94 119 81
133 149 136
137 154 144
100 123 87
86 112 67
86 112 66
89 115 69
87 114 68
90 116 70
91 118 70
90 117 70
87 113 67
88 113 67
86 112 66
91 118 71
87 113 67
86 112 67
85 111 65
86 112 66
88 114 67
87 113 67
84 110 65
84 110 65
91 117 70
90 116 69
96 119 84
179 191 195
162 175 173
137 153 141
108 130 99
89 116 69
85 111 66
89 115 68
90 117 70
84 110 65
90 117 69
91 117 69
84 109 64
86 113 67
89 115 69
88 114 68
88 114 68
89 116 69
89 115 68
89 115 68
86 112 66
78 104 60
86 112 66
84 110 65
88 114 70
175 188 192
177 188 192
180 191 197
190 201 210
191 202 209
188 200 208
178 191 195
185 196 201
182 194 202
179 191 195
189 200 207
186 197 203
193 203 210
157 171 167
148 164 155
123 141 122
108 127 103
86 112 66
84 110 65
88 114 68
88 114 68
88 114 68
86 112 66
92 119 72
158 172 166
187 198 204
187 198 204
182 193 200
190 201 208
173 185 187
182 194 201
190 201 211
176 188 191
187 198 204
185 197 204
181 193 198
195 206 215
191 201 210
189 200 208
184 196 202
195 205 214
174 186 191
182 193 199
181 193 199
176 188 192
182 195 199
182 194 200
185 197 204
182 194 198
93 118 78
87 114 68
87 114 68
92 119 72
93 120 71
89 116 69
87 113 66
90 116 69
89 116 69
90 117 70
90 116 70
89 115 69
84 110 65
84 109 65
89 115 69
88 114 67
88 115 68
86 112 66
88 114 68
91 115 74
101 124 89
119 139 117
137 154 141
154 169 164
160 174 167
124 143 121
107 130 96
92 118 73
85 112 67
87 113 68
92 119 72
87 114 67
88 113 67
89 115 68
89 115 68
92 118 71
86 112 65
88 114 68
87 113 67
91 118 71
90 116 70
90 117 70
91 118 70
88 115 68
87 114 68
90 116 69
82 108 65
89 115 68
113 134 108
184 195 200
177 189 194
177 188 192
172 185 190
188 199 208
188 200 208
195 205 212
182 194 198
184 196 203
176 187 191
182 193 200
187 197 204
185 196 203
191 203 212
184 195 202
176 189 193
180 192 198
190 201 208
197 206 214
187 199 208
177 190 198
187 198 205
182 194 200
147 163 150
88 114 68
88 114 67
90 116 69
88 114 68
89 115 70
89 115 69
87 114 67
87 113 67
88 114 68
84 110 66
85 111 67
83 109 64
87 113 67
89 116 69
87 113 67
83 108 64
85 111 66
90 116 70
88 115 68
85 111 66
86 113 67
98 123 86
165 178 183
187 198 203
174 186 191
188 198 204
190 201 209
192 203 209
186 197 204
180 192 200
188 198 205
179 192 199
200 210 218
189 199 204
185 197 202
193 204 212
187 199 206
172 183 187
193 203 212
185 197 205
187 199 208
186 198 206
182 195 202
177 189 194
112 133 109
89 115 69
90 116 69
83 109 63
90 116 70
87 114 68
89 115 69
87 113 67
88 114 69
87 114 68
85 111 66
89 115 69
88 114 67
87 114 67
84 111 66
86 112 66
89 116 69
88 114 67
87 113 67
87 114 68
99 121 89
177 189 190
193 204 213
179 191 195
181 193 198
183 195 201
186 197 201
192 202 208
183 195 202
189 201 209
180 191 195
167 181 187
190 201 207
186 198 205
182 194 201
185 196 204
175 187 191
180 192 200
194 205 213
186 197 203
154 169 165
87 114 71
85 111 66
87 113 67
89 116 69
84 110 66
84 110 65
87 113 67
91 118 71
93 120 73
92 118 71
86 112 68
89 114 73
115 134 111
123 140 127
139 155 145
164 178 177
155 169 165
165 178 176
97 122 81
87 113 67
90 116 69
91 118 71
83 108 64
86 112 67
88 114 69
85 112 67
90 116 68
83 109 65
88 114 68
86 112 67
88 114 67
88 114 68
86 112 68
88 112 70
148 163 158
180 192 197
184 196 203
185 197 204
190 200 208
176 189 193
186 196 201
174 185 190
175 187 191
183 195 202
187 199 207
164 177 181
185 196 203
182 193 200
167 180 183
137 154 144
109 130 103
128 145 131
154 169 165
179 191 198
186 199 208
179 192 199
178 191 196
179 191 196
168 181 187
177 189 192
191 202 210
179 191 195
135 154 138
84 110 66
85 111 66
84 110 66
86 112 67
88 114 67
94 119 81
127 144 131
163 175 174
175 187 191
170 183 185
126 144 125
85 112 67
85 111 67
89 116 70
85 110 65
99 123 88
141 156 146
159 173 169
137 154 141
124 141 125
136 153 142
153 168 162
163 176 177
132 148 133
96 117 87
129 148 134
153 167 160
146 162 154
114 133 113
113 134 110
121 139 121
156 170 167
180 192 198
188 198 205
176 189 195
172 185 190
181 194 200
187 198 203
159 173 173
132 149 139
162 177 174
182 193 198
179 191 196
181 193 200
178 190 198
188 198 205
184 196 204
192 203 211
176 188 193
169 182 182
140 156 149
93 115 81
89 115 69
84 110 65
86 111 65
88 113 67
84 110 65
83 109 64
84 110 64
85 111 67
123 142 124
190 201 210
178 190 194
181 192 198
170 182 185
150 165 159
106 127 102
85 111 66
86 111 66
86 112 67
87 112 67
85 111 66
91 118 70
87 113 68
89 115 69
87 114 68
85 111 65
90 117 69
90 117 69
82 108 63
86 112 67
89 115 69
125 143 126
180 193 198
163 176 174
146 161 149
123 142 125
86 112 66
81 107 63
83 109 65
89 115 68
82 108 64
83 109 64
90 117 70
85 111 67
89 116 69
88 114 68
88 114 68
85 112 66
87 113 67
92 118 70
85 112 67
88 114 68
88 114 68
81 106 63
115 137 107
184 196 203
181 193 200
175 187 191
185 197 204
183 196 204
159 174 171
140 157 146
118 138 113
90 116 69
87 113 67
86 113 67
82 108 64
90 117 71
88 114 67
86 112 66
88 114 68
87 113 67
90 117 70
89 116 69
84 109 65
84 110 65
85 110 65
84 110 65
122 141 121
185 196 202
188 199 205
175 188 193
191 202 210
181 193 198
186 197 202
176 188 192
182 193 200
186 198 206
187 198 206
185 196 202
183 195 200
188 199 206
182 195 203
186 198 205
171 183 187
187 198 206
181 193 200
161 175 173
140 157 147
127 144 129
103 124 94
89 115 69
88 115 68
169 182 184
181 193 199
192 203 210
192 203 210
181 193 199
176 189 193
192 203 210
193 204 213
194 205 213
190 202 210
193 203 210
193 204 212
186 197 204
182 193 199
189 200 206
187 199 207
186 197 206
186 198 206
195 206 214
184 196 204
183 194 197
188 200 208
187 199 207
189 200 207
156 170 166
82 108 64
85 111 66
84 111 66
82 108 64
86 112 67
87 113 67
88 114 67
88 115 69
89 116 69
87 113 67
86 112 66
87 113 66
83 108 64
87 113 67
89 115 69
82 107 63
82 108 64
92 119 71
87 113 67
88 115 68
87 113 67
90 116 70
90 116 70
94 119 79
181 193 200
188 199 205
181 193 199
183 196 203
178 190 194
165 179 178
167 180 179
147 163 154
129 147 133
120 139 119
114 134 109
101 122 91
86 112 68
87 113 67
90 116 70
84 110 65
87 113 67
85 111 65
89 115 68
85 111 66
86 112 67
88 114 68
90 116 69
82 108 64
175 187 192
192 203 211
180 191 197
182 194 201
188 199 206
179 191 196
185 197 204
179 192 196
189 199 207
183 194 200
186 198 206
185 197 201
192 203 210
192 203 210
175 188 191
190 201 211
181 194 201
182 194 199
196 207 215
191 203 211
192 203 211
181 194 199
182 195 201
161 176 171
81 106 63
86 112 66
87 113 67
85 111 65
87 114 68
86 112 67
89 115 68
87 114 68
91 118 70
85 111 66
86 112 66
86 112 67
85 111 65
88 114 68
90 117 70
84 111 66
89 116 69
91 118 70
87 113 67
87 113 67
86 112 66
86 112 66
157 171 170
187 198 207
189 201 207
186 197 203
175 188 192
189 201 209
189 200 207
197 207 215
188 198 206
178 190 195
188 199 207
190 201 209
176 188 193
179 191 196
185 196 204
185 197 202
182 194 200
190 202 211
175 187 191
184 196 202
191 203 211
177 188 191
123 140 122
88 115 69
86 112 66
82 108 64
84 110 65
87 112 66
91 118 70
89 116 69
89 116 69
87 112 67
85 110 66
86 112 66
88 114 68
84 110 65
87 113 66
88 114 68
86 113 67
84 110 65
84 110 65
87 113 67
97 119 85
171 183 185
189 199 207
190 202 212
189 200 209
178 189 193
195 205 212
177 189 194
184 194 198
191 201 210
188 199 206
188 199 204
188 199 205
189 200 208
181 193 198
179 191 195
185 197 204
187 198 206
193 204 211
192 203 212
157 170 168
85 112 67
86 112 67
86 113 67
86 112 67
103 126 91
111 133 109
130 147 132
138 155 142
146 163 156
153 166 162
168 182 183
175 188 194
183 194 201
190 202 209
185 196 204
177 189 196
191 202 209
160 174 172
93 117 77
87 114 68
86 112 66
88 115 68
83 108 63
85 111 65
90 116 70
85 111 66
87 113 67
85 112 67
89 115 69
88 114 67
87 113 67
88 115 68
89 115 69
91 116 76
156 170 165
183 196 203
186 198 206
182 194 200
185 196 203
175 187 192
178 190 197
181 193 200
192 203 211
187 199 206
182 194 201
185 195 201
177 189 194
150 166 161
150 165 163
172 184 188
186 198 205
182 194 202
181 194 203
186 198 206
180 191 196
185 196 200
186 198 203
172 186 190
177 189 194
189 200 208
178 191 197
166 180 182
100 122 91
83 108 63
87 114 68
91 114 78
127 144 130
154 168 162
171 182 183
190 200 207
177 188 195
174 186 189
133 151 136
88 114 68
83 108 65
87 113 70
89 114 76
95 118 84
121 141 121
134 150 138
167 180 179
166 180 188
160 174 171
130 146 137
141 159 149
224 237 254
209 222 236
171 186 188
127 145 133
111 132 108
87 112 70
115 134 115
134 151 143
181 192 197
179 191 198
162 175 175
158 171 171
175 187 191
160 174 175
165 179 179
159 172 173
187 198 206
190 201 208
185 196 204
165 178 178
108 128 101
156 168 162
183 196 201
178 191 196
180 191 197
175 188 193
184 196 204
188 199 205
180 190 196
182 194 201
180 191 196
172 184 186
136 153 145
108 127 102
86 113 66
84 110 65
84 110 64
83 108 65
90 117 70
111 131 105
164 177 179
181 193 198
185 197 205
179 191 197
180 192 197
181 193 202
174 188 190
153 167 162
102 122 98
88 114 71
85 111 66
90 116 69
88 115 69
87 113 67
85 111 66
89 115 68
90 117 70
88 114 67
86 112 66
86 112 66
81 107 62
132 149 133
182 193 200
173 186 188
186 197 203
183 194 202
181 192 197
161 175 173
121 139 121
104 126 97
79 104 60
90 116 69
83 109 64
91 118 71
86 112 66
84 111 65
89 115 69
87 113 67
80 106 62
89 115 69
91 117 70
86 112 67
86 112 66
87 113 67
122 141 123
186 197 204
175 187 193
174 186 191
194 206 216
183 195 199
185 197 203
183 195 202
173 185 189
176 188 193
163 176 175
143 158 147
114 133 112
85 111 65
85 111 66
88 114 69
81 105 62
85 111 65
83 109 65
87 113 67
87 113 68
84 110 65
90 117 70
82 108 64
134 151 139
189 199 206
190 201 207
194 205 214
186 198 205
182 193 200
189 200 206
177 189 193
185 197 203
192 203 212
189 201 210
185 196 202
195 206 213
183 195 202
192 203 211
182 193 199
176 188 192
182 193 199
186 197 204
187 198 205
179 191 197
177 189 194
180 193 199
179 190 196
148 163 158
139 155 144
163 177 174
171 184 184
189 201 208
182 193 199
189 200 206
184 195 200
190 201 208
181 193 198
190 200 208
188 199 205
187 198 205
175 186 191
182 193 199
191 201 210
177 190 197
184 195 201
182 194 200
190 200 207
190 202 208
191 202 211
187 198 205
184 196 202
188 199 204
135 153 137
89 115 68
88 115 69
85 111 66
87 113 68
84 110 65
88 114 68
88 114 68
90 116 69
88 115 68
89 116 69
86 111 65
85 112 67
86 111 66
85 112 66
88 114 68
86 112 66
83 109 65
85 112 67
86 112 66
84 110 65
90 117 70
87 113 67
86 111 66
142 159 148
190 201 207
195 206 215
188 200 207
190 201 208
191 202 210
191 202 210
182 194 202
174 187 192
185 196 202
190 201 208
182 193 199
192 203 212
184 196 205
175 187 191
164 178 180
163 176 171
159 172 169
140 157 145
137 154 139
121 141 121
121 141 118
105 126 93
90 116 72
135 152 138
200 210 222
181 192 198
187 198 204
180 192 198
187 198 203
177 189 192
181 193 201
185 197 204
185 197 204
189 199 205
178 191 196
175 188 193
183 195 202
192 202 208
180 193 200
188 200 211
179 191 196
177 189 193
186 199 208
189 201 212
186 197 202
181 192 197
181 193 198
109 133 99
92 119 71
88 114 68
92 119 72
87 113 67
86 112 67
86 112 66
89 116 70
86 112 66
87 113 67
83 109 64
86 112 66
89 115 69
89 115 68
85 110 65
92 118 70
83 110 66
86 112 67
89 115 69
88 115 69
90 116 69
88 114 67
114 133 111
182 193 196
178 190 198
184 195 203
194 204 212
181 192 197
182 194 197
187 199 207
184 196 203
193 203 211
188 199 205
193 204 214
173 185 190
188 199 206
188 199 206
181 193 198
180 192 198
183 194 200
188 200 206
189 201 210
185 197 205
180 191 195
143 159 150
81 107 63
86 112 66
85 111 65
91 117 70
87 113 67
82 107 63
88 115 69
87 113 67
88 115 68
89 115 68
84 110 65
90 117 70
80 106 62
84 111 66
85 111 66
85 110 65
86 113 68
87 114 68
95 122 73
91 116 75
158 173 174
188 199 205
180 192 198
185 196 202
177 190 196
192 203 211
176 188 192
193 204 213
185 196 202
180 193 199
184 196 203
186 197 202
182 194 200
181 194 201
176 188 193
170 182 185
171 184 188
160 175 173
154 168 163
168 181 179
153 169 166
163 177 176
170 183 182
170 183 187
185 196 203
181 193 199
184 197 205
187 198 204
191 201 207
181 193 201
180 192 197
180 192 195
181 193 197
190 201 207
187 199 206
179 191 194
177 189 196
153 168 165
92 117 80
84 111 65
88 115 69
87 113 68
87 113 68
84 110 65
86 112 66
83 108 64
85 112 67
87 114 67
85 111 65
84 109 64
87 114 69
87 113 68
86 112 67
103 125 97
164 178 180
187 199 205
183 195 202
182 194 202
179 191 196
182 194 200
183 194 201
188 199 205
181 192 198
150 165 159
154 169 166
124 143 126
98 122 87
87 114 68
136 152 139
179 192 194
181 193 198
178 190 197
177 189 194
181 193 199
190 202 209
178 189 194
180 192 199
178 190 195
182 193 197
184 195 204
187 198 205
127 144 131
88 115 71
108 129 103
129 146 130
152 165 165
184 196 203
176 188 193
180 193 201
175 187 194
163 177 179
180 192 197
132 148 136
154 168 165
152 167 161
134 151 138
99 120 96
84 108 66
99 123 90
142 159 156
158 172 172
132 150 139
113 133 114
158 173 170
208 222 235
224 237 254
224 237 254
224 237 254
224 237 254
222 235 252
205 217 229
184 196 204
139 155 146
85 109 73
85 110 68
120 139 118
151 166 163
185 197 205
176 188 195
178 190 197
163 177 181
149 164 156
112 131 108
94 117 82
131 148 132
124 141 126
134 150 137
120 140 121
117 137 117
129 146 131
156 169 163
177 190 195
181 192 199
174 186 191
192 202 211
183 195 203
189 199 207
186 199 206
185 197 202
174 186 190
159 173 174
156 171 165
115 135 113
87 113 67
85 111 67
94 118 81
168 180 184
173 184 187
171 183 189
181 193 198
178 190 195
186 197 204
183 194 200
178 190 196
176 188 194
177 189 191
157 170 169
121 139 119
87 114 68
82 108 63
87 113 67
88 115 68
87 112 66
86 112 66
88 114 68
84 110 65
84 110 65
134 151 137
174 186 193
176 188 194
188 198 205
179 191 194
176 188 192
182 195 202
182 194 198
181 193 198
162 176 173
145 161 153
117 136 112
93 119 77
86 112 67
88 115 69
86 112 66
88 115 69
88 115 69
82 108 63
87 113 67
83 109 64
80 105 62
85 111 66
138 154 142
177 189 192
187 199 206
179 191 196
180 193 202
185 197 206
181 194 200
186 198 206
189 200 207
188 199 205
183 194 201
192 203 211
193 203 212
176 189 193
156 171 168
148 165 155
116 136 114
90 113 74
88 115 69
84 110 65
87 114 68
85 111 65
91 117 70
91 117 70
154 169 167
186 197 205
187 198 207
192 204 212
186 198 205
181 193 198
185 196 202
189 200 208
192 204 213
187 199 207
181 193 198
182 194 198
185 195 200
187 198 205
185 196 203
179 191 195
175 186 189
186 197 203
183 195 202
183 195 201
183 194 202
189 201 209
186 198 206
182 194 201
144 159 150
84 110 65
89 117 70
83 109 64
96 120 84
116 135 114
136 153 137
144 162 152
171 185 187
181 192 198
189 200 205
185 197 203
174 186 191
177 189 192
177 188 193
188 199 207
187 199 208
178 190 197
189 200 208
190 202 210
186 197 202
183 194 199
182 194 200
179 191 195
172 185 187
79 104 61
86 113 67
89 116 69
87 113 68
91 118 71
83 108 64
86 113 67
82 109 64
89 116 69
85 111 65
89 115 69
87 113 67
85 111 66
89 116 69
90 116 69
89 115 68
90 117 70
85 112 66
87 114 68
88 114 68
90 116 69
83 109 64
90 117 70
88 115 69
182 194 199
188 199 206
184 196 204
189 200 207
183 194 200
184 195 201
191 202 210
178 190 195
182 195 200
185 198 207
181 193 200
187 198 205
187 197 204
185 197 204
188 201 210
191 202 210
188 200 207
182 193 196
173 185 189
178 191 195
186 198 204
180 191 196
189 200 205
186 197 204
94 118 83
101 124 88
109 131 103
124 142 124
138 155 143
145 160 149
160 174 169
146 161 155
170 183 184
166 178 177
177 189 194
165 179 181
190 201 208
189 201 209
186 198 204
177 189 195
187 197 205
178 189 192
177 190 195
192 203 210
188 199 206
185 196 204
194 205 216
132 150 133
86 112 66
86 113 67
84 110 65
89 116 69
87 112 67
84 110 66
87 114 68
87 113 68
86 112 67
85 112 66
88 114 68
89 115 68
90 117 70
85 111 65
86 111 66
88 114 67
87 113 68
89 115 68
87 113 67
92 119 72
82 108 63
92 116 80
176 189 194
191 202 209
189 200 207
187 198 205
179 190 193
181 193 199
192 203 211
187 198 205
182 194 201
183 194 201
192 203 212
181 193 198
185 196 202
189 200 205
190 201 209
192 202 209
190 201 209
180 192 199
184 196 204
185 197 204
185 196 201
161 176 172
86 113 67
90 117 69
90 117 70
87 113 67
87 113 67
84 110 65
88 114 68
86 112 67
86 112 66
87 113 67
87 114 67
84 110 66
88 114 68
90 116 69
87 113 67
85 111 66
86 112 66
87 114 68
86 113 68
90 116 72
162 175 175
183 195 199
187 198 204
176 189 193
174 185 187
176 189 192
168 182 180
153 169 164
165 179 177
149 165 156
129 148 132
128 145 127
121 140 118
107 129 97
99 122 85
87 112 67
87 113 67
85 110 65
91 118 71
132 149 137
170 183 185
191 202 210
185 197 204
180 192 198
186 198 204
187 198 205
188 200 207
178 190 196
183 195 202
184 195 201
181 193 198
182 194 200
179 191 194
186 197 204
183 193 199
190 202 211
185 196 202
141 157 147
83 109 64
87 113 67
84 110 66
85 110 65
86 112 67
84 109 64
83 109 64
85 111 66
86 112 67
88 115 69
90 116 69
89 116 69
83 109 65
80 106 62
88 114 68
126 144 127
173 185 189
180 191 197
180 192 197
177 189 193
169 182 183
150 165 160
133 151 137
120 140 118
103 125 93
86 112 67
84 110 65
82 108 63
89 115 68
85 110 71
145 161 153
172 184 191
176 189 194
176 188 193
190 201 209
185 196 202
173 186 190
172 184 190
170 183 186
177 189 194
184 195 201
180 193 200
155 170 169
148 164 158
155 170 165
167 180 182
155 170 169
137 153 143
154 168 161
118 136 117
113 133 114
113 134 110
115 135 111
158 172 172
150 165 162
139 155 144
110 130 103
86 113 66
87 113 67
96 119 83
121 138 123
135 152 138
101 122 92
150 167 162
197 211 221
222 235 252
224 237 254
224 237 254
224 237 254
224 237 254
224 237 254
224 237 254
224 237 254
224 237 254
224 237 254
220 233 249
207 219 233
175 189 192
134 149 140
89 114 73
87 110 73
124 142 125
166 179 181
180 192 197
180 193 199
178 191 197
169 182 184
129 146 134
111 132 106
152 166 159
178 191 198
174 186 188
179 191 195
180 193 200
177 190 195
156 170 173
147 162 160
135 152 138
129 146 134
140 156 149
145 161 157
165 178 180
172 185 190
177 189 194
175 187 193
177 189 196
168 182 183
150 164 161
115 136 108
175 187 192
188 200 208
174 186 191
180 192 195
186 197 204
176 188 192
180 191 196
177 188 191
187 197 203
184 195 201
177 190 194
190 200 206
175 186 190
154 168 165
134 151 138
107 129 103
85 111 66
87 113 67
88 115 69
87 113 67
83 109 64
127 145 126
181 193 200
172 184 186
182 193 199
182 194 198
185 196 202
177 189 192
180 192 199
185 197 202
182 193 198
188 200 208
181 194 202
169 181 186
161 174 173
140 157 146
108 129 103
86 113 67
86 111 66
90 116 69
85 111 66
86 112 67
84 110 66
87 115 69
136 154 142
186 198 205
188 200 207
182 194 201
181 192 198
195 206 214
179 190 195
174 186 190
183 195 202
176 188 192
181 194 199
181 193 199
184 195 201
187 198 204
192 203 213
183 195 203
176 188 193
181 193 199
162 176 176
151 166 160
116 135 116
98 123 86
87 113 67
87 113 67
178 190 193
180 191 197
190 201 208
183 194 199
184 195 201
186 198 205
188 200 207
187 199 206
190 202 211
192 202 209
184 196 201
181 193 198
188 200 208
185 196 200
182 194 200
177 189 192
180 192 197
174 186 191
179 192 198
179 191 196
192 203 209
191 200 207
178 190 196
186 197 203
111 131 103
84 110 66
85 111 66
85 111 66
84 109 65
82 107 63
87 113 67
87 113 67
84 110 65
89 115 68
106 127 100
112 133 106
158 171 166
149 165 161
172 184 183
181 193 197
187 198 202
182 194 200
185 197 203
173 186 189
184 195 203
188 200 207
179 190 194
177 190 195
128 146 135
88 113 67
85 111 67
84 110 65
86 112 67
86 113 67
89 115 69
87 112 67
89 116 69
85 111 66
84 110 66
87 113 67
87 113 67
88 114 68
86 112 66
88 115 68
90 116 69
82 107 64
89 115 69
85 111 65
87 113 67
84 110 65
86 112 67
87 112 66
142 158 146
190 201 210
180 191 198
174 186 191
185 196 203
183 194 198
178 190 194
176 189 194
177 189 194
194 204 211
181 193 199
183 195 200
179 190 193
185 197 201
176 187 191
178 191 197
184 196 203
190 201 210
187 199 207
183 195 202
179 191 198
179 191 193
196 207 216
185 197 204
132 151 136
89 115 69
86 112 67
84 110 65
89 115 68
87 113 67
88 114 68
86 113 67
88 114 68
87 113 67
87 113 67
88 114 68
84 109 65
85 111 66
90 115 76
105 127 98
98 120 88
105 128 97
126 144 123
134 151 137
141 157 146
148 163 155
157 171 165
157 171 167
144 160 148
124 141 125
113 134 109
108 128 103
108 130 101
109 130 103
104 127 92
90 113 78
96 120 83
88 113 72
89 116 69
86 112 66
83 109 64
86 113 67
89 115 68
83 109 64
85 111 66
86 112 66
89 115 69
87 113 67
85 111 67
96 121 80
169 182 185
180 192 199
187 198 206
183 195 202
183 195 202
179 191 196
172 186 191
184 195 204
177 188 193
179 191 195
191 202 207
188 199 206
177 189 193
186 197 206
187 199 206
187 198 205
189 200 209
183 194 199
184 194 199
179 191 195
184 196 202
163 176 175
89 115 73
87 114 68
84 110 65
89 115 69
92 117 75
94 119 76
101 124 88
99 122 90
108 130 100
107 128 103
118 138 117
126 144 126
132 149 136
127 144 126
146 162 154
138 153 143
150 165 154
162 176 174
150 165 156
164 178 178
110 131 103
96 118 85
108 130 98
87 113 69
88 114 68
86 112 66
88 115 69
88 115 69
84 109 65
87 113 67
83 109 65
84 110 65
87 112 66
86 113 67
87 114 68
83 109 64
81 106 62
90 117 69
88 114 68
130 147 132
183 195 199
173 184 189
187 197 203
184 196 203
188 200 208
189 200 205
178 190 194
176 189 192
182 195 200
178 190 195
177 188 193
181 193 199
187 198 205
179 191 198
176 188 191
174 187 191
187 198 207
129 146 130
82 108 64
90 116 69
86 112 66
84 110 65
81 107 63
84 110 65
84 109 64
87 114 68
89 116 69
82 108 63
82 107 63
84 110 65
87 114 68
87 113 69
88 113 67
130 147 135
165 179 178
142 158 150
128 147 136
116 137 111
101 124 92
86 112 66
88 114 69
80 105 62
85 111 66
87 113 68
85 111 66
83 109 65
83 109 65
114 134 110
166 179 179
185 196 201
181 193 200
182 194 201
192 203 212
176 189 194
182 194 201
174 186 191
170 182 187
168 181 181
176 188 192
167 181 183
107 127 101
126 142 130
105 126 98
88 113 70
84 110 64
86 112 66
85 111 66
86 112 67
80 106 62
92 115 78
124 143 126
115 134 116
86 111 71
85 110 65
84 110 65
80 105 66
95 117 82
90 114 78
104 126 97
142 159 148
193 207 216
217 230 246
224 237 254
224 237 254
224 237 254
224 237 254
224 237 254
224 237 254
224 237 254
224 237 254
224 237 254
224 237 254
224 237 254
224 237 254
224 237 254
224 237 254
224 237 254
215 227 244
198 211 222
162 176 175
130 147 137
86 112 68
94 115 85
129 146 134
166 179 183
175 189 194
181 193 199
163 176 179
159 173 174
131 146 138
178 190 195
175 188 193
178 190 196
188 199 208
184 196 203
173 185 190
186 197 204
151 166 160
119 138 120
90 114 78
83 110 65
83 109 64
92 116 77
100 122 92
125 143 125
128 145 128
143 159 148
148 163 158
135 152 140
158 172 171
175 187 189
169 182 184
169 181 182
182 194 202
186 198 206
183 194 198
182 195 204
174 187 190
184 196 204
180 191 196
183 195 200
169 181 183
176 188 193
173 185 191
166 179 180
141 157 149
121 141 121
84 109 65
87 113 68
127 145 129
185 196 205
182 193 198
182 194 204
177 190 199
171 183 187
183 194 199
181 194 203
170 184 190
183 195 201
177 189 193
192 203 210
185 195 201
171 183 186
182 193 199
174 185 190
169 181 185
152 168 162
126 145 128
97 120 86
84 110 65
85 111 66
85 111 66
141 158 150
181 193 200
178 190 195
182 194 200
181 193 198
180 192 196
185 196 201
178 189 195
183 194 200
186 198 204
185 197 203
183 195 202
178 190 196
181 193 199
179 190 195
179 190 197
192 204 214
189 200 207
181 193 201
181 192 197
186 196 202
182 193 199
167 180 181
145 162 155
163 177 174
168 181 182
179 191 197
180 192 199
182 194 200
181 193 197
178 190 196
193 204 214
185 196 204
185 196 204
169 181 184
190 201 209
189 200 207
193 203 211
185 195 200
189 199 206
187 198 204
179 191 195
178 190 196
186 198 204
188 200 206
185 197 202
182 193 199
172 184 187
85 111 65
83 108 64
84 109 64
89 115 69
84 110 65
82 107 63
84 110 65
89 115 69
85 112 67
83 109 65
85 111 66
84 110 65
84 110 65
86 112 66
83 109 65
88 112 71
106 128 98
128 147 131
140 156 145
154 169 165
176 188 190
182 194 202
187 199 207
169 181 182
89 113 78
90 117 70
91 118 70
90 117 70
87 112 66
87 114 68
84 110 66
85 110 65
89 116 70
84 110 66
90 117 70
90 117 70
82 108 63
86 112 66
86 112 66
85 111 66
86 112 66
83 108 64
88 114 67
87 113 67
87 113 67
87 113 67
91 118 71
92 116 79
174 187 191
190 201 209
184 196 204
190 201 206
189 200 208
176 188 192
182 194 200
182 193 200
188 199 205
179 190 195
188 199 206
185 196 203
179 190 195
178 190 194
192 203 212
186 197 204
186 197 203
189 200 207
178 191 198
181 192 198
178 190 197
187 198 206
182 194 202
167 180 181
86 112 67
85 111 66
86 111 65
87 114 68
89 116 70
86 112 67
85 111 66
90 116 69
86 113 67
90 115 68
88 114 68
86 112 66
84 110 65
84 109 65
87 113 67
89 116 69
91 117 70
88 114 68
89 116 70
85 111 66
87 114 68
83 109 65
111 132 104
171 183 186
181 192 198
181 193 198
186 197 204
186 198 207
182 193 199
175 187 193
190 201 207
200 211 220
182 193 198
181 192 197
184 196 201
179 192 197
165 179 182
178 191 196
183 195 200
172 186 187
174 186 189
170 182 183
166 179 177
161 175 173
175 187 189
121 140 118
117 138 116
125 142 128
107 128 104
131 148 134
115 135 113
126 145 127
134 152 136
132 149 135
117 137 116
130 147 133
126 145 126
125 142 125
124 142 123
129 148 131
125 144 125
114 135 111
121 141 117
104 124 101
104 127 96
116 136 115
117 138 114
178 189 192
174 187 192
176 189 193
188 200 208
183 194 199
175 187 192
190 201 208
180 191 198
179 192 201
180 192 197
177 189 193
180 193 199
182 193 201
181 193 201
176 190 198
182 194 200
181 193 200
175 187 193
177 189 193
175 187 195
134 152 137
86 112 67
82 108 64
86 112 66
84 110 65
89 116 69
85 111 66
87 113 67
86 112 67
89 115 69
86 112 68
86 112 67
85 111 66
86 112 67
82 108 64
83 109 64
86 112 67
88 114 69
83 109 65
140 156 145
192 202 209
187 199 207
182 193 199
186 197 204
178 190 195
181 192 197
189 200 208
172 186 191
187 198 206
174 185 190
186 197 205
184 197 204
175 187 194
176 188 193
187 199 207
175 187 192
183 195 200
142 158 148
85 111 66
83 109 64
86 112 66
86 112 66
83 109 64
81 107 63
83 108 64
84 110 66
82 108 64
87 114 68
87 114 69
104 125 98
120 138 121
141 158 145
140 155 145
112 133 110
88 113 70
86 113 67
86 112 67
82 107 63
89 116 69
83 109 65
81 107 64
87 114 68
88 114 69
81 107 63
90 115 74
106 128 100
112 133 104
106 126 103
150 163 158
147 163 157
147 162 153
114 134 112
121 139 122
103 124 95
113 133 106
127 144 130
153 167 162
170 182 184
175 187 192
157 171 167
111 132 104
87 113 67
84 110 65
82 108 64
86 112 67
86 112 67
90 115 73
103 125 99
129 146 133
115 134 116
82 106 66
85 111 66
82 107 64
85 111 69
122 140 123
137 153 145
99 121 95
122 141 126
174 188 193
213 226 241
224 237 254
224 237 254
224 237 254
224 237 254
224 237 254
224 237 254
224 237 254
224 237 254
224 237 254
224 237 254
224 237 254
224 237 254
224 237 254
224 237 254
224 237 254
224 237 254
224 237 254
224 237 254
224 237 254
224 237 254
222 235 252
214 227 243
196 208 219
158 172 170
117 135 114
80 104 64
113 133 108
131 147 137
172 184 184
170 183 188
122 140 126
80 105 62
122 139 122
155 169 167
178 189 193
182 194 201
171 184 190
181 192 199
176 188 195
176 187 191
170 183 186
148 163 158
129 146 134
84 109 68
83 109 64
81 105 62
83 108 64
83 108 64
80 105 62
150 165 160
183 196 203
174 186 190
180 191 194
147 162 154
129 144 132
112 131 111
103 126 95
114 134 112
127 146 130
142 158 149
134 150 139
162 176 177
146 160 153
163 176 178
178 190 193
174 188 192
174 186 190
178 190 196
186 197 204
162 176 175
148 163 154
181 193 198
179 192 199
179 191 196
187 198 206
180 192 199
177 189 194
186 198 207
175 188 192
183 196 204
180 193 200
187 198 206
173 186 190
179 190 195
182 194 198
171 183 188
184 195 202
184 197 203
187 198 206
182 194 200
162 176 177
160 174 170
117 136 120
166 179 179
183 195 202
183 195 201
187 199 206
181 193 199
189 201 210
183 194 198
182 195 200
175 188 192
183 195 201
179 191 199
176 187 192
177 189 193
189 199 205
181 194 199
181 193 197
182 192 197
181 193 201
168 181 186
179 190 194
173 186 192
175 186 190
179 191 196
161 175 172
90 117 70
81 107 63
89 114 73
121 140 122
148 163 156
163 176 176
172 184 187
176 187 190
183 195 204
183 195 202
182 194 200
182 194 200
175 188 193
179 191 197
184 196 203
183 196 203
186 197 203
183 195 203
181 191 194
188 198 206
186 198 205
181 192 199
183 195 201
154 168 161
83 110 65
88 114 68
86 112 66
84 109 65
82 108 63
86 112 67
87 113 66
87 112 66
80 106 62
87 114 68
89 116 69
85 111 66
83 109 63
86 111 66
87 113 67
85 112 66
90 117 70
86 113 68
84 110 65
85 111 66
87 114 68
85 112 66
107 128 100
143 159 149
150 166 161
141 157 147
127 146 129
111 132 104
88 114 68
89 116 69
86 112 67
89 115 68
86 113 68
81 107 63
88 114 68
84 110 65
89 115 69
88 115 67
83 109 65
88 114 67
83 109 64
91 118 70
85 111 66
87 113 67
84 110 66
90 116 69
89 115 68
126 144 131
193 203 210
177 189 194
181 193 196
187 199 208
176 188 193
187 198 206
171 184 190
191 202 211
175 187 193
171 183 187
188 199 206
185 198 206
172 184 188
186 197 204
190 201 210
187 198 207
186 198 206
186 197 204
183 195 199
172 185 189
186 198 204
186 198 206
179 192 198
101 124 91
87 113 67
88 114 67
85 111 66
83 110 65
88 114 68
88 115 69
84 111 66
88 114 67
84 109 64
80 106 62
86 111 66
84 110 65
84 110 65
84 110 65
83 109 64
88 114 68
86 113 68
88 114 68
84 110 65
80 105 62
85 110 65
86 113 67
154 168 164
194 205 212
181 191 196
180 193 199
196 207 215
180 191 197
182 193 198
185 197 202
173 185 188
169 181 182
183 195 201
188 199 206
190 201 209
188 199 206
180 193 199
186 197 204
176 189 192
186 197 203
185 197 205
191 203 212
173 186 191
185 196 202
154 168 167
86 112 67
87 113 68
84 110 64
86 111 66
88 114 69
81 107 63
86 113 67
89 115 68
86 112 67
80 106 62
88 114 68
90 116 70
87 113 68
81 106 62
81 106 62
86 112 66
87 113 67
88 114 67
87 114 68
84 110 65
88 113 73
175 186 189
172 184 188
184 196 203
185 196 203
183 195 204
175 188 192
184 195 201
184 196 201
181 192 197
185 196 201
186 197 205
177 189 195
186 197 204
187 197 203
187 198 205
185 196 203
186 197 203
177 190 196
170 183 187
184 194 200
138 154 145
88 115 68
82 107 62
86 112 66
82 108 64
85 111 66
85 111 66
84 110 65
88 114 67
91 117 71
88 115 69
86 112 67
84 110 65
86 113 68
85 111 66
84 110 65
81 107 63
84 110 66
86 112 66
124 141 128
178 191 196
180 192 197
191 203 212
176 188 192
178 190 195
176 188 193
175 187 191
177 190 197
184 195 202
179 191 196
188 199 208
187 198 205
187 198 206
177 189 193
173 186 191
182 193 200
180 192 197
115 135 110
85 111 65
90 116 69
81 106 62
86 112 67
86 112 66
87 112 69
84 110 65
129 146 133
129 147 134
154 168 163
170 182 186
176 188 192
175 187 193
183 194 201
175 187 191
123 143 124
100 123 88
119 139 119
122 141 123
118 137 120
143 158 151
136 151 142
149 164 160
147 163 159
163 177 178
168 181 183
174 188 192
184 195 203
159 173 174
121 140 120
82 109 64
85 111 66
85 110 71
104 124 99
147 162 157
157 172 169
177 190 197
178 191 197
180 192 199
173 186 189
174 186 189
107 128 101
86 112 67
86 112 67
86 112 66
83 108 63
98 121 87
129 148 130
151 164 161
165 178 179
137 153 143
91 116 79
80 106 62
95 119 79
124 143 126
151 166 162
146 161 157
131 148 136
168 183 184
208 221 234
223 236 253
224 237 254
224 237 254
224 237 254
224 237 254
224 237 254
224 237 254
224 237 254
224 237 254
224 237 254
224 237 254
224 237 254
224 237 254
224 237 254
224 237 254
224 237 254
224 237 254
224 237 254
224 237 254
224 237 254
224 237 254
224 237 254
224 237 254
224 237 254
224 237 254
224 237 254
223 236 253
207 219 233
177 190 195
141 156 150
89 113 77
89 114 71
96 118 88
122 140 123
108 127 107
75 101 59
84 109 64
81 107 63
104 125 96
132 147 136
161 175 177
181 192 199
179 191 197
165 178 184
178 190 198
173 186 192
180 192 196
148 162 156
129 146 131
105 126 94
87 112 67
77 102 60
143 156 152
180 192 202
178 190 197
180 192 199
181 193 198
175 187 194
168 180 183
163 177 176
138 153 145
99 120 90
84 110 65
83 109 64
84 109 64
81 106 62
83 109 65
84 110 64
86 112 67
80 105 62
91 115 76
110 130 106
113 134 109
127 145 130
135 151 140
161 175 174
178 191 197
166 178 177
146 161 157
151 167 161
156 170 168
155 169 168
166 179 179
176 189 193
174 187 192
173 185 189
185 196 202
178 190 194
187 198 204
169 180 182
170 183 187
181 193 198
175 187 192
170 183 186
175 187 191
171 183 188
101 123 92
109 129 105
132 149 137
161 175 175
168 181 183
183 194 201
176 188 194
180 192 197
179 191 196
177 189 194
177 190 195
186 198 204
171 183 188
184 196 204
188 199 205
169 182 186
179 191 197
177 189 194
185 196 202
163 177 181
183 195 203
170 181 184
188 199 205
128 145 131
87 113 67
83 109 64
87 113 68
85 111 66
83 110 65
87 113 67
85 111 66
106 129 97
124 143 124
147 163 155
170 182 184
173 185 189
184 196 204
182 193 198
176 189 195
183 195 201
172 185 189
175 187 191
186 197 204
183 195 201
180 191 196
173 186 192
177 190 196
112 133 107
86 111 67
89 115 69
83 109 65
85 111 66
85 111 67
85 111 66
85 111 66
85 111 65
81 107 63
84 110 64
80 105 61
82 108 64
83 109 65
82 107 64
82 107 63
89 115 68
84 109 65
87 113 67
84 110 64
88 115 69
85 111 65
82 108 64
84 109 65
159 173 173
178 190 195
187 198 207
183 195 203
184 195 201
180 192 197
161 175 177
154 168 163
142 158 149
135 152 136
105 126 99
109 130 103
88 115 68
87 113 67
87 113 67
83 110 65
81 106 63
85 112 66
89 116 69
90 117 70
89 115 68
85 111 65
86 112 66
95 119 84
172 184 186
178 191 195
174 186 189
179 191 197
184 196 204
178 191 196
182 194 203
194 205 213
182 194 200
178 190 193
187 198 204
186 198 205
185 197 207
183 196 204
180 192 199
184 194 200
183 194 200
176 189 194
191 202 211
185 196 202
178 190 195
176 188 193
180 192 200
134 150 138
85 111 66
86 111 66
85 111 65
87 114 68
88 114 68
86 112 67
81 107 62
86 112 67
86 113 68
85 112 67
85 111 66
88 114 68
84 109 65
87 114 68
84 110 65
88 114 69
87 114 68
86 112 67
87 113 67
83 109 65
88 114 68
88 114 68
134 151 138
192 203 211
176 188 195
187 198 206
181 194 201
178 191 198
179 190 196
173 185 188
185 197 204
186 196 201
184 196 203
179 191 198
185 196 203
179 190 196
182 194 200
187 199 205
183 194 202
183 194 198
186 197 204
181 192 199
182 194 198
191 201 208
164 177 179
98 122 87
83 109 64
89 115 69
82 108 63
85 112 67
85 111 65
82 108 64
88 114 69
89 116 69
89 116 69
86 113 67
87 113 67
83 109 64
86 112 67
84 109 64
82 107 63
89 116 70
85 111 66
81 107 63
86 112 66
86 110 70
166 180 180
186 197 204
186 199 207
191 202 211
187 199 207
189 200 206
178 190 196
172 185 189
179 190 197
179 190 194
177 189 195
184 194 200
181 194 198
174 185 188
183 195 201
176 189 193
179 190 196
174 185 187
193 204 214
175 187 193
149 164 156
83 108 64
90 117 70
81 106 62
86 112 67
85 112 66
87 114 68
86 112 67
87 114 68
81 107 63
82 107 63
83 108 64
80 106 63
81 106 62
81 107 63
87 114 68
84 110 65
83 109 63
87 112 69
145 161 154
183 194 201
177 189 196
190 201 210
183 195 201
175 187 191
178 190 192
179 192 201
184 195 201
175 186 192
184 195 203
185 196 204
186 198 206
187 198 204
181 193 198
177 190 194
180 192 196
167 180 179
99 124 85
97 122 88
105 125 96
112 132 109
130 147 134
124 140 124
139 157 147
154 168 166
156 170 165
132 149 139
145 160 148
119 138 117
124 142 123
107 127 103
95 117 82
141 157 147
183 195 201
184 195 202
166 177 178
185 196 203
175 187 191
180 193 201
188 200 208
182 193 201
177 190 196
182 193 198
184 195 199
182 194 200
169 181 185
142 158 151
100 123 92
139 155 145
137 152 145
161 176 176
177 189 194
179 190 194
172 184 188
182 194 199
183 194 202
188 200 209
177 189 194
147 162 154
88 113 70
76 100 58
93 119 77
124 142 122
152 167 161
159 173 174
168 179 182
163 176 177
139 155 147
95 119 81
95 115 87
129 145 133
150 165 161
171 184 186
163 177 179
182 196 202
197 209 220
221 234 251
224 237 254
224 237 254
224 237 254
224 237 254
224 237 254
224 237 254
224 237 254
224 237 254
224 237 254
224 237 254
224 237 254
224 237 254
224 237 254
224 237 254
224 237 254
224 237 254
224 237 254
224 237 254
224 237 254
224 237 254
224 237 254
224 237 254
224 237 254
224 237 254
224 237 254
224 237 254
224 237 254
224 237 254
224 237 254
224 237 254
224 237 254
221 233 250
208 220 234
183 196 202
140 156 148
111 131 106
151 165 163
152 166 165
138 153 143
102 124 95
82 108 64
84 110 66
82 108 67
109 128 105
125 141 127
172 184 189
172 184 187
174 186 190
171 182 184
178 189 197
181 192 201
167 180 185
157 170 169
129 145 133
134 151 138
182 194 200
169 183 185
177 190 196
184 195 201
177 189 194
178 191 197
184 195 203
179 191 198
177 190 195
165 178 179
138 155 145
101 122 93
86 111 68
83 108 64
87 113 68
83 108 64
81 107 63
84 110 65
78 103 61
82 108 64
129 144 132
184 195 201
173 186 189
183 194 199
180 191 196
186 197 204
149 164 156
128 144 133
112 133 108
86 112 67
86 112 67
84 110 65
89 113 75
101 125 89
110 131 104
118 138 117
123 141 126
131 149 134
131 149 135
128 146 133
140 156 148
141 157 149
159 172 170
121 139 121
115 135 113
107 129 105
102 123 96
110 131 105
112 133 108
125 143 127
148 163 157
175 187 188
181 193 199
185 197 204
181 193 200
181 193 199
169 181 185
166 179 182
171 183 187
174 187 192
177 189 194
184 196 202
187 198 207
182 195 203
181 193 199
180 192 198
118 138 115
83 110 65
86 113 67
84 111 66
86 112 66
85 111 66
83 108 64
89 116 69
83 109 65
89 116 69
86 113 68
86 111 66
86 112 67
100 123 88
139 155 144
138 154 144
171 184 186
172 186 191
175 187 191
185 197 205
188 199 208
191 202 209
180 192 198
166 180 179
82 107 63
83 108 64
85 111 66
81 107 63
83 109 64
82 109 65
85 111 66
88 115 69
84 110 65
86 113 67
82 107 64
83 109 64
89 115 68
83 109 64
89 115 69
82 108 64
87 113 68
85 112 66
84 111 66
79 104 61
84 109 64
85 111 66
85 111 67
112 132 109
179 191 197
181 193 200
186 197 204
178 189 192
182 193 199
177 188 195
180 191 197
184 196 203
186 197 202
181 194 200
191 201 209
181 192 198
175 188 195
179 192 196
160 175 174
151 167 159
139 155 147
121 140 122
97 121 86
94 118 79
87 114 67
87 113 67
86 112 66
142 158 150
175 188 194
189 200 207
177 189 193
186 198 204
179 191 198
181 193 200
184 195 201
179 190 197
183 195 202
176 188 195
183 195 202
184 195 201
180 191 198
179 190 192
170 183 186
184 196 203
173 186 193
183 194 201
186 198 206
189 200 207
170 183 186
189 199 206
172 185 188
85 110 70
89 116 69
89 116 69
89 116 69
87 113 67
82 107 64
87 113 68
85 111 65
87 114 67
89 115 69
81 107 64
84 109 65
84 110 65
87 114 68
83 109 65
90 117 70
88 115 68
83 109 64
81 106 63
84 110 65
86 112 66
85 111 66
109 130 102
173 186 190
184 195 202
186 197 203
175 187 193
176 188 193
184 195 202
184 196 204
189 200 206
179 192 198
185 197 203
177 188 192
187 198 205
178 190 197
181 192 196
181 194 200
181 193 199
180 191 197
175 188 192
175 186 191
181 193 201
180 192 195
182 194 199
109 130 105
85 111 66
80 105 62
90 117 70
84 110 64
80 106 62
82 107 63
90 116 69
87 114 68
85 111 66
83 108 64
85 111 65
83 109 64
83 109 65
91 117 70
86 112 66
84 110 65
87 113 67
86 112 67
84 110 65
85 110 68
155 169 166
175 187 193
175 186 190
173 185 189
173 184 189
177 189 194
184 195 202
192 202 210
177 189 193
182 193 200
180 193 200
186 197 206
167 180 186
176 188 192
193 204 214
181 194 203
191 202 209
187 199 205
181 193 199
179 191 197
133 149 139
84 110 66
85 110 65
87 113 67
85 111 66
84 110 65
86 112 67
87 114 68
84 110 65
85 111 66
83 108 64
84 109 64
81 106 63
90 116 69
85 111 66
87 113 67
82 108 65
87 113 67
84 109 67
147 163 158
183 194 201
171 183 183
174 186 192
162 175 177
170 183 183
176 187 193
159 173 170
161 175 173
149 165 160
132 148 136
149 163 155
146 161 154
144 159 153
148 163 152
156 169 168
154 169 166
129 146 130
102 127 88
87 111 70
82 108 64
83 109 64
84 110 66
82 108 63
83 109 64
84 109 65
84 109 64
85 111 66
87 113 67
86 112 67
83 108 64
81 106 63
85 111 69
141 156 149
180 192 199
171 184 189
177 188 193
184 195 202
183 194 201
181 192 198
177 189 194
177 189 195
184 195 203
185 197 204
178 190 194
161 175 176
142 157 152
156 170 174
169 181 182
177 188 193
180 192 199
174 186 190
170 182 184
176 189 193
172 185 190
177 189 192
184 195 202
172 185 189
145 161 153
92 117 78
108 128 104
138 153 146
154 168 165
157 171 170
178 190 197
161 174 178
174 186 190
142 158 151
103 125 98
142 157 150
146 161 158
179 190 194
169 182 186
188 200 208
200 213 225
223 235 253
224 237 254
224 237 254
224 237 254
224 237 254
224 237 254
224 237 254
224 237 254
224 237 254
224 237 254
224 237 254
224 237 254
224 237 254
224 237 254
224 237 254
224 237 254
224 237 254
224 237 254
224 237 254
224 237 254
224 237 254
224 237 254
224 237 254
224 237 254
224 237 254
224 237 254
224 237 254
224 237 254
224 237 254
224 237 254
224 237 254
224 237 254
224 237 254
224 237 254
224 237 254
224 237 254
224 237 254
224 237 254
216 229 245
211 224 238
177 190 196
135 151 143
156 168 170
168 180 183
160 174 173
126 143 129
92 115 83
85 110 66
83 108 64
80 105 61
111 132 107
141 156 148
164 176 177
180 191 199
175 187 191
179 191 196
180 192 199
168 182 187
161 174 175
103 124 94
127 143 134
158 173 174
171 183 186
171 183 189
172 184 188
172 184 189
172 184 189
168 181 184
172 183 188
180 192 198
171 183 187
176 189 194
153 167 162
123 142 124
96 118 87
84 111 66
78 103 61
79 104 61
82 108 63
116 135 116
182 193 199
177 190 196
186 197 203
176 188 192
183 195 202
166 178 181
174 186 190
177 190 196
169 182 185
146 160 156
128 145 129
90 114 78
81 106 62
80 105 62
85 111 66
80 106 62
85 110 66
81 107 63
83 108 64
83 109 65
78 103 61
107 129 102
171 183 184
169 181 185
183 194 203
181 193 200
185 195 202
171 183 186
181 192 195
180 192 199
179 191 195
172 185 188
169 182 183
151 166 162
134 149 137
111 132 110
115 134 111
135 151 140
131 148 135
122 139 126
145 161 153
141 156 145
159 172 169
158 173 171
160 176 176
128 146 129
118 137 114
118 138 113
103 126 94
101 122 92
87 113 72
93 117 79
86 111 69
82 108 64
86 113 68
80 106 62
86 113 67
87 112 66
85 110 66
87 113 67
87 114 68
82 107 64
86 111 69
96 120 86
121 140 120
145 161 153
163 176 175
171 184 186
132 149 138
83 108 63
86 113 67
84 110 65
77 101 59
83 109 64
82 108 64
82 108 63
85 111 66
88 115 69
86 112 66
86 112 67
83 109 65
84 110 65
89 116 70
85 111 66
85 111 66
89 115 69
86 112 67
86 113 67
84 110 66
89 115 69
89 115 69
87 114 68
163 176 175
178 191 199
175 187 190
176 188 194
189 201 212
175 187 192
177 189 195
191 202 211
180 193 198
182 194 199
175 187 191
186 198 207
185 197 203
195 205 215
177 190 195
181 193 198
186 197 205
178 191 198
186 197 204
181 192 197
177 189 193
174 187 194
162 175 175
144 160 154
136 154 141
146 161 152
148 164 157
165 179 178
173 185 190
179 191 195
178 190 195
184 195 203
176 189 196
182 192 199
182 193 197
178 191 199
179 191 197
179 190 196
177 189 196
191 202 208
185 196 202
183 193 199
178 190 194
181 193 199
167 180 184
188 199 208
191 203 211
123 142 122
85 112 66
88 114 68
79 104 61
88 114 68
85 111 65
84 110 65
84 109 64
86 112 67
87 113 67
82 107 63
83 108 63
83 108 64
86 112 66
84 110 66
83 109 64
85 110 65
86 112 67
86 112 66
85 112 67
85 111 66
83 109 65
81 107 63
164 177 175
182 194 200
179 191 195
179 191 198
181 193 199
178 190 195
183 194 200
180 192 200
184 195 202
188 200 208
193 204 211
182 194 201
184 196 202
191 201 209
177 189 196
173 185 189
180 192 198
178 190 195
175 187 192
177 190 195
175 188 193
174 187 192
128 147 131
85 111 65
84 110 65
79 105 61
89 116 70
85 112 66
82 107 63
89 115 69
86 112 66
86 113 67
88 115 69
82 108 64
79 103 61
88 115 69
83 108 64
82 107 62
83 109 64
83 109 65
81 107 64
87 113 67
87 113 67
142 157 147
176 188 192
183 195 202
175 187 190
181 193 199
181 193 199
180 192 197
179 191 194
183 195 202
179 191 196
173 185 188
182 193 200
181 194 201
177 189 197
176 188 194
173 186 191
175 187 194
181 193 200
181 193 199
189 200 207
146 161 155
107 127 101
101 123 91
112 132 109
104 124 101
126 143 126
129 145 132
140 157 147
131 148 134
133 150 137
147 162 155
143 159 154
150 165 162
145 161 154
164 177 174
160 174 174
157 171 169
162 176 178
163 176 176
98 121 89
86 110 70
91 116 74
83 108 63
83 108 64
83 108 67
105 126 97
122 141 120
130 147 131
136 153 143
150 164 159
171 184 187
165 179 181
169 182 185
170 182 186
177 189 194
174 186 189
134 151 141
82 108 64
85 111 66
79 104 61
86 112 67
84 109 64
80 106 63
86 112 67
87 113 67
83 109 65
80 106 62
85 112 67
80 106 63
85 111 66
84 110 65
104 126 101
166 178 180
178 190 196
183 194 201
187 197 202
182 193 198
177 189 192
181 192 198
174 186 191
163 177 177
141 156 150
124 142 125
94 117 84
94 118 78
131 147 136
180 192 198
167 180 183
181 192 197
185 196 203
181 193 200
169 181 184
183 194 199
183 194 201
182 193 198
185 197 202
169 182 185
152 167 165
158 172 170
165 180 183
173 185 189
169 179 182
166 179 182
178 191 197
167 179 181
167 180 183
145 160 156
167 180 184
165 178 179
166 180 184
182 195 202
203 215 229
222 235 252
224 237 254
224 237 254
224 237 254
224 237 254
224 237 254
224 237 254
224 237 254
224 237 254
224 237 254
224 237 254
224 237 254
224 237 254
224 237 254
224 237 254
224 237 254
224 237 254
224 237 254
224 237 254
224 237 254
224 237 254
224 237 254
224 237 254
224 237 254
224 237 254
224 237 254
224 237 254
224 237 254
224 237 254
224 237 254
224 237 254
224 237 254
224 237 254
224 237 254
224 237 254
224 237 254
224 237 254
224 237 254
224 237 254
224 237 254
224 237 254
224 237 254
224 237 254
224 237 254
216 229 245
185 199 206
136 152 144
136 153 143
147 162 159
169 182 186
163 176 177
129 144 132
89 110 81
77 102 60
80 105 62
85 111 66
99 119 94
131 148 139
159 173 172
175 187 192
180 192 196
166 178 181
83 109 64
79 104 61
81 106 62
91 115 78
129 146 134
146 162 156
176 188 193
177 191 197
184 195 203
178 190 197
169 182 185
184 196 203
178 190 196
181 193 201
167 180 184
167 180 181
167 179 180
150 164 157
108 129 99
82 108 64
136 152 143
183 195 200
182 193 201
178 190 194
170 184 189
172 185 190
178 190 197
183 195 200
178 190 195
182 193 198
184 196 205
185 197 203
173 185 189
154 169 165
145 160 156
120 138 120
96 120 81
83 108 64
84 110 65
82 108 64
77 102 59
84 110 65
119 137 117
172 185 189
176 188 191
178 189 192
165 178 179
178 190 196
185 197 203
176 188 192
183 194 200
174 186 191
183 194 201
186 197 204
179 190 194
179 191 197
168 182 187
148 164 160
135 152 140
111 131 110
93 117 82
84 109 65
84 110 65
84 109 64
81 106 63
126 144 131
172 183 187
180 192 201
180 192 198
171 184 192
182 194 201
176 188 192
183 195 202
181 193 200
174 186 191
180 192 195
171 184 186
174 186 188
174 186 189
172 185 188
165 177 177
150 165 160
153 168 165
152 166 163
150 165 158
158 173 172
154 168 162
149 163 156
146 161 153
126 143 127
116 135 111
102 124 92
91 115 74
118 138 115
126 144 129
144 159 148
126 145 125
125 142 125
124 142 128
121 140 122
110 130 110
117 136 114
110 131 106
102 124 92
102 125 89
105 127 98
99 122 87
93 117 82
99 121 87
89 114 73
83 109 64
89 114 71
97 120 88
176 187 191
174 186 190
186 198 205
185 197 205
172 185 190
179 191 198
182 194 204
172 186 191
173 185 189
182 194 199
186 199 207
183 194 201
190 201 208
176 188 193
183 195 202
179 189 194
189 200 208
172 185 189
183 194 200
188 199 207
175 187 189
187 198 204
176 189 195
134 153 137
85 110 65
84 110 65
86 112 67
86 111 66
90 117 70
90 115 72
96 119 89
122 140 123
122 140 121
142 158 147
152 167 159
155 169 165
166 179 180
166 180 181
173 185 187
184 195 201
184 196 202
177 190 196
179 190 197
177 188 193
187 198 205
178 189 193
169 181 181
82 107 63
87 113 67
86 112 66
81 107 63
86 112 67
86 112 67
88 115 69
88 115 69
87 113 67
82 107 62
86 112 66
85 111 66
85 111 66
83 109 65
83 109 65
86 113 67
90 116 69
87 113 67
88 114 69
82 108 65
82 108 64
86 112 66
155 168 165
183 194 199
173 185 190
179 191 195
178 190 196
180 192 198
178 190 197
178 190 194
188 200 210
180 192 199
175 187 191
168 181 186
174 186 191
175 187 191
181 193 200
181 192 198
175 186 190
187 197 204
170 182 187
168 181 183
184 196 203
173 186 191
136 154 144
82 107 63
86 113 67
92 117 78
91 115 77
103 125 93
93 116 79
99 121 91
103 125 96
104 126 94
97 121 84
119 139 120
115 136 112
115 135 118
134 150 140
118 137 118
132 151 134
134 151 140
130 147 130
118 137 119
136 152 140
109 129 102
145 159 151
145 160 152
129 147 134
128 144 131
136 153 143
134 150 138
132 149 133
125 143 127
131 148 131
120 138 121
122 141 123
108 128 106
97 121 85
108 131 99
98 121 89
93 117 77
89 115 73
85 111 66
82 107 63
143 159 150
172 185 192
168 181 181
186 197 203
171 183 187
178 191 196
181 193 201
174 186 191
180 192 196
171 184 189
171 184 187
179 190 194
176 189 195
165 177 178
174 186 191
182 194 200
175 187 191
172 185 187
163 176 179
155 170 166
134 152 142
138 154 142
146 161 155
171 184 185
170 182 184
170 182 185
186 198 206
177 189 193
176 187 191
173 186 191
182 194 200
174 186 190
179 192 198
169 181 186
178 191 198
172 185 190
110 130 104
82 108 64
80 104 61
86 111 66
81 107 64
82 107 64
86 112 67
82 107 64
81 107 63
84 110 65
81 106 62
87 113 67
85 111 65
82 108 64
86 111 69
134 150 139
179 190 196
182 193 200
178 189 193
174 185 190
158 171 170
140 156 143
124 141 126
104 124 99
81 106 65
82 107 63
82 107 63
85 111 66
107 127 103
153 167 167
173 186 191
173 186 190
175 187 192
178 190 195
177 188 195
181 194 202
174 186 190
151 166 165
145 160 154
129 144 133
160 173 173
170 183 188
176 189 194
173 186 191
176 189 196
171 182 187
169 182 183
143 157 152
159 173 173
175 188 194
170 183 188
152 166 159
160 175 177
192 205 214
221 233 250
224 237 254
224 237 254
224 237 254
224 237 254
224 237 254
224 237 254
224 237 254
224 237 254
224 237 254
224 237 254
224 237 254
224 237 254
224 237 254
224 237 254
224 237 254
224 237 254
224 237 254
224 237 254
224 237 254
224 237 254
224 237 254
224 237 254
224 237 254
224 237 254
224 237 254
224 237 254
224 237 254
224 237 254
224 237 254
224 237 254
224 237 254
224 237 254
224 237 254
224 237 254
224 237 254
224 237 254
224 237 254
224 237 254
224 237 254
224 237 254
224 237 254
224 237 254
224 237 254
224 237 254
224 237 254
224 237 254
224 237 254
224 237 254
224 237 254
217 230 246
188 201 210
145 161 157
127 144 132
158 172 171
170 184 189
166 180 182
130 146 137
114 132 114
80 106 63
84 109 65
84 110 64
90 115 79
126 144 129
147 161 155
91 115 79
81 106 62
86 112 67
74 98 57
84 110 65
81 106 62
84 110 65
111 130 108
146 160 157
172 185 188
171 183 189
176 189 195
181 192 198
170 182 185
173 186 190
174 188 194
172 185 190
171 183 189
189 200 206
179 191 197
138 154 141
140 156 149
164 177 178
169 181 186
179 190 195
168 181 186
177 188 192
171 184 188
173 186 189
176 188 192
180 191 196
169 182 188
182 194 199
175 188 194
168 182 186
182 194 203
173 185 192
166 179 181
150 165 157
112 132 110
89 114 76
79 104 60
140 156 146
172 185 190
182 194 202
179 191 196
179 190 196
181 193 200
171 182 185
171 184 189
179 191 197
176 187 191
172 185 190
178 190 196
175 188 193
169 180 184
165 177 180
179 191 197
176 189 195
176 188 193
186 197 203
176 189 193
145 160 153
123 140 124
108 129 103
150 165 159
183 194 201
186 197 204
172 185 189
169 182 187
170 182 188
179 190 198
175 188 194
172 185 189
181 192 197
176 187 193
176 188 196
172 185 189
177 188 193
183 194 200
171 183 186
184 196 201
170 182 186
179 191 198
176 188 192
181 192 198
178 191 196
187 198 205
162 176 176
87 114 68
84 110 65
85 111 66
84 110 65
84 110 65
90 116 72
101 123 93
112 132 113
139 154 145
165 178 176
173 185 186
174 186 190
181 193 197
175 189 194
176 187 192
191 202 211
176 188 191
178 190 196
185 197 204
182 194 199
180 193 201
179 190 196
187 198 205
126 145 128
87 112 69
87 110 71
90 114 78
96 120 83
92 115 78
101 124 93
102 124 93
99 121 92
98 119 89
105 126 101
118 139 115
118 138 118
112 133 109
110 132 104
113 133 113
118 137 120
108 127 106
122 141 120
124 143 124
112 131 112
137 153 140
128 145 131
127 147 128
166 179 179
157 172 172
153 169 163
157 172 168
149 164 160
158 172 171
159 173 170
156 170 170
151 167 160
136 154 145
152 168 163
148 162 156
147 162 155
154 169 163
159 173 174
149 164 161
139 155 146
162 176 175
167 180 182
166 179 182
180 193 201
175 186 190
168 180 182
123 142 123
123 142 122
130 147 133
142 158 147
145 161 155
139 155 145
149 164 159
147 162 155
139 155 145
143 157 149
153 168 164
145 161 154
159 173 171
144 159 152
142 157 150
146 162 154
148 164 155
147 163 155
145 160 155
150 165 160
159 173 174
158 172 168
127 146 127
122 140 124
129 146 133
125 142 126
126 145 128
114 133 112
122 143 123
104 125 97
117 137 116
106 127 100
125 143 126
103 125 97
112 132 110
118 139 117
111 132 104
104 125 97
95 118 89
106 128 98
88 110 76
108 129 100
95 118 83
93 117 81
126 144 126
171 183 187
168 181 183
181 192 198
169 181 184
181 193 198
185 196 201
175 187 191
179 191 196
173 185 191
183 195 201
170 182 185
175 187 191
175 188 192
174 187 192
182 193 199
182 193 200
169 183 185
166 180 183
184 195 204
182 194 199
151 164 160
84 110 65
84 110 65
87 113 68
80 107 64
82 108 63
85 111 66
85 111 65
87 113 67
86 112 66
81 107 63
82 108 64
81 106 63
82 107 62
82 108 64
85 110 65
89 115 69
84 110 64
81 107 63
85 111 66
147 161 157
185 196 204
173 185 190
176 188 192
181 192 199
165 179 180
166 179 181
176 188 194
155 168 168
148 163 158
143 159 151
130 149 136
130 148 133
127 143 131
115 135 114
94 115 87
90 115 74
84 109 65
103 124 94
168 180 178
172 184 188
167 179 182
182 194 202
179 191 199
176 187 192
169 182 187
176 188 191
181 191 196
174 186 192
175 189 196
180 193 201
175 188 192
176 189 197
181 193 199
177 188 192
161 174 174
101 123 92
82 108 63
81 106 62
82 107 63
84 110 66
84 111 66
80 105 63
85 112 66
80 105 62
83 109 64
85 111 65
86 112 67
84 109 65
81 106 63
103 126 93
151 165 159
146 161 154
133 150 138
110 129 108
97 121 85
84 110 66
85 111 67
82 108 64
82 107 63
83 109 64
84 109 65
82 108 63
87 112 69
142 158 151
167 180 186
177 188 193
170 183 187
173 184 190
163 177 181
155 169 167
130 146 138
107 126 102
90 115 79
91 114 80
143 158 153
176 187 193
171 184 191
170 183 188
174 186 189
139 153 147
120 137 126
115 134 114
139 155 150
150 164 163
154 169 167
163 177 177
184 198 205
217 230 246
224 237 254
224 237 254
224 237 254
224 237 254
224 237 254
224 237 254
224 237 254
224 237 254
224 237 254
224 237 254
224 237 254
224 237 254
224 237 254
224 237 254
224 237 254
224 237 254
224 237 254
224 237 254
224 237 254
224 237 254
224 237 254
224 237 254
224 237 254
224 237 254
224 237 254
224 237 254
224 237 254
224 237 254
224 237 254
224 237 254
224 237 254
224 237 254
224 237 254
224 237 254
224 237 254
224 237 254
224 237 254
224 237 254
224 237 254
224 237 254
224 237 254
224 237 254
224 237 254
224 237 254
224 237 254
224 237 254
224 237 254
224 237 254
224 237 254
224 237 254
224 237 254
224 237 254
224 237 254
224 237 254
224 237 254
217 229 246
180 193 201
155 170 168
128 144 135
146 158 158
166 178 181
154 168 169
149 164 158
103 122 101
78 102 60
79 105 62
76 100 58
152 166 164
141 156 151
125 143 131
85 109 71
76 101 59
81 106 63
78 103 61
81 107 63
77 102 61
82 107 63
94 115 84
140 156 147
150 166 164
160 172 174
166 178 182
171 184 186
167 179 184
178 189 195
168 181 183
176 187 195
139 154 147
82 108 63
84 110 65
98 120 88
132 149 137
161 173 173
173 184 189
171 183 187
178 190 196
188 199 206
176 188 194
177 189 195
167 180 184
176 188 193
178 189 193
185 196 202
181 193 199
172 183 186
173 185 189
175 187 191
188 200 208
159 172 172
142 158 151
148 163 157
165 178 181
181 193 199
170 182 185
176 188 193
176 188 192
158 171 171
189 200 206
172 185 189
181 193 199
178 190 194
183 194 199
180 192 196
178 190 196
179 192 198
179 191 197
173 186 192
178 190 196
173 186 192
181 193 199
177 189 194
176 188 192
97 118 89
129 146 134
145 161 155
172 185 188
164 177 176
177 188 195
174 187 194
183 194 200
177 188 193
174 186 192
179 191 194
171 183 188
175 187 192
166 179 182
168 181 184
171 183 186
168 180 182
176 189 196
175 188 193
183 194 201
180 192 198
182 193 197
176 189 196
138 154 143
84 110 65
87 113 68
83 108 63
81 105 62
87 113 67
81 107 64
86 111 66
86 112 66
80 105 61
88 114 67
84 111 66
92 116 77
111 129 110
120 137 122
144 160 152
155 169 166
170 184 186
174 188 193
180 191 195
185 197 203
164 178 182
197 207 219
180 193 199
82 107 63
83 109 65
84 110 65
83 109 65
84 110 65
80 106 62
80 106 63
82 108 64
84 110 65
78 103 60
82 107 63
88 115 70
85 111 66
83 108 63
80 105 61
84 110 65
79 104 60
83 109 64
83 108 65
88 115 68
92 118 71
80 105 62
88 114 68
150 164 160
173 185 189
181 192 196
183 194 199
187 198 205
177 190 196
176 187 191
175 188 194
187 198 207
175 188 192
179 190 196
178 190 195
179 192 198
179 192 199
176 188 192
184 195 202
178 189 194
184 195 204
184 195 202
179 191 197
193 204 214
161 174 176
181 193 200
129 147 132
83 109 65
87 113 67
83 109 65
82 108 63
85 111 66
86 112 66
94 116 86
103 125 97
105 126 100
119 137 119
139 155 146
126 145 130
143 157 148
156 170 166
154 167 164
133 151 137
141 157 147
175 187 190
167 180 183
170 183 186
158 171 172
175 187 191
101 123 92
82 108 63
81 107 63
85 111 66
84 110 65
84 110 65
85 111 66
88 114 68
82 108 64
85 110 65
84 110 66
86 112 67
83 109 64
83 109 65
77 102 59
79 104 61
86 112 67
83 109 65
84 109 65
81 106 62
83 108 64
106 128 103
178 191 195
178 192 200
170 183 188
180 191 199
189 199 206
177 189 195
174 187 194
182 194 198
179 191 196
182 193 198
177 190 198
183 194 200
183 195 201
183 195 201
175 187 193
175 187 192
172 185 191
178 191 198
180 192 198
183 196 205
155 169 165
89 115 72
80 106 62
79 105 62
84 109 65
86 112 66
82 108 64
87 113 67
85 111 67
82 108 66
88 113 70
108 129 99
104 126 95
98 121 88
113 133 111
118 136 118
127 145 132
129 146 132
149 163 159
159 174 172
115 134 113
134 150 138
119 138 119
114 132 115
105 127 97
89 114 73
82 108 64
80 105 62
84 110 65
85 111 66
87 113 68
84 110 65
84 110 65
90 116 70
84 111 66
81 106 62
83 109 65
85 111 66
129 146 128
175 187 190
176 188 194
186 197 206
178 189 196
174 185 190
171 184 189
171 183 187
161 174 174
178 190 197
184 195 200
173 185 189
171 184 189
174 186 193
170 183 185
163 175 177
178 190 194
149 164 158
92 116 77
78 103 61
82 108 65
77 102 59
85 111 65
82 107 63
84 109 65
86 112 66
81 107 63
80 106 62
97 121 88
127 145 130
142 157 150
141 155 149
137 154 145
88 112 74
79 104 61
84 109 64
82 108 63
76 102 60
82 108 65
79 104 61
78 103 60
81 106 62
82 107 63
87 114 68
80 105 62
127 145 131
167 180 183
180 191 197
165 178 182
151 166 165
124 142 129
100 121 93
86 110 74
81 106 63
84 110 65
94 118 85
127 145 131
169 181 185
173 185 190
157 171 171
137 153 145
110 130 107
79 103 66
117 136 115
125 142 129
150 165 160
162 176 178
184 198 205
218 231 247
224 237 254
224 237 254
224 237 254
224 237 254
224 237 254
224 237 254
224 237 254
224 237 254
224 237 254
224 237 254
224 237 254
224 237 254
224 237 254
224 237 254
224 237 254
224 237 254
224 237 254
224 237 254
224 237 254
224 237 254
224 237 254
224 237 254
224 237 254
224 237 254
224 237 254
224 237 254
224 237 254
224 237 254
224 237 254
224 237 254
224 237 254
224 237 254
224 237 254
224 237 254
224 237 254
224 237 254
224 237 254
224 237 254
224 237 254
224 237 254
224 237 254
224 237 254
224 237 254
224 237 254
224 237 254
224 237 254
224 237 254
224 237 254
224 237 254
224 237 254
224 237 254
224 237 254
224 237 254
224 237 254
224 237 254
224 237 254
224 237 254
224 237 254
224 237 254
224 237 254
224 237 254
221 234 251
194 207 218
158 173 175
130 147 133
137 151 147
167 181 187
161 173 175
146 162 151
114 133 114
127 143 132
174 186 191
165 178 182
174 187 192
160 172 173
133 149 140
108 128 106
78 102 59
80 106 63
81 107 62
84 110 64
81 107 63
79 104 61
91 116 78
115 134 114
154 169 164
158 172 170
177 189 196
179 192 200
174 186 189
126 143 134
80 105 62
82 107 64
79 104 62
75 100 58
84 109 65
79 104 61
110 131 109
134 150 138
158 171 171
173 186 189
168 179 185
179 191 197
178 190 196
179 191 195
175 188 194
178 189 194
164 176 177
183 195 202
169 182 186
175 187 192
173 186 191
106 125 102
80 106 62
88 113 70
103 123 100
135 151 143
145 160 152
170 182 189
162 175 178
183 194 199
177 189 194
176 188 193
174 187 192
182 194 202
179 191 196
183 194 199
183 194 202
179 190 197
178 191 197
175 187 192
181 193 198
180 192 198
182 193 199
167 180 180
86 112 67
82 108 64
85 111 65
82 107 64
82 108 63
90 114 78
126 144 128
141 157 150
157 170 169
174 187 192
184 196 204
182 192 199
179 189 195
170 183 190
190 201 207
178 190 193
190 202 210
178 190 196
178 189 195
166 179 183
179 191 197
174 186 191
174 186 190
98 121 84
79 104 61
82 108 64
87 113 68
85 111 67
81 107 63
77 102 59
82 107 62
82 107 64
81 106 63
85 110 65
85 111 66
85 110 66
87 113 67
80 106 62
83 109 64
86 112 67
85 111 65
90 116 72
106 126 100
114 133 113
141 157 148
142 158 152
143 157 149
95 118 83
84 109 65
81 106 62
81 107 63
85 111 66
85 111 66
83 108 64
85 111 66
78 103 60
84 110 65
78 103 60
83 109 65
83 109 64
88 114 68
84 110 65
83 110 65
83 109 65
83 109 64
86 112 66
85 110 66
87 113 67
80 106 61
120 139 118
178 191 196
180 192 198
183 195 203
176 190 195
176 187 194
182 194 201
173 186 191
176 189 195
182 194 201
173 185 188
183 196 203
179 190 196
173 186 193
172 184 188
185 197 205
181 193 199
175 188 192
175 188 193
175 188 195
174 187 191
179 191 198
184 195 203
158 172 170
82 107 64
84 110 65
82 107 63
86 113 67
83 109 65
87 113 67
87 113 67
87 113 68
82 109 64
81 107 63
82 108 63
88 114 68
85 111 67
87 112 67
82 107 63
83 109 64
86 112 67
84 110 65
82 108 64
84 110 66
82 107 63
88 113 72
158 173 168
178 190 196
181 193 197
170 182 184
172 184 190
166 179 183
154 168 170
173 185 188
155 170 164
154 168 166
161 175 174
165 178 178
148 162 156
150 167 158
136 153 144
142 158 150
140 155 147
145 160 152
134 150 141
134 150 141
131 148 135
129 147 135
133 149 137
140 157 146
149 164 157
153 169 164
142 159 152
154 169 165
146 161 154
143 159 151
136 153 144
138 153 141
137 153 145
132 149 136
143 158 149
148 163 157
126 143 128
127 143 130
135 151 140
128 144 131
136 154 143
125 143 125
145 160 154
154 168 169
151 166 169
155 169 163
168 181 182
179 191 197
177 188 193
164 178 182
168 181 187
183 195 201
173 186 187
172 184 190
177 189 194
185 195 202
168 180 185
186 197 205
177 189 195
181 192 199
173 185 189
169 181 186
122 141 121
84 110 65
88 114 68
82 108 64
83 109 65
78 104 61
87 114 68
82 107 63
82 108 65
86 112 67
83 109 65
87 113 68
83 109 64
80 105 62
80 105 62
80 106 63
78 103 60
78 104 61
119 137 122
180 192 198
166 180 182
177 189 195
179 192 200
178 190 197
178 190 195
171 183 188
181 193 199
173 186 192
176 189 196
177 189 194
172 184 190
175 187 192
179 191 198
180 191 197
168 181 184
118 136 116
81 107 63
82 107 63
78 104 61
83 109 65
86 111 68
109 129 104
118 136 118
137 153 144
147 162 156
144 158 155
164 176 179
178 190 196
172 183 188
176 187 193
121 140 121
82 107 63
80 105 62
82 107 64
78 103 61
75 100 58
83 108 64
86 112 67
77 103 60
76 101 59
78 103 60
81 106 63
115 135 111
144 159 153
154 168 165
131 148 136
105 125 100
80 106 63
80 105 62
81 107 63
83 109 65
83 108 64
94 117 84
156 170 167
158 173 172
141 156 150
112 131 111
86 109 73
84 110 65
81 105 64
95 117 93
112 131 112
167 182 185
185 198 206
222 234 251
224 237 254
224 237 254
224 237 254
224 237 254
224 237 254
224 237 254
224 237 254
224 237 254
224 237 254
224 237 254
224 237 254
224 237 254
224 237 254
224 237 254
224 237 254
224 237 254
224 237 254
224 237 254
224 237 254
224 237 254
224 237 254
224 237 254
224 237 254
224 237 254
224 237 254
224 237 254
224 237 254
224 237 254
224 237 254
224 237 254
224 237 254
224 237 254
224 237 254
224 237 254
224 237 254
224 237 254
224 237 254
224 237 254
224 237 254
224 237 254
224 237 254
224 237 254
224 237 254
224 237 254
224 237 254
224 237 254
224 237 254
224 237 254
224 237 254
224 237 254
224 237 254
225 237 254
225 237 254
225 237 254
225 237 254
225 237 254
225 237 254
225 237 254
225 237 254
225 237 254
225 237 254
225 237 254
225 237 254
225 237 254
225 237 254
225 237 254
225 237 254
225 237 254
203 216 228
168 183 185
148 164 160
139 154 149
154 169 170
155 168 168
116 132 118
132 147 141
162 174 178
168 181 185
170 183 187
164 177 181
163 177 179
145 160 158
114 133 118
91 115 79
77 102 61
80 105 62
76 101 59
80 105 62
74 99 57
80 105 62
116 137 115
119 137 124
162 175 177
127 144 133
86 111 66
78 103 61
78 103 61
81 107 64
83 109 65
86 112 68
82 108 64
83 109 64
86 111 66
88 113 75
123 141 126
124 142 127
138 153 148
174 186 192
163 176 179
177 189 194
173 186 192
174 185 190
180 192 199
180 191 198
178 191 197
85 110 68
84 110 65
88 114 68
79 105 62
83 109 65
77 103 61
77 102 60
105 127 97
122 138 125
140 156 146
152 166 164
173 186 189
181 192 199
180 192 199
166 178 183
166 178 180
174 186 189
186 196 203
173 185 190
180 192 200
168 181 184
175 186 192
135 152 141
82 108 64
88 115 68
83 109 64
84 110 65
82 107 63
82 107 63
82 107 63
76 101 59
74 99 57
84 109 68
102 122 100
121 139 125
137 151 145
140 155 151
176 187 190
180 193 199
177 190 197
180 192 196
169 181 187
171 184 188
184 196 201
172 185 190
147 162 157
77 101 59
84 110 65
82 108 63
81 106 62
83 109 64
84 109 65
86 112 67
82 108 64
83 108 64
82 107 63
86 113 67
82 108 64
82 107 63
78 103 61
79 104 62
82 106 62
86 113 67
82 107 63
85 111 66
82 107 62
83 109 64
84 109 64
107 127 101
179 192 199
177 190 198
177 188 192
151 167 164
154 169 166
148 163 159
119 137 122
110 130 108
113 134 107
81 107 63
83 108 64
84 110 66
81 106 63
82 107 63
86 112 67
81 107 63
82 107 63
80 105 63
86 113 67
85 112 67
79 105 62
80 106 62
82 106 71
172 185 189
179 191 198
181 192 196
177 189 197
176 188 193
179 191 195
167 181 185
184 196 203
178 190 196
169 181 186
165 178 179
172 184 188
176 189 195
180 192 198
176 188 195
174 187 191
171 183 189
172 184 187
176 186 192
176 189 193
172 184 189
171 183 187
176 188 194
94 117 83
77 102 59
86 112 67
86 112 66
83 109 65
79 105 61
85 111 66
77 101 59
87 112 66
87 114 68
82 107 63
82 108 65
80 106 62
79 105 61
85 110 65
84 109 65
82 107 63
82 108 64
82 108 63
80 106 62
86 111 66
80 105 62
137 153 143
178 190 197
171 184 188
180 191 196
178 191 197
168 181 184
176 189 195
183 194 199
184 196 203
176 188 193
167 182 185
181 192 199
177 188 193
173 185 188
175 188 192
165 178 181
171 183 188
172 185 190
177 189 191
176 188 195
177 190 198
170 183 186
101 122 93
81 107 63
87 113 67
82 107 63
82 108 64
88 114 68
81 106 62
82 108 65
81 107 63
79 105 62
81 107 63
87 113 67
84 110 65
86 112 67
88 114 69
85 110 65
86 112 67
82 107 64
83 109 64
78 103 61
124 142 132
176 188 192
172 185 190
182 193 200
177 190 196
180 190 195
180 192 199
182 194 200
175 188 193
181 192 198
186 198 206
178 190 195
182 193 199
171 184 191
170 182 188
174 186 191
184 195 201
182 194 202
174 187 194
173 186 191
112 132 112
83 109 65
81 106 62
79 104 62
82 108 65
80 105 62
84 110 65
81 105 62
81 107 63
83 109 65
83 108 64
84 109 65
81 106 63
76 101 60
81 107 63
82 107 63
77 102 60
84 109 68
151 165 162
181 193 199
172 186 193
176 187 193
178 190 195
167 180 186
173 185 191
170 183 188
170 181 184
162 176 178
174 186 194
173 185 189
176 188 193
177 188 194
178 189 197
173 186 190
160 175 176
107 129 102
110 127 110
130 147 134
139 154 145
147 162 157
153 168 164
177 189 193
177 190 196
176 189 196
186 197 203
175 186 189
173 185 191
169 182 185
175 187 192
150 163 159
83 108 70
86 112 67
79 105 61
82 108 65
79 105 62
80 106 62
82 107 63
75 100 58
74 99 58
86 110 76
122 140 127
135 152 144
108 126 105
82 107 69
85 111 66
77 102 59
81 106 62
79 103 61
73 98 57
79 104 61
81 106 63
93 115 83
93 115 81
119 136 122
91 113 82
81 106 63
83 108 67
119 136 119
101 122 95
112 131 115
174 188 192
195 208 218
221 234 251
225 237 254
225 237 254
225 237 254
225 237 254
225 237 254
225 237 254
225 237 254
225 237 254
225 237 254
225 237 254
225 237 254
225 237 254
225 237 254
225 237 254
225 237 254
225 237 254
225 237 254
224 237 254
224 237 254
224 237 254
224 237 254
224 237 254
224 237 254
224 237 254
224 237 254
224 237 254
224 237 254
224 237 254
224 237 254
224 237 254
224 237 254
224 237 254
224 237 254
224 237 254
224 237 254
225 237 254
225 237 254
225 237 254
225 237 254
225 237 254
225 237 254
225 237 254
225 237 254
225 237 254
225 237 254
225 237 254
225 237 254
225 237 254
225 237 254
225 237 254
225 237 254
225 237 254
225 237 254
225 237 254
225 237 254
225 237 254
225 237 254
225 237 254
225 237 254
225 237 254
225 237 254
225 237 254
225 237 254
225 237 254
225 237 254
225 237 254
225 237 254
225 237 254
225 237 254
225 237 254
225 237 254
225 237 254
225 237 254
225 237 254
207 220 234
184 199 205
152 167 164
112 128 116
100 121 95
86 111 69
92 113 86
120 136 125
166 177 180
155 168 171
171 183 188
168 180 184
168 181 184
153 167 165
135 151 141
98 120 88
78 103 60
83 109 65
81 106 63
76 100 58
78 102 60
82 108 64
127 143 129
146 160 157
135 150 141
98 118 91
80 105 62
75 99 57
78 103 60
76 102 59
79 103 60
85 111 67
79 104 62
81 107 64
80 106 62
74 98 57
75 99 60
124 140 124
138 153 145
161 174 172
176 189 198
178 190 197
173 185 191
148 163 158
80 105 62
83 109 64
79 104 61
76 101 59
80 104 61
81 106 63
85 110 66
81 106 63
81 107 64
84 110 65
83 109 65
86 110 73
116 135 118
134 151 140
158 172 169
163 176 178
163 176 178
176 187 193
168 181 184
173 185 189
182 194 202
170 182 188
95 116 88
84 110 65
83 109 65
86 112 66
81 107 63
84 110 65
86 112 67
84 110 65
80 105 62
83 109 64
80 104 61
82 107 63
83 109 64
82 108 64
81 106 62
82 107 64
100 123 90
117 136 119
136 152 141
155 168 165
164 176 178
172 184 188
184 195 202
95 117 85
78 103 60
83 108 64
82 107 64
79 104 60
86 113 67
82 107 63
83 108 64
81 107 63
83 109 65
85 111 65
85 111 66
82 107 63
81 107 64
85 111 66
85 111 66
83 109 65
83 108 64
87 113 67
82 108 65
82 108 64
79 104 61
83 108 65
151 166 159
169 182 185
179 191 197
170 182 185
175 188 195
180 191 195
164 176 179
161 174 177
167 180 185
172 185 190
169 181 183
170 182 184
159 173 171
153 167 165
131 148 134
116 134 117
101 122 96
92 115 80
84 109 64
84 110 66
87 113 67
84 110 66
80 106 62
138 153 145
171 184 190
171 184 189
177 190 195
172 184 189
173 185 191
186 198 205
168 181 187
181 193 201
181 193 200
170 183 187
175 187 191
176 188 193
173 186 191
186 197 204
188 199 207
179 191 198
177 189 194
181 193 201
182 195 201
180 193 200
164 176 178
171 184 191
124 141 126
83 109 64
81 107 63
85 111 65
83 108 64
82 108 63
82 108 64
78 104 61
80 106 62
83 109 64
83 109 65
81 107 62
81 107 63
82 108 63
84 110 65
83 108 64
84 110 65
84 110 65
80 105 62
85 111 66
86 112 67
80 105 62
120 138 120
176 188 193
172 185 188
177 189 192
182 194 203
183 195 202
180 193 197
179 191 199
183 193 200
174 185 189
172 184 187
169 182 187
175 188 194
172 185 189
175 188 193
170 184 189
177 187 192
168 181 184
176 189 196
174 186 191
184 196 203
182 192 197
108 127 104
84 110 66
88 114 68
79 104 61
77 102 60
81 107 62
83 109 65
82 108 64
86 112 67
88 115 69
84 110 65
86 111 66
82 108 63
77 102 59
84 110 65
84 110 66
79 103 60
87 112 67
81 107 64
80 105 62
108 127 103
178 189 194
179 190 196
172 185 189
166 179 182
176 187 191
172 185 191
168 180 184
179 191 196
178 190 196
178 190 196
176 188 195
181 192 199
177 189 196
166 178 183
181 193 201
175 188 194
175 186 191
176 187 191
171 184 188
96 118 85
84 111 66
79 104 61
78 103 61
81 107 63
80 106 62
83 109 65
83 109 65
81 106 62
79 103 60
86 112 66
79 105 62
81 106 63
87 113 68
82 107 64
79 105 61
78 103 61
92 115 82
158 172 170
172 184 191
173 185 190
177 189 194
186 198 206
176 188 194
171 183 187
174 187 192
180 192 196
162 175 180
168 181 185
162 175 174
152 166 163
146 160 153
131 150 136
113 132 114
145 160 157
158 171 170
175 187 192
176 188 195
181 193 201
168 180 186
173 187 194
175 188 195
161 174 176
179 191 196
176 188 192
168 182 186
179 192 198
167 180 184
164 177 181
116 135 116
78 103 61
79 104 61
76 101 59
79 104 61
81 106 62
92 113 84
120 138 120
131 147 139
148 163 156
167 180 183
173 185 189
147 162 153
90 114 78
82 108 65
84 110 65
75 100 58
80 105 61
80 105 61
104 124 99
127 143 130
138 153 148
129 147 136
85 108 74
71 94 54
88 112 80
105 124 102
129 144 139
167 181 184
183 196 205
214 226 242
225 237 254
225 237 254
225 237 254
225 237 254
225 237 254
225 237 254
225 237 254
225 237 254
225 237 254
225 237 254
225 237 254
225 237 254
225 237 254
225 237 254
225 237 254
225 237 254
225 237 254
225 237 254
225 237 254
225 237 254
225 237 254
225 237 254
225 237 254
225 237 254
225 237 254
225 237 254
225 237 254
225 237 254
225 237 254
225 237 254
225 237 254
225 237 254
225 237 254
225 237 254
225 237 254
225 237 254
225 237 254
225 237 254
225 237 254
225 237 254
225 237 254
225 237 254
225 237 254
225 237 254
225 237 254
225 237 254
225 237 254
225 237 254
225 237 254
225 237 254
225 237 254
225 237 254
225 237 254
225 237 254
225 237 254
225 237 254
225 237 254
225 237 254
225 237 254
225 237 254
225 237 254
225 237 254
225 237 254
225 237 254
225 237 254
225 237 254
225 237 254
225 237 254
225 237 254
225 237 254
225 237 254
225 237 254
225 237 254
225 237 254
225 237 254
225 237 254
225 237 254
225 237 254
225 237 254
225 237 254
225 237 254
213 226 241
201 214 226
169 183 185
102 122 99
78 101 67
88 111 79
79 103 66
118 137 122
152 165 162
160 173 175
149 163 161
159 173 176
159 172 174
152 166 164
137 152 144
117 135 116
86 108 78
81 106 62
75 100 58
148 163 157
163 176 177
174 186 191
172 184 188
165 177 180
156 170 167
123 142 123
91 112 85
78 103 60
81 106 62
77 102 60
86 111 67
77 102 60
82 107 63
78 103 60
75 100 58
75 100 58
82 107 63
88 112 75
109 127 105
148 163 159
130 147 136
84 110 66
79 105 61
84 110 66
77 102 60
80 105 62
82 108 63
81 107 63
81 107 63
77 102 59
80 105 62
84 110 66
74 98 56
85 111 66
81 106 63
84 109 65
82 108 64
99 120 96
135 153 142
148 163 159
160 173 173
175 188 193
173 186 191
88 112 74
80 105 61
80 105 62
78 104 60
82 108 64
80 105 62
80 105 62
80 105 63
82 108 64
79 104 62
83 108 64
76 101 59
83 108 64
83 109 65
80 106 62
83 109 64
79 105 62
83 109 64
84 109 65
82 108 64
84 110 66
83 106 71
132 149 138
156 171 166
135 151 142
120 138 122
97 120 89
83 109 65
74 98 58
81 107 63
86 111 66
83 109 65
84 110 65
81 106 62
83 108 64
86 112 67
83 109 65
80 106 62
85 111 66
83 108 64
81 106 63
79 104 62
77 102 60
80 104 61
83 109 64
101 122 91
172 185 189
179 191 196
179 192 199
165 178 180
186 197 206
176 188 191
168 180 183
173 186 189
172 185 190
170 183 186
168 180 184
168 180 182
172 185 192
182 193 199
180 191 199
181 192 197
180 192 200
172 184 189
174 186 189
154 167 167
146 162 157
151 165 163
133 149 135
136 152 148
160 174 174
163 177 179
172 184 188
181 193 198
169 180 183
184 196 203
175 187 191
177 188 192
181 192 198
171 184 187
188 199 209
173 185 191
164 177 179
182 194 200
175 187 191
172 185 191
175 187 194
165 178 179
176 189 193
183 195 201
185 197 204
157 170 169
85 111 66
81 106 63
85 112 66
86 112 66
81 107 63
84 110 66
83 108 63
83 109 65
76 101 60
76 101 59
80 106 63
85 111 66
80 106 63
84 110 65
83 108 64
78 104 61
85 111 66
81 107 62
81 107 63
83 108 63
80 105 62
98 120 91
181 192 198
183 195 202
165 178 179
175 187 193
175 187 191
180 192 199
176 188 192
180 192 196
179 191 198
169 181 187
179 192 198
169 182 186
162 175 177
169 181 185
169 182 188
164 178 181
169 181 185
178 190 196
186 197 204
172 183 189
168 181 186
128 145 130
78 103 61
84 110 65
80 105 61
88 113 67
85 110 66
82 107 63
82 108 64
82 107 63
79 105 62
83 109 64
84 109 65
84 110 65
81 107 63
84 110 66
83 109 64
81 107 64
82 107 64
83 109 65
80 105 62
120 139 121
158 172 174
176 188 195
172 185 190
176 188 194
174 187 192
166 179 181
170 183 187
162 175 179
175 187 195
164 176 179
178 190 194
177 188 193
174 185 192
175 187 193
172 184 189
170 183 187
176 187 192
176 188 193
157 171 171
99 122 88
80 105 62
85 111 66
82 108 64
86 112 66
85 112 67
81 107 63
80 105 62
81 107 63
80 105 63
81 106 62
83 109 64
83 109 65
85 111 66
76 101 59
84 109 65
80 105 62
97 118 89
165 177 180
176 188 193
154 168 168
178 190 194
156 170 169
153 167 164
142 158 152
127 144 131
111 131 110
118 135 118
101 120 97
82 107 64
78 103 60
80 106 62
83 109 64
96 117 88
153 166 166
167 180 185
176 188 193
176 188 195
164 177 182
165 177 179
184 196 204
174 186 193
162 176 180
172 184 187
173 186 193
170 182 188
156 168 169
164 177 180
129 146 135
87 110 73
83 108 67
97 119 88
125 141 129
133 148 144
158 172 172
170 184 188
168 181 184
165 178 182
170 183 185
169 180 184
143 158 154
101 122 95
81 106 63
78 104 61
78 102 62
114 133 112
122 140 127
153 167 163
167 179 180
159 172 174
123 140 129
81 105 64
81 103 71
87 111 76
121 139 124
167 181 183
190 203 213
221 233 250
225 237 254
225 237 254
225 237 254
225 237 254
225 237 254
225 237 254
225 237 254
225 237 254
225 237 254
225 237 254
225 237 254
225 237 254
225 237 254
225 237 254
225 237 254
225 237 254
225 237 254
225 237 254
225 237 254
225 237 254
225 237 254
225 237 254
225 237 254
225 237 254
225 237 254
225 237 254
225 237 254
225 237 254
225 237 254
225 237 254
225 237 254
225 237 254
225 237 254
225 237 254
225 237 254
225 237 254
225 237 254
225 237 254
225 237 254
225 237 254
225 237 254
225 237 254
225 237 254
225 237 254
225 237 254
225 237 254
225 237 254
225 237 254
225 237 254
225 237 254
225 237 254
225 237 254
225 237 254
225 237 254
225 237 254
225 237 254
225 237 254
225 237 254
225 237 254
225 237 254
225 237 254
225 237 254
225 237 254
225 237 254
225 237 254
225 237 254
225 237 254
225 237 254
225 237 254
225 237 254
225 237 254
225 237 254
225 237 254
225 237 254
225 237 254
225 237 254
225 237 254
225 237 254
225 237 254
225 237 254
225 237 254
225 237 254
225 237 254
225 237 254
225 237 254
225 237 254
225 237 254
224 236 253
202 216 228
162 176 178
129 145 138
117 132 120
120 137 123
124 140 128
132 148 136
138 153 148
152 166 165
161 174 175
168 180 184
164 177 180
167 180 184
140 155 149
121 138 126
146 160 154
157 169 170
164 176 178
173 185 189
164 176 180
169 182 186
164 178 179
168 179 183
161 175 179
144 160 153
109 129 106
86 110 72
80 106 62
79 104 61
84 111 66
81 106 62
81 106 63
80 106 63
81 106 63
81 107 63
84 109 65
141 157 150
166 178 180
143 158 153
132 148 138
110 129 108
85 110 68
81 107 63
83 108 65
80 105 61
78 104 61
81 106 63
80 105 61
81 107 63
83 109 64
76 101 59
78 103 60
79 105 62
78 103 61
74 98 57
79 105 61
80 106 62
82 105 67
131 146 136
130 148 135
113 131 114
104 125 97
81 107 62
81 106 63
81 106 63
81 107 63
78 103 60
81 107 63
82 107 63
74 99 57
81 106 63
78 103 60
83 109 64
78 103 60
81 107 63
82 107 64
81 106 63
83 109 64
81 106 63
77 101 59
78 103 60
151 165 161
161 174 178
176 188 195
172 184 190
170 182 187
164 178 179
158 172 171
134 151 142
135 152 139
107 128 102
91 116 77
84 109 64
84 110 66
79 104 61
82 108 64
81 106 62
82 108 64
80 105 62
82 108 64
82 107 63
83 109 65
78 103 61
83 108 64
148 163 156
168 180 181
173 185 191
170 183 187
182 192 198
175 188 193
180 192 199
168 182 185
171 183 188
176 187 193
179 191 200
179 190 197
174 186 192
159 172 174
174 186 190
168 181 185
178 190 194
184 195 201
166 178 182
170 182 186
166 179 183
171 184 188
164 176 179
120 136 122
82 108 64
81 106 63
82 108 64
78 104 61
92 115 81
104 127 98
119 137 117
122 140 126
136 153 143
133 150 140
146 161 156
164 178 177
163 177 180
169 182 184
171 183 187
174 186 192
170 182 185
183 194 203
169 181 185
175 188 195
168 180 182
161 175 177
91 114 78
82 108 65
82 108 64
82 108 64
80 106 62
79 105 62
79 104 61
82 107 64
84 110 65
84 110 65
81 106 63
80 105 61
78 103 60
83 108 64
76 100 58
81 107 64
81 107 62
80 105 63
84 110 65
83 108 64
83 109 65
90 113 80
166 179 183
180 192 197
180 191 197
174 185 190
173 185 191
176 187 192
176 188 192
171 182 186
166 178 183
178 189 197
166 179 182
170 182 184
177 189 193
181 193 199
170 182 183
174 186 189
180 192 197
163 176 177
182 193 198
170 182 184
180 193 199
136 152 140
82 107 63
87 113 67
79 104 61
81 106 63
82 108 64
76 102 59
80 105 62
83 109 64
81 106 62
85 111 66
80 106 63
77 102 60
86 112 66
85 111 67
81 107 62
84 110 65
82 108 64
81 107 63
80 105 61
117 136 118
176 189 195
179 191 197
164 176 177
175 187 194
172 183 189
173 185 189
174 186 191
182 193 201
163 175 177
154 168 168
170 182 186
168 181 184
182 194 201
169 181 185
164 178 181
171 183 189
161 174 178
164 176 180
148 162 161
97 121 85
82 108 64
80 105 63
85 111 66
84 110 66
80 105 62
86 111 66
82 107 63
80 105 62
80 106 63
81 107 64
80 105 62
83 106 68
96 117 87
111 131 111
118 137 117
117 136 118
101 122 96
115 134 115
104 123 104
95 117 88
86 110 71
78 104 61
79 104 60
82 107 62
77 101 58
82 107 63
81 106 63
85 111 66
77 101 59
83 109 64
77 101 59
81 106 62
124 141 126
166 178 181
170 182 184
169 182 185
172 185 189
167 179 183
169 181 186
170 182 187
171 183 188
170 182 186
171 183 187
168 180 183
169 181 185
160 173 173
169 181 185
147 161 157
137 152 145
147 161 159
155 170 171
168 180 185
173 184 189
168 180 185
167 180 184
159 173 173
172 185 190
167 179 184
146 160 157
103 123 99
88 112 78
111 130 109
135 152 145
146 161 157
167 179 184
168 181 186
164 177 183
152 165 165
136 151 144
96 117 87
79 101 66
124 140 130
150 164 163
188 202 210
218 231 247
225 237 254
225 237 254
225 237 254
225 237 254
225 237 254
225 237 254
225 237 254
225 237 254
225 237 254
225 237 254
225 237 254
225 237 254
225 237 254
225 237 254
225 237 254
225 237 254
225 237 254
225 237 254
225 237 254
225 237 254
225 237 254
225 237 254
225 237 254
225 237 254
225 237 254
225 237 254
225 237 254
225 237 254
225 237 254
225 237 254
225 237 254
225 237 254
225 237 254
225 237 254
225 237 254
225 237 254
225 237 254
225 237 254
225 237 254
225 237 254
225 237 254
225 237 254
225 237 254
225 237 254
225 237 254
225 237 254
225 237 254
225 237 254
225 237 254
225 237 254
225 237 254
225 237 254
225 237 254
225 237 254
225 237 254
225 237 254
225 237 254
225 237 254
225 237 254
225 237 254
225 237 254
225 237 254
225 237 254
225 237 254
225 237 254
225 237 254
225 237 254
225 237 254
225 237 254
225 237 254
225 237 254
225 237 254
225 237 254
225 237 254
225 237 254
225 237 254
225 237 254
225 237 254
225 237 254
225 237 254
225 237 254
225 237 254
225 237 254
225 237 254
225 237 254
225 237 254
225 237 254
225 237 254
225 237 254
225 237 254
225 237 254
225 237 254
225 237 254
225 237 254
211 223 237
176 189 196
151 165 164
128 144 136
131 146 139
150 164 163
140 154 152
164 178 178
164 176 178
156 169 170
154 167 166
157 170 170
88 108 82
78 102 63
108 126 108
141 155 149
149 162 163
169 182 188
177 189 196
167 180 183
155 169 169
168 179 183
175 187 192
162 175 178
151 165 165
126 142 132
121 138 122
88 109 80
81 106 63
80 105 62
79 105 62
78 103 61
83 109 64
157 170 170
176 188 194
153 166 164
171 184 188
172 185 191
170 182 184
149 163 162
137 154 143
120 139 119
93 117 82
79 104 61
81 107 64
85 111 66
76 101 58
84 110 66
76 100 59
82 108 64
81 106 63
81 106 61
81 107 63
86 112 66
80 106 63
158 172 174
167 180 184
177 190 197
175 187 193
157 171 172
145 160 157
138 156 145
103 124 100
90 112 79
77 103 61
85 111 67
82 107 64
84 110 66
83 109 65
80 105 62
83 110 66
75 100 58
77 102 59
77 103 60
82 108 65
80 105 62
85 110 65
92 115 79
173 186 190
173 184 191
167 179 180
169 180 184
170 182 188
176 188 192
177 188 195
173 186 192
184 196 204
170 182 185
175 187 192
163 176 176
145 159 155
141 156 152
129 146 134
113 132 111
80 104 67
86 112 66
82 108 64
79 104 61
79 104 61
80 106 62
104 125 97
168 180 186
167 179 185
166 178 181
173 185 193
177 189 193
175 188 193
179 191 196
174 185 189
176 187 192
170 182 185
174 185 190
181 193 199
183 194 201
168 181 184
170 184 189
159 171 171
170 182 185
168 181 184
168 180 181
174 187 193
163 175 177
172 184 188
145 159 157
82 109 64
77 101 60
84 110 66
80 104 61
79 105 62
84 109 64
86 112 66
77 102 59
82 107 63
81 107 62
79 104 61
83 109 64
77 102 61
82 108 64
80 105 61
87 111 71
96 117 88
105 124 104
104 125 98
125 143 127
134 150 139
140 156 148
137 152 144
114 131 117
104 126 97
108 127 107
96 116 88
84 109 67
86 112 66
80 106 63
84 110 65
77 101 59
84 110 65
80 106 63
82 106 63
85 111 66
80 105 62
82 107 63
86 112 67
82 108 64
83 108 64
84 110 65
85 111 66
91 115 79
149 164 159
177 188 192
171 182 186
168 182 187
165 178 180
164 177 180
176 188 193
180 192 197
171 184 189
173 184 187
166 179 181
172 184 189
170 183 185
179 191 198
175 187 191
173 185 189
180 192 197
173 185 191
172 185 191
172 184 186
173 186 191
121 140 125
85 111 66
84 109 64
84 110 65
85 111 66
78 102 60
83 108 64
73 97 56
74 99 57
81 106 62
80 105 61
83 108 64
76 101 59
80 105 63
85 111 66
78 103 60
79 104 61
81 107 63
77 102 60
80 106 62
121 139 125
172 184 188
171 183 190
163 177 181
177 188 194
165 178 178
166 179 183
173 185 190
171 184 189
170 182 186
180 192 199
171 184 189
168 180 182
180 193 200
160 173 177
173 186 191
175 187 191
177 189 194
169 182 186
150 163 161
83 108 66
80 105 65
99 120 94
100 120 94
113 131 112
117 135 119
126 144 126
140 155 147
139 154 147
150 164 161
162 174 174
159 173 173
159 173 174
177 189 193
176 187 194
172 185 190
164 177 182
112 130 113
83 109 64
75 100 58
80 105 62
82 107 64
77 103 60
77 102 59
77 102 60
82 107 64
81 106 62
78 103 61
81 106 63
75 99 58
80 105 62
76 101 60
85 109 73
141 155 153
169 181 185
162 174 177
175 188 195
153 167 169
168 181 187
179 191 199
162 175 178
161 173 174
159 171 170
154 168 164
132 147 139
104 124 102
101 122 97
150 165 160
166 179 184
175 186 191
168 181 184
163 176 179
168 179 183
165 178 183
152 166 170
164 176 181
172 184 188
161 174 177
161 172 174
143 157 154
131 147 140
156 170 172
158 171 173
147 162 160
119 136 124
117 135 116
124 140 128
90 113 83
88 110 78
104 123 104
146 160 160
180 194 200
220 232 248
225 237 254
225 237 254
225 237 254
225 237 254
225 237 254
225 237 254
225 237 254
225 237 254
225 237 254
225 237 254
225 237 254
225 237 254
225 237 254
225 237 254
225 237 254
225 237 254
225 237 254
225 237 254
225 237 254
225 237 254
225 237 254
225 237 254
225 237 254
225 237 254
225 237 254
225 237 254
225 237 254
225 237 254
225 237 254
225 237 254
225 237 254
225 237 254
225 237 254
225 237 254
225 237 254
225 237 254
225 237 254
225 237 254
225 237 254
225 237 254
225 237 254
225 237 254
225 237 254
225 237 254
225 237 254
225 237 254
225 237 254
225 237 254
225 237 254
225 237 254
225 237 254
225 237 254
225 237 254
225 237 254
225 237 254
225 237 254
225 237 254
225 237 254
225 237 254
225 237 254
225 237 254
225 237 254
225 237 254
225 237 254
225 237 254
225 237 254
225 237 254
225 237 254
225 237 254
225 237 254
225 237 254
225 237 254
225 237 254
225 237 254
225 237 254
225 237 254
225 237 254
225 237 254
225 237 254
225 237 254
225 237 254
225 237 254
225 237 254
225 237 254
225 237 254
225 237 254
225 237 254
225 237 254
225 237 254
225 237 254
225 237 254
225 237 254
225 237 254
225 237 254
225 237 254
225 237 254
225 237 254
225 237 254
225 237 254
225 237 254
225 237 254
222 234 251
197 210 221
173 187 192
141 157 151
133 148 140
140 156 152
157 170 171
146 161 161
134 149 143
124 140 132
130 146 139
135 152 144
133 149 139
112 131 111
109 127 110
129 145 137
141 157 153
158 171 172
168 181 188
165 177 178
177 188 195
176 188 194
167 180 184
160 173 177
160 172 175
159 173 176
145 160 154
122 140 126
89 112 77
90 115 76
156 169 171
164 176 180
163 175 179
170 183 187
173 184 187
164 176 180
183 194 200
172 184 189
171 183 190
166 179 183
155 169 172
148 160 158
122 139 126
99 120 94
80 105 65
76 101 60
81 107 64
75 99 57
77 101 60
82 107 63
79 104 61
87 112 70
170 182 186
172 185 190
172 185 190
184 196 203
168 180 184
174 187 192
179 191 199
175 187 192
151 165 165
165 178 182
149 164 157
145 161 154
122 140 126
98 120 88
80 106 62
83 109 64
85 110 65
83 109 64
75 99 58
85 111 66
74 98 57
75 101 60
140 154 149
163 176 181
165 179 181
163 175 179
173 185 190
169 182 187
171 184 190
170 183 187
179 191 198
175 188 192
167 179 181
161 174 177
156 169 169
166 179 182
170 182 187
170 182 189
167 181 184
181 192 200
169 183 189
159 172 173
156 171 169
126 143 132
110 128 111
142 158 151
161 175 176
169 182 187
171 184 188
163 176 178
163 177 182
165 177 181
180 192 197
159 172 175
167 179 185
159 173 175
166 178 183
173 185 191
175 187 196
168 182 186
178 190 196
163 176 178
164 178 181
188 199 208
160 174 174
173 186 190
179 191 200
172 185 188
87 110 77
81 106 63
80 106 62
83 108 64
77 101 59
81 106 63
83 108 64
73 98 57
77 103 60
87 113 68
83 109 65
78 103 61
78 103 60
84 110 65
78 103 60
81 107 63
77 102 60
81 107 63
82 108 63
79 104 61
79 104 61
81 107 63
153 167 162
168 179 185
174 187 193
170 184 190
178 191 197
166 178 180
171 184 190
171 184 186
168 181 184
157 170 171
150 164 164
156 168 167
151 164 161
137 153 144
124 141 125
138 153 146
122 140 123
124 141 126
109 129 108
112 132 114
98 119 94
93 115 83
140 155 146
163 176 175
165 177 180
175 187 190
177 189 194
172 184 189
183 194 202
180 192 197
169 181 186
168 181 184
175 186 191
168 180 185
174 186 190
176 187 192
174 187 192
174 186 193
178 189 195
180 192 200
170 182 186
166 179 182
174 186 191
131 147 134
76 100 58
80 104 62
80 105 62
78 103 61
80 105 63
81 106 63
80 107 63
82 107 63
79 104 61
75 100 58
73 97 56
85 111 66
78 103 61
77 102 60
79 104 61
81 106 63
83 110 65
85 111 66
80 106 62
127 144 131
177 189 193
165 179 182
171 184 185
164 177 179
171 183 187
164 178 180
155 169 170
162 175 176
158 170 172
147 161 156
154 168 164
144 159 155
139 154 146
131 147 135
125 141 129
121 139 127
128 144 130
96 116 89
148 162 158
171 183 189
167 180 183
162 175 175
170 183 185
170 182 187
171 184 190
167 180 182
168 181 186
165 178 180
173 185 191
173 184 191
159 172 174
165 178 181
171 182 188
163 175 177
174 186 191
155 168 169
97 116 92
81 107 63
74 99 58
79 104 62
77 101 59
83 109 65
78 103 61
78 104 61
75 100 58
79 104 62
79 104 61
76 101 59
79 104 62
83 109 64
79 105 62
112 131 113
160 172 176
173 185 191
164 177 180
175 188 192
159 172 175
133 149 142
122 139 128
107 124 105
86 110 73
81 106 63
76 102 60
80 105 62
82 106 68
138 153 144
174 185 193
168 181 186
163 177 179
168 179 184
145 160 157
159 173 177
164 176 182
149 163 162
133 148 143
137 151 144
100 122 94
119 137 121
126 142 133
99 119 96
92 113 87
84 108 69
111 130 111
110 129 113
125 140 129
117 133 119
130 146 137
174 188 194
209 221 235
225 237 254
225 237 254
225 237 254
225 237 254
225 237 254
225 237 254
225 237 254
225 237 254
225 237 254
225 237 254
225 237 254
225 237 254
225 237 254
225 237 254
225 237 254
225 237 254
225 237 254
225 237 254
225 237 254
225 237 254
225 237 254
225 237 254
225 237 254
225 237 254
225 237 254
225 237 254
225 237 254
225 237 254
225 237 254
225 237 254
225 237 254
225 237 254
225 237 254
225 237 254
225 237 254
225 237 254
225 237 254
225 237 254
225 237 254
225 237 254
225 237 254
225 237 254
225 237 254
225 237 254
225 237 254
225 237 254
225 237 254
225 237 254
225 237 254
225 237 254
225 237 254
225 237 254
225 237 254
225 237 254
225 237 254
225 237 254
225 237 254
225 237 254
225 237 254
225 237 254
225 237 254
225 237 254
225 237 254
225 237 254
225 237 254
225 237 254
225 237 254
225 237 254
225 237 254
225 237 254
225 237 254
225 237 254
225 237 254
225 237 254
225 237 254
225 237 254
225 237 254
225 237 254
225 237 254
225 237 254
225 237 254
225 237 254
225 237 254
225 237 254
225 237 254
225 237 254
225 237 254
225 237 254
225 237 254
225 237 254
225 237 254
225 237 254
225 237 254
225 237 254
225 237 254
225 237 254
225 237 254
225 237 254
225 237 254
225 237 254
225 237 254
225 237 254
225 237 254
225 237 254
225 237 254
225 237 254
225 237 254
225 237 254
225 237 254
218 230 246
190 203 212
162 176 180
122 138 129
125 141 132
105 123 103
77 101 63
108 126 106
120 136 126
151 164 165
154 167 170
162 175 178
164 176 182
157 169 171
163 174 177
148 163 163
138 153 151
144 159 156
144 158 154
165 179 182
161 174 177
157 170 171
160 171 174
162 176 179
151 166 166
145 160 159
118 134 124
138 153 149
137 151 151
165 177 181
172 184 191
163 176 180
170 181 186
169 181 184
155 168 168
175 188 193
176 188 194
153 167 167
170 183 188
175 187 196
179 192 198
142 158 156
125 141 131
119 136 121
85 108 73
77 101 58
76 101 59
134 150 140
175 187 192
167 180 185
171 183 187
175 186 192
166 178 182
163 176 177
166 178 180
161 174 176
168 180 186
172 185 190
161 175 177
167 178 180
161 173 178
167 180 184
162 174 176
142 157 154
138 153 147
126 143 131
94 115 89
83 108 67
86 112 67
91 114 80
158 171 174
170 183 185
167 179 181
171 184 189
168 181 187
178 189 193
171 183 186
169 182 186
163 176 178
166 179 183
168 181 185
175 187 195
171 183 187
167 179 184
168 180 182
160 174 177
160 173 176
169 181 184
168 180 184
161 175 176
169 182 186
170 183 189
140 155 149
82 108 64
85 111 69
95 117 88
116 132 119
132 148 135
120 136 124
165 178 180
157 170 171
162 174 175
173 184 190
176 188 193
163 177 180
171 183 187
180 190 197
169 182 187
171 185 191
179 190 197
170 183 188
154 167 169
163 176 179
172 184 187
170 183 187
122 141 122
83 108 64
84 110 65
79 104 61
81 106 62
79 105 62
77 101 59
79 105 61
79 105 62
81 107 63
76 101 59
80 105 62
79 104 62
78 103 60
80 105 62
84 109 65
81 106 62
82 108 64
77 102 60
81 107 63
80 105 62
83 109 65
110 129 111
171 184 191
186 196 203
174 186 187
173 185 190
163 175 179
164 178 181
175 187 193
172 184 188
163 177 181
174 186 193
175 187 192
164 178 182
157 171 172
169 181 185
165 178 181
175 187 191
175 187 194
172 185 188
171 183 189
177 189 194
169 182 186
127 144 129
81 106 62
79 105 63
81 107 64
80 105 63
83 109 66
85 109 72
86 108 72
90 114 78
103 124 97
101 122 93
113 131 113
104 125 99
111 130 109
109 129 108
103 124 98
117 135 116
112 130 108
106 125 106
109 130 103
118 136 117
158 171 172
152 166 164
153 167 164
151 165 162
141 156 150
160 173 171
151 165 164
152 167 164
158 171 171
154 167 165
142 157 148
139 155 147
160 174 174
150 164 162
156 170 171
165 178 181
161 173 175
152 165 166
160 173 174
163 175 176
112 131 111
95 119 84
86 111 72
82 108 64
81 107 63
81 107 64
78 104 61
81 107 63
74 99 57
78 103 61
75 99 58
80 105 62
83 108 64
80 105 62
77 101 59
80 106 62
80 106 63
85 112 67
85 108 72
148 162 159
167 180 184
175 188 194
165 178 183
174 186 189
172 184 188
171 182 188
161 174 176
158 172 173
173 184 189
174 186 191
170 182 187
166 179 183
167 180 185
167 179 183
162 175 179
165 178 179
142 158 156
79 104 61
74 98 56
80 105 63
75 100 58
79 105 62
77 101 60
82 107 64
78 102 60
81 106 63
80 105 63
76 101 59
80 105 62
82 106 68
92 114 84
91 113 82
122 139 125
120 139 123
117 135 120
85 108 76
80 104 65
76 99 57
76 101 59
78 103 61
80 106 62
75 100 59
80 105 62
79 103 61
82 107 66
115 133 117
162 175 179
160 173 175
150 163 164
150 164 161
149 164 159
159 171 173
153 166 165
152 165 164
146 159 160
152 165 166
148 162 159
93 114 87
77 102 60
106 126 103
126 142 132
134 149 142
160 174 177
144 158 157
142 157 155
164 177 180
197 210 221
219 231 248
225 237 254
225 237 254
225 237 254
225 237 254
225 237 254
225 237 254
225 237 254
225 237 254
225 237 254
225 237 254
225 237 254
225 237 254
225 237 254
225 237 254
225 237 254
225 237 254
225 237 254
225 237 254
225 237 254
225 237 254
225 237 254
225 237 254
225 237 254
225 237 254
225 237 254
225 237 254
225 237 254
225 237 254
225 237 254
225 237 254
225 237 254
225 237 254
225 237 254
225 237 254
225 237 254
225 237 254
225 237 254
225 237 254
225 237 254
225 237 254
225 237 254
225 237 254
225 237 254
225 237 254
225 237 254
225 237 254
225 237 254
225 237 254
225 237 254
225 237 254
225 237 254
225 237 254
225 237 254
225 237 254
225 237 254
225 237 254
225 237 254
225 237 254
225 237 254
225 237 254
225 237 254
225 237 254
225 237 254
225 237 254
225 237 254
225 237 254
225 237 254
225 237 254
225 237 254
225 237 254
225 237 254
225 237 254
225 237 254
225 237 254
225 237 254
225 237 254
225 237 254
225 237 254
225 237 254
225 237 254
225 237 254
225 237 254
225 237 254
225 237 254
225 237 254
225 237 254
225 237 254
225 237 254
225 237 254
225 237 254
225 237 254
225 237 254
225 237 254
225 237 254
225 237 254
225 237 254
225 237 254
225 237 254
225 237 254
225 237 254
225 237 254
225 237 254
225 237 254
225 237 254
225 237 254
225 237 254
225 237 254
225 237 254
225 237 254
225 237 254
225 237 254
225 237 254
225 237 254
225 237 254
225 237 254
225 237 254
212 225 239
194 206 218
166 180 182
144 159 156
103 123 104
87 109 76
79 104 64
99 119 97
131 145 139
140 155 150
143 158 155
161 174 179
163 175 179
166 178 182
152 165 167
132 146 141
122 137 125
96 117 91
92 112 86
97 116 94
113 131 112
130 145 135
118 134 122
122 138 129
114 132 115
108 129 106
123 139 126
131 147 140
149 163 160
151 165 167
161 174 176
165 178 184
164 177 181
154 167 168
158 172 175
164 177 179
169 180 186
165 178 181
172 184 189
173 185 191
167 180 187
164 176 178
139 154 146
122 137 125
142 156 153
163 178 181
166 178 181
153 166 168
159 172 172
173 185 189
165 178 184
159 172 173
167 181 184
179 190 199
168 182 187
164 177 180
167 179 181
170 182 186
170 182 186
162 175 178
180 192 198
163 176 180
166 180 184
175 187 193
156 170 171
123 140 124
117 136 119
136 152 145
163 175 177
164 177 181
170 182 187
160 174 178
161 173 178
168 180 183
164 176 180
170 183 188
162 174 178
163 176 178
169 182 187
164 176 178
184 195 201
163 175 180
174 185 189
163 176 178
177 190 196
175 187 193
157 169 173
174 187 192
90 112 85
73 98 57
79 105 62
80 105 62
74 98 57
83 109 65
76 101 58
79 105 62
79 104 61
78 103 60
83 107 66
103 124 97
109 129 106
131 147 136
148 162 157
134 149 144
155 169 170
149 162 163
175 188 193
183 195 202
174 185 189
166 179 184
141 155 149
78 103 60
81 107 63
83 109 65
81 106 63
82 108 64
81 105 63
77 102 60
80 105 62
83 108 64
76 102 60
78 103 60
77 102 61
80 106 63
81 107 63
80 105 62
79 104 61
76 100 57
79 103 61
78 103 61
83 109 64
82 108 64
93 115 85
160 174 175
168 181 185
181 192 198
173 185 188
173 184 186
181 192 198
161 174 177
168 181 185
172 185 190
172 184 190
174 186 191
163 175 178
165 177 180
183 195 202
167 180 183
166 179 185
163 177 180
174 186 191
163 176 178
177 189 196
167 180 184
134 150 142
82 108 64
80 105 62
84 110 66
80 106 61
83 109 65
80 105 62
82 108 64
83 109 66
83 109 65
75 99 58
83 108 64
82 107 64
75 99 58
76 101 59
76 101 59
83 108 65
79 105 62
81 107 63
82 108 65
80 106 63
113 133 113
172 183 186
162 175 178
174 186 191
168 180 184
163 176 179
167 181 186
170 184 192
160 173 176
168 180 183
175 186 191
172 184 189
173 185 190
158 171 172
165 177 182
175 187 191
179 192 199
162 176 180
174 186 192
171 184 189
116 132 119
80 105 62
81 106 62
80 105 63
83 109 65
80 105 62
86 112 66
80 105 62
75 100 58
80 106 63
78 104 61
78 103 61
79 105 62
78 103 60
79 105 63
80 106 63
77 102 59
74 98 57
89 112 81
163 176 179
160 173 173
166 178 186
157 169 171
180 191 198
170 182 188
171 183 189
162 174 176
161 175 177
162 175 179
165 178 182
162 175 178
171 184 188
176 187 191
175 187 193
163 176 178
161 174 177
115 133 114
78 103 62
75 100 58
77 101 59
81 106 63
79 104 61
76 101 60
87 111 76
109 127 110
113 130 115
134 149 142
124 141 127
150 163 162
157 170 169
156 169 172
130 145 138
84 106 74
73 98 57
74 98 56
82 107 64
80 106 63
83 109 65
80 102 71
112 130 112
108 127 108
119 137 122
116 131 118
148 163 158
120 137 123
101 120 95
130 147 139
126 143 132
127 143 136
147 160 160
168 180 185
168 180 185
162 175 179
169 183 189
155 169 169
126 141 134
110 128 111
103 122 106
137 152 148
153 166 165
146 160 159
153 168 170
181 194 202
191 203 213
212 225 240
225 237 254
225 237 254
225 237 254
225 237 254
225 237 254
225 237 254
225 237 254
225 237 254
225 237 254
225 237 254
225 237 254
225 237 254
225 237 254
225 237 254
225 237 254
225 237 254
225 237 254
225 237 254
225 237 254
225 237 254
225 237 254
225 237 254
225 237 254
225 237 254
225 237 254
225 237 254
225 237 254
225 237 254
225 237 254
225 237 254
225 237 254
225 237 254
225 237 254
225 237 254
225 237 254
225 237 254
225 237 254
225 237 254
225 237 254
225 237 254
225 237 254
225 237 254
225 237 254
225 237 254
225 237 254
225 237 254
225 237 254
225 237 254
225 237 254
225 237 254
225 237 254
225 237 254
225 237 254
225 237 254
225 237 254
225 237 254
225 237 254
225 237 254
225 237 254
225 237 254
225 237 254
225 237 254
225 237 254
225 237 254
225 237 254
225 237 254
225 237 254
225 237 254
225 237 254
225 237 254
225 237 254
225 237 254
225 237 254
225 237 254
225 237 254
225 237 254
225 237 254
225 237 254
225 237 254
225 237 254
225 237 254
225 237 254
225 237 254
225 237 254
225 237 254
225 237 254
225 237 254
225 237 254
225 237 254
225 237 254
225 237 254
225 237 254
225 237 254
225 237 254
225 237 254
225 237 254
225 237 254
225 237 254
225 237 254
225 237 254
225 237 254
225 237 254
225 237 254
225 237 254
225 237 254
225 237 254
225 237 254
225 237 254
225 237 254
225 237 254
225 237 254
225 237 254
225 237 254
225 237 254
225 237 254
225 237 254
225 237 254
225 237 254
225 237 254
225 237 254
225 237 254
225 237 254
225 237 254
225 237 254
211 223 239
195 207 220
161 174 177
139 154 153
107 123 106
76 99 64
79 102 66
98 118 95
132 148 142
148 162 161
168 180 184
147 161 160
162 175 178
172 184 190
157 171 175
139 154 150
117 134 120
145 157 154
169 181 186
153 168 170
162 175 178
160 173 176
167 179 185
158 171 175
156 170 172
164 177 179
157 171 172
158 171 173
149 163 159
139 155 149
148 162 161
139 154 145
147 161 159
150 165 167
166 178 182
166 178 182
164 177 181
178 189 195
142 156 152
80 105 62
76 100 59
83 108 64
88 112 75
112 130 113
127 143 131
146 162 160
162 176 178
164 177 180
172 184 189
173 186 189
164 177 179
176 188 196
170 182 189
173 185 191
165 179 184
176 189 195
164 177 182
154 168 170
167 179 181
163 176 178
164 177 181
92 116 82
80 106 63
76 100 59
75 100 58
83 108 67
98 119 93
121 139 123
122 139 124
143 157 154
150 165 163
148 162 161
174 185 191
163 175 178
165 178 182
162 175 180
175 188 194
170 182 187
162 173 176
169 181 185
166 178 180
162 174 177
165 179 182
117 136 121
80 105 62
72 96 56
77 101 59
77 102 60
81 107 64
77 101 60
84 110 66
76 102 61
78 102 60
83 109 65
80 105 62
78 104 62
80 106 62
75 101 59
81 106 62
75 99 58
79 104 62
79 104 61
88 113 72
102 121 97
101 120 96
141 155 151
145 159 156
116 131 117
122 139 125
110 128 108
100 121 93
80 105 62
80 106 62
80 105 62
78 103 60
79 104 62
76 102 60
76 101 59
80 106 63
81 106 62
82 108 63
80 105 62
75 99 58
75 100 58
80 104 62
78 103 60
81 107 63
87 110 74
161 174 174
169 182 185
161 173 177
180 191 199
168 181 186
168 180 182
170 183 189
185 196 203
165 180 184
155 167 169
164 175 180
161 174 177
162 174 175
172 184 191
166 179 183
165 178 182
171 183 187
177 188 193
173 185 189
168 181 186
175 186 191
150 163 159
77 102 63
77 101 59
76 100 59
78 103 60
80 105 62
79 104 62
76 101 59
74 98 57
81 106 63
82 107 64
77 102 59
79 104 61
79 104 61
77 102 59
74 99 57
77 101 59
78 102 60
76 101 59
85 110 65
80 105 62
135 150 140
158 172 176
161 174 179
166 178 182
172 184 191
162 176 176
166 180 184
164 177 183
163 176 180
167 179 183
165 178 180
164 177 180
166 180 183
170 182 186
162 174 176
171 183 189
167 180 184
166 178 181
165 178 181
173 186 191
105 125 105
81 106 63
79 105 62
79 104 61
80 106 63
79 104 62
80 105 62
75 100 58
77 101 59
78 103 61
79 105 62
81 106 63
83 108 64
74 98 57
80 106 63
79 104 61
80 105 62
76 100 59
115 133 117
168 181 182
173 184 189
178 190 196
169 181 187
165 178 181
171 182 189
174 187 194
166 179 183
151 165 166
165 178 181
167 180 184
150 162 165
162 176 180
169 181 185
176 188 193
164 177 179
128 145 136
109 127 110
109 126 109
122 140 128
137 152 146
129 145 137
148 163 162
157 171 171
159 171 172
166 177 181
166 178 184
161 174 177
146 161 160
156 169 169
156 169 172
157 169 171
133 146 140
115 131 120
121 137 129
145 161 158
149 163 161
158 172 172
169 182 188
164 177 179
158 170 171
152 166 165
152 165 164
133 147 140
150 162 163
157 171 173
156 170 170
163 177 182
152 166 170
162 175 177
166 179 181
169 181 186
155 168 169
153 166 166
157 170 173
159 172 172
137 152 148
153 165 166
140 154 153
156 169 173
172 185 191
192 205 215
219 232 248
225 237 254
225 237 254
225 237 254
225 237 254
225 237 254
225 237 254
225 237 254
225 237 254
225 237 254
225 237 254
225 237 254
225 237 254
225 237 254
225 237 254
225 237 254
225 237 254
225 237 254
225 237 254
225 237 254
225 237 254
225 237 254
225 237 254
225 237 254
225 237 254
225 237 254
225 237 254
225 237 254
225 237 254
225 237 254
225 237 254
225 237 254
225 237 254
225 237 254
225 237 254
225 237 254
225 237 254
225 237 254
225 237 254
225 237 254
225 237 254
225 237 254
225 237 254
225 237 254
225 237 254
225 237 254
225 237 254
225 237 254
225 237 254
225 237 254
225 237 254
225 237 254
225 237 254
225 237 254
225 237 254
225 237 254
225 237 254
225 237 254
225 237 254
225 237 254
225 237 254
225 237 254
225 237 254
225 237 254
225 237 254
225 237 254
225 237 254
225 237 254
225 237 254
225 237 254
225 237 254
225 237 254
225 237 254
225 237 254
225 237 254
225 237 254
225 237 254
225 237 254
225 237 254
225 237 254
225 237 254
225 237 254
225 237 254
225 237 254
225 237 254
225 237 254
225 237 254
225 237 254
225 237 254
225 237 254
225 237 254
225 237 254
225 237 254
225 237 254
225 237 254
225 237 254
225 237 254
225 237 254
225 237 254
225 237 254
225 237 254
225 237 254
225 237 254
225 237 254
225 237 254
225 237 254
225 237 254
225 237 254
225 237 254
225 237 254
225 237 254
225 237 254
225 237 254
225 237 254
225 237 254
225 237 254
225 237 254
225 237 254
225 237 254
225 237 254
225 237 254
225 237 254
225 237 254
225 237 254
225 237 254
225 237 254
225 237 254
225 237 254
225 237 254
225 237 254
225 237 254
225 237 254
223 235 252
213 225 240
191 204 215
178 190 197
134 148 141
107 125 109
78 101 65
74 95 63
99 118 97
116 132 122
131 146 142
139 154 153
161 173 175
152 166 168
70 94 54
79 101 68
101 121 97
122 138 130
135 150 147
156 169 169
167 179 184
160 174 175
160 173 177
157 171 173
162 174 178
159 172 175
149 163 162
144 158 156
130 145 139
122 139 129
99 118 97
85 106 74
73 97 57
83 107 72
87 106 84
140 154 150
144 158 155
123 139 129
136 152 147
132 147 143
127 144 133
118 136 119
117 134 120
120 137 123
109 127 110
116 132 118
125 140 132
126 142 131
144 158 157
166 179 183
162 176 178
157 170 171
162 175 179
172 185 190
170 182 185
161 173 174
163 176 179
128 144 132
77 101 59
79 104 61
79 104 62
79 105 62
78 104 61
77 102 60
73 97 57
80 105 61
79 103 60
81 106 63
82 106 68
101 124 94
113 131 119
131 147 135
137 153 149
160 173 175
170 182 187
160 173 178
159 172 174
160 173 175
165 179 185
164 178 181
82 105 69
79 104 61
80 105 62
74 98 57
75 99 58
75 100 58
77 102 60
78 103 61
74 98 57
80 105 62
77 101 59
76 100 59
72 96 55
81 106 63
81 106 62
78 103 60
79 104 62
71 95 55
78 102 60
69 94 54
79 104 61
81 106 62
128 142 136
166 179 182
165 178 181
175 188 194
173 186 191
167 180 186
173 185 191
162 176 178
158 170 172
153 168 166
151 165 164
135 151 141
126 142 129
108 128 108
108 127 107
104 123 100
94 116 88
88 111 74
77 102 60
77 102 60
80 105 62
80 106 62
140 156 151
164 177 180
170 183 190
164 177 184
170 181 185
151 166 168
162 175 180
166 178 181
167 180 184
164 177 177
165 178 180
172 184 190
164 177 180
163 176 179
164 177 179
171 183 187
178 189 195
163 176 184
156 169 170
171 184 190
178 190 195
160 174 174
84 109 68
82 107 64
81 107 64
77 101 60
71 95 55
83 109 65
77 102 58
79 104 61
80 106 63
80 105 62
79 104 62
76 101 60
77 102 60
78 103 61
76 101 59
79 104 61
75 99 59
78 104 62
75 99 57
82 107 66
140 155 147
180 193 201
165 178 181
172 185 191
181 193 198
180 192 198
164 177 179
165 178 181
163 176 179
162 173 177
166 178 183
170 182 186
170 182 188
175 185 189
167 180 185
166 179 182
165 178 182
157 171 171
167 180 183
165 178 180
101 120 100
72 97 56
76 101 59
79 105 61
78 104 62
82 107 64
82 107 63
80 106 63
81 106 62
80 105 62
78 104 62
82 108 63
79 103 60
79 105 62
84 109 64
84 109 65
85 111 66
73 97 56
141 156 151
172 185 190
170 184 189
172 184 189
165 177 181
163 174 177
160 172 175
165 178 181
164 177 179
152 166 165
136 151 146
140 155 151
131 147 137
113 131 114
114 132 115
121 139 123
97 117 93
120 135 125
152 166 162
141 156 151
138 152 147
127 142 133
128 144 133
115 133 118
101 119 102
103 124 100
95 117 86
103 123 96
84 107 71
73 97 57
77 102 60
88 112 77
144 158 152
162 175 178
159 172 173
160 173 176
147 160 163
164 176 181
159 171 174
137 153 146
128 143 135
103 124 102
98 120 93
77 102 60
107 124 107
156 168 173
166 178 181
164 177 179
161 173 177
159 171 173
140 153 152
135 149 144
122 138 129
110 129 112
131 147 139
145 159 158
133 147 144
134 149 144
167 181 184
179 192 200
206 218 231
225 237 254
225 237 254
225 237 254
225 237 254
225 237 254
225 237 254
225 237 254
225 237 254
225 237 254
225 237 254
225 237 254
225 237 254
225 237 254
225 237 254
225 237 254
225 237 254
225 237 254
225 237 254
225 237 254
225 237 254
225 237 254
225 237 254
225 237 254
225 237 254
225 237 254
225 237 254
225 237 254
225 237 254
225 237 254
225 237 254
225 237 254
225 237 254
225 237 254
225 237 254
225 237 254
225 237 254
225 237 254
225 237 254
225 237 254
225 237 254
225 237 254
225 237 254
225 237 254
225 237 254
225 237 254
225 237 254
225 237 254
225 237 254
225 237 254
225 237 254
225 237 254
225 237 254
225 237 254
225 237 254
225 237 254
225 237 254
225 237 254
225 237 254
225 237 254
225 237 254
225 237 254
225 237 254
225 237 254
225 237 254
225 237 254
225 237 254
225 237 254
225 237 254
225 237 254
225 237 254
225 237 254
225 237 254
225 237 254
225 237 254
225 237 254
225 237 254
225 237 254
225 237 254
225 237 254
225 237 254
225 237 254
225 237 254
225 237 254
225 237 254
225 237 254
225 237 254
225 237 254
225 237 254
225 237 254
225 237 254
225 237 254
225 237 254
225 237 254
225 237 254
225 237 254
225 237 254
225 237 254
225 237 254
225 237 254
225 237 254
225 237 254
225 237 254
225 237 254
225 237 254
225 237 254
225 237 254
225 237 254
225 237 254
225 237 254
225 237 254
225 237 254
225 237 254
225 237 254
225 237 254
225 237 254
225 237 254
225 237 254
225 237 254
225 237 254
225 237 254
225 237 254
225 237 254
225 237 254
225 237 254
225 237 254
225 237 254
225 237 254
225 237 254
225 237 254
225 237 254
225 237 254
225 237 254
225 237 254
225 237 254
225 237 254
225 237 254
225 237 254
225 237 254
225 237 254
225 237 254
217 229 244
197 209 222
166 179 184
147 161 160
102 121 99
97 117 93
74 99 58
88 108 82
129 145 137
113 129 114
94 116 88
74 98 58
75 99 58
75 99 58
76 101 59
92 112 85
116 132 120
140 155 151
143 157 157
152 165 166
152 165 168
155 170 171
152 165 166
151 165 165
152 165 166
169 182 187
168 181 185
146 161 158
141 155 150
104 125 103
147 162 164
151 164 165
159 172 175
159 171 172
154 168 170
165 178 182
164 177 182
161 175 179
175 186 191
152 165 168
163 175 177
153 166 168
159 172 177
156 169 172
166 179 185
150 161 163
141 155 150
142 157 153
136 151 143
123 140 126
124 140 130
133 149 142
125 142 128
117 135 121
121 137 127
109 128 109
106 125 104
103 122 99
94 114 88
102 122 104
92 113 85
84 107 74
76 99 61
78 102 60
77 102 60
76 100 59
76 100 58
78 103 61
72 96 55
77 102 59
84 106 76
109 129 106
128 144 132
132 146 141
138 154 145
110 128 107
88 111 78
78 103 60
77 102 60
81 106 62
76 101 60
80 105 62
75 99 58
79 104 61
75 99 58
79 104 62
80 105 62
77 102 60
78 102 60
74 99 58
77 102 60
76 101 59
75 99 57
79 104 61
78 102 60
80 105 62
130 145 134
176 188 195
171 183 189
156 167 170
168 181 183
168 181 187
156 168 170
175 187 193
175 187 194
160 174 175
159 173 175
169 181 185
187 198 206
164 176 180
158 171 175
160 174 177
161 175 178
175 187 193
170 182 186
166 179 183
145 160 156
155 169 167
118 137 121
116 133 120
118 135 118
138 153 149
122 141 127
134 149 142
133 148 145
147 161 160
150 165 161
150 162 162
150 164 163
162 175 178
156 169 172
155 169 170
160 172 175
152 166 168
167 179 183
167 180 182
175 187 194
174 186 191
177 188 193
150 164 163
80 104 64
80 105 63
81 107 63
73 97 56
75 100 59
76 100 59
79 104 62
75 100 58
76 101 60
81 106 63
81 106 62
78 102 61
80 105 62
79 104 61
81 106 63
72 96 56
80 105 62
76 101 60
75 99 58
82 107 67
148 162 158
180 191 198
169 183 187
173 184 189
172 184 188
161 174 177
168 179 184
166 179 183
163 176 179
166 179 183
175 186 192
160 173 175
163 175 180
160 173 176
164 177 181
166 178 181
172 184 192
169 181 184
155 169 171
143 157 152
76 98 63
78 103 61
78 104 61
77 102 60
78 103 61
79 105 62
83 108 64
74 98 57
79 105 62
73 98 57
77 102 60
77 102 60
74 97 57
96 116 90
102 121 97
96 115 94
104 124 101
103 122 103
149 163 162
149 164 162
148 163 160
140 156 150
139 153 147
131 146 139
136 151 143
137 152 146
143 157 150
119 135 124
135 150 146
154 167 168
153 166 167
150 164 166
146 161 161
167 180 185
129 144 137
80 103 67
78 103 60
82 108 64
76 101 60
76 101 60
74 98 58
79 104 61
76 101 60
80 105 61
73 98 58
76 100 58
76 101 60
75 100 59
80 101 71
111 128 115
150 163 161
134 149 142
125 141 132
121 139 125
107 124 107
89 111 79
74 99 57
75 99 57
73 98 58
74 98 57
77 102 60
110 128 108
130 145 141
157 170 173
137 152 149
127 142 135
114 130 120
94 114 91
72 94 58
84 106 76
101 118 100
108 128 108
134 148 143
170 183 189
181 194 201
211 224 238
225 237 254
225 237 254
225 237 254
225 237 254
225 237 254
225 237 254
225 237 254
225 237 254
225 237 254
225 237 254
225 237 254
225 237 254
225 237 254
225 237 254
225 237 254
225 237 254
225 237 254
225 237 254
225 237 254
225 237 254
225 237 254
225 237 254
225 237 254
225 237 254
225 237 254
225 237 254
225 237 254
225 237 254
225 237 254
225 237 254
225 237 254
225 237 254
225 237 254
225 237 254
225 237 254
225 237 254
225 237 254
225 237 254
225 237 254
225 237 254
225 237 254
225 237 254
225 237 254
225 237 254
225 237 254
225 237 254
225 237 254
225 237 254
225 237 254
225 237 254
225 237 254
225 237 254
225 237 254
225 237 254
225 237 254
225 237 254
225 237 254
225 237 254
225 237 254
225 237 254
225 237 254
225 237 254
225 237 254
225 237 254
225 237 254
225 237 254
225 237 254
225 237 254
225 237 254
225 237 254
225 237 254
225 237 254
225 237 254
225 237 254
225 237 254
225 237 254
225 237 254
225 237 254
225 237 254
225 237 254
225 237 254
225 237 254
225 237 254
225 237 254
225 237 254
225 237 254
225 237 254
225 237 254
225 237 254
225 237 254
225 237 254
225 237 254
225 237 254
225 237 254
225 237 254
225 237 254
225 237 254
225 237 254
225 237 254
225 237 254
225 237 254
225 237 254
225 237 254
225 237 254
225 237 254
225 237 254
225 237 254
225 237 254
225 237 254
225 237 254
225 237 254
225 237 254
225 237 254
225 237 254
225 237 254
225 237 254
225 237 254
225 237 254
225 237 254
225 237 254
225 237 254
225 237 254
225 237 254
225 237 254
225 237 254
225 237 254
225 237 254
225 237 254
225 237 254
225 237 254
225 237 254
225 237 254
225 237 254
225 237 254
225 237 254
225 237 254
225 237 254
225 237 254
225 237 254
225 237 254
225 237 254
225 237 254
225 237 254
225 237 254
225 237 254
225 237 254
225 237 254
225 237 254
217 229 244
207 218 233
184 197 205
131 146 142
130 145 139
126 139 134
150 163 164
145 158 158
122 138 129
122 139 129
103 122 102
74 98 60
72 95 56
70 94 54
72 96 56
87 108 77
93 112 88
121 138 125
140 154 151
143 156 155
154 167 170
159 172 176
164 177 181
169 182 187
152 165 168
117 135 119
73 98 57
72 96 56
98 117 95
121 139 125
136 151 143
147 161 159
160 172 176
160 172 175
166 178 184
161 174 176
175 187 194
161 175 176
155 168 169
150 163 164
159 172 176
159 172 176
154 168 169
161 174 176
171 183 188
159 171 173
138 153 148
127 144 132
125 141 132
134 149 144
161 173 174
153 167 169
165 177 181
156 168 172
169 182 187
156 168 170
156 169 171
168 181 185
170 183 188
160 173 175
157 170 172
142 157 155
141 155 151
153 166 168
144 159 157
148 161 158
126 142 134
139 153 151
140 154 148
119 136 121
123 139 129
118 135 122
129 144 134
121 137 124
133 147 140
111 129 113
117 136 119
95 118 87
82 108 64
91 112 84
94 115 88
106 126 108
91 111 83
92 112 90
101 121 99
86 108 75
87 110 76
82 105 68
81 104 67
81 105 65
76 100 58
106 124 104
156 171 176
164 177 184
168 180 185
175 186 192
174 187 194
166 179 184
153 167 170
166 179 181
167 179 183
163 176 180
166 179 184
179 190 196
163 175 177
154 168 169
171 185 191
170 182 185
158 172 175
160 172 175
164 177 182
167 180 184
171 183 188
132 148 140
77 101 60
78 103 61
82 107 63
75 99 58
71 95 55
81 106 64
77 102 60
82 107 63
76 100 59
77 102 61
73 98 56
78 103 61
82 104 73
92 113 84
96 118 87
104 124 102
109 129 109
101 121 99
115 133 113
128 145 132
145 159 155
144 158 155
144 158 153
119 135 121
122 139 124
117 135 120
130 147 135
113 131 118
107 126 108
99 119 96
122 140 126
113 132 113
105 124 105
108 129 105
99 121 93
101 121 95
111 130 109
102 122 98
105 124 103
89 112 80
92 113 84
144 158 155
155 169 168
151 163 164
150 165 163
165 178 183
165 177 180
156 169 171
159 172 175
158 171 170
161 174 178
162 173 178
159 173 176
161 174 175
157 170 171
157 170 174
166 179 183
168 181 188
160 173 174
167 179 181
129 145 137
84 107 71
79 104 61
83 108 67
77 100 62
81 106 66
75 99 58
75 101 59
79 104 64
82 106 66
85 108 74
86 107 79
86 109 76
93 114 87
78 102 62
78 104 62
77 102 60
80 105 63
121 138 123
157 170 170
164 177 181
166 179 184
164 177 182
175 187 194
159 173 175
161 174 179
161 174 178
174 185 192
163 176 180
163 175 181
157 171 174
168 180 186
165 177 180
164 177 182
148 161 160
100 120 94
70 94 55
75 100 59
81 105 62
72 96 56
77 102 60
73 98 57
77 102 61
78 103 61
84 108 70
83 103 79
115 132 117
129 145 137
138 154 147
100 120 97
78 102 66
76 101 59
75 99 58
71 95 55
71 95 55
72 96 56
75 100 59
71 95 55
72 96 56
69 92 54
78 100 64
97 116 94
120 136 123
108 124 111
95 115 90
70 92 60
73 97 56
84 106 74
92 111 88
93 109 90
122 138 129
161 175 175
188 201 210
216 228 243
225 237 254
225 237 254
225 237 254
225 237 254
225 237 254
225 237 254
225 237 254
225 237 254
225 237 254
225 237 254
225 237 254
225 237 254
225 237 254
225 237 254
225 237 254
225 237 254
225 237 254
225 237 254
225 237 254
225 237 254
225 237 254
225 237 254
225 237 254
225 237 254
225 237 254
225 237 254
225 237 254
225 237 254
225 237 254
225 237 254
225 237 254
225 237 254
225 237 254
225 237 254
225 237 254
225 237 254
225 237 254
225 237 254
225 237 254
225 237 254
225 237 254
225 237 254
225 237 254
225 237 254
225 237 254
225 237 254
225 237 254
225 237 254
225 237 254
225 237 254
225 237 254
225 237 254
225 237 254
225 237 254
225 237 254
225 237 254
225 237 254
225 237 254
225 237 254
225 237 254
225 237 254
225 237 254
225 237 254
225 237 254
225 237 254
225 237 254
225 237 254
225 237 254
225 237 254
225 237 254
225 237 254
225 237 254
225 237 254
225 237 254
225 237 254
225 237 254
225 237 254
225 237 254
225 237 254
225 237 254
225 237 254
225 237 254
225 237 254
225 237 254
225 237 254
225 237 254
225 237 254
225 237 254
225 237 254
225 237 254
225 237 254
225 237 254
225 237 254
225 237 254
225 237 254
225 237 254
225 237 254
225 237 254
225 237 254
225 237 254
225 237 254
225 237 254
225 237 254
225 237 254
225 237 254
225 237 254
225 237 254
225 237 254
225 237 254
225 237 254
225 237 254
225 237 254
225 237 254
225 237 254
225 237 254
225 237 254
225 237 254
225 237 254
225 237 254
225 237 254
225 237 254
225 237 254
225 237 254
225 237 254
225 237 254
225 237 254
225 237 254
225 237 254
225 237 254
225 237 254
225 237 254
225 237 254
225 237 254
225 237 254
225 237 254
225 237 254
225 237 254
225 237 254
225 237 254
225 237 254
225 237 254
225 237 254
225 237 254
225 237 254
225 237 254
225 237 254
225 237 254
225 237 254
225 237 254
225 237 254
225 237 254
225 237 254
225 237 254
225 237 254
225 237 254
225 237 254
223 235 252
210 222 236
175 189 194
160 174 177
150 163 165
113 129 122
149 163 163
153 167 169
140 153 154
132 149 137
92 112 92
90 109 83
67 89 51
73 98 58
75 99 57
78 102 60
93 113 89
102 122 101
115 131 119
140 155 151
131 146 139
81 107 63
78 102 61
73 96 56
76 100 59
72 96 56
76 100 59
73 96 56
75 99 59
90 111 81
115 132 120
123 139 129
152 166 166
140 154 151
147 161 161
158 171 171
163 176 182
155 169 171
151 165 165
166 177 182
150 164 165
145 159 158
145 159 156
72 95 55
76 101 59
76 101 59
69 92 53
76 100 59
95 115 92
102 121 102
124 141 128
139 154 145
143 158 155
146 159 157
158 172 176
166 178 182
175 188 193
160 173 176
157 171 171
165 177 182
160 173 176
155 168 172
163 176 179
171 182 188
164 178 180
73 95 61
75 100 59
75 99 58
74 99 58
79 104 62
80 105 62
74 98 58
71 94 54
82 107 64
74 98 56
73 97 57
76 101 59
89 113 75
102 120 102
109 128 108
117 135 118
122 140 129
134 150 144
137 152 147
153 166 167
163 175 177
148 161 161
88 112 77
87 111 75
82 105 70
76 99 64
93 115 81
80 103 69
94 115 86
88 111 79
90 112 84
100 121 96
98 117 97
96 117 91
102 122 99
113 132 115
99 118 95
110 128 108
106 123 104
91 113 86
106 125 102
103 120 101
101 120 99
142 157 153
140 156 151
136 150 147
138 152 150
131 147 141
150 164 163
123 139 128
137 152 146
137 152 145
148 162 159
129 146 137
129 145 140
152 167 165
136 151 148
143 156 152
142 155 150
131 146 140
126 142 133
135 151 144
131 146 141
136 150 144
114 132 116
105 123 106
106 123 108
115 135 116
99 118 95
113 131 113
114 132 113
102 122 100
97 116 92
101 122 99
108 127 106
102 121 98
98 119 94
107 126 105
108 127 107
95 117 88
97 118 91
96 116 89
90 112 83
83 104 73
107 127 103
154 165 167
166 179 182
168 180 183
172 185 191
166 178 180
164 177 181
162 174 178
160 174 179
157 169 170
165 177 182
160 172 177
168 180 184
153 166 166
163 174 176
166 178 183
165 177 181
173 185 191
164 176 182
162 175 175
119 136 122
73 97 56
77 102 61
77 102 59
77 102 60
74 99 58
72 96 56
76 100 59
81 106 63
72 96 56
79 104 62
79 104 62
72 96 56
75 99 59
76 101 60
76 100 59
76 101 59
76 99 61
133 148 142
152 166 165
161 175 177
165 178 183
148 160 163
166 177 182
163 175 179
166 178 182
156 169 171
160 172 176
160 172 175
159 172 178
153 166 169
147 160 161
151 166 169
154 167 171
127 143 133
77 101 62
76 98 63
89 109 82
92 113 86
117 134 121
103 122 107
132 148 139
132 146 141
144 158 156
154 166 167
158 171 175
156 169 173
138 150 150
119 133 127
78 101 65
68 92 53
73 97 57
76 100 59
70 93 53
69 92 53
89 109 85
100 117 99
114 130 119
127 143 139
124 140 128
106 123 104
78 101 65
68 92 53
83 105 76
96 115 95
127 142 137
134 148 145
168 182 187
195 207 219
198 210 222
219 231 247
225 237 254
225 237 254
225 237 254
225 237 254
225 237 254
225 237 254
225 237 254
225 237 254
225 237 254
225 237 254
225 237 254
225 237 254
225 237 254
225 237 254
225 237 254
225 237 254
225 237 254
225 237 254
225 237 254
225 237 254
225 237 254
225 237 254
225 237 254
225 237 254
225 237 254
225 237 254
225 237 254
225 237 254
225 237 254
225 237 254
225 237 254
225 237 254
225 237 254
225 237 254
225 237 254
225 237 254
225 237 254
225 237 254
225 237 254
225 237 254
225 237 254
225 237 254
225 237 254
225 237 254
225 237 254
225 237 254
225 237 254
225 237 254
225 237 254
225 237 254
225 237 254
225 237 254
225 237 254
225 237 254
225 237 254
225 237 254
225 237 254
225 237 254
225 237 254
225 237 254
225 237 254
225 237 254
225 237 254
225 237 254
225 237 254
225 237 254
225 237 254
225 237 254
225 237 254
225 237 254
225 237 254
225 237 254
225 237 254
225 237 254
225 237 254
225 237 254
225 237 254
225 237 254
225 237 254
225 237 254
225 237 254
225 237 254
225 237 254
225 237 254
225 237 254
225 237 254
225 237 254
225 237 254
225 237 254
225 237 254
225 237 254
225 237 254
225 237 254
225 237 254
225 237 254
225 237 254
225 237 254
225 237 254
225 237 254
225 237 254
225 237 254
225 237 254
225 237 254
225 237 254
225 237 254
225 237 254
225 237 254
225 237 254
225 237 254
225 237 254
225 237 254
225 237 254
225 237 254
225 237 254
225 237 254
225 237 254
225 237 254
225 237 254
225 237 254
225 237 254
225 237 254
225 237 254
225 237 254
225 237 254
225 237 254
225 237 254
225 237 254
225 237 254
225 237 254
225 237 254
225 237 254
225 237 254
225 237 254
225 237 254
225 237 254
225 237 254
225 237 254
225 237 254
225 237 254
225 237 254
225 237 254
225 237 254
225 237 254
225 237 254
225 237 254
225 237 254
225 237 254
225 237 254
225 237 254
225 237 254
225 237 254
225 237 254
225 237 254
225 237 254
225 237 254
225 237 254
225 237 254
225 237 254
225 237 254
225 237 254
225 237 254
225 237 254
225 237 254
225 237 254
225 237 254
209 222 236
190 203 213
166 180 183
146 160 159
124 139 132
133 147 145
144 158 158
142 156 158
125 139 135
101 118 106
90 110 89
83 105 75
74 98 57
75 100 59
70 91 55
145 159 159
148 161 162
130 143 139
108 124 114
95 113 93
86 107 78
71 94 55
70 94 54
76 100 59
74 98 57
72 96 55
74 99 58
70 94 54
76 101 59
84 103 77
92 112 87
116 134 124
125 142 133
148 162 160
158 172 177
156 168 171
159 171 173
93 113 84
74 97 57
78 103 61
74 98 57
70 94 55
73 97 56
77 102 59
74 98 57
75 99 58
77 101 60
73 97 57
78 102 61
74 98 60
105 124 102
122 138 127
127 143 132
132 146 141
158 171 174
155 170 172
161 174 177
153 166 167
157 170 171
95 116 87
69 93 54
77 102 61
69 93 54
77 102 60
72 95 56
77 101 59
73 97 57
73 98 57
76 100 59
74 98 57
76 100 58
78 103 61
77 102 60
78 103 60
69 93 53
78 103 61
69 93 54
72 96 56
75 99 58
73 97 57
84 108 72
151 164 165
156 169 170
141 156 153
130 145 138
124 139 130
109 126 109
107 125 108
108 127 105
87 109 77
78 100 70
73 98 58
78 103 61
72 96 56
74 98 57
78 103 61
78 103 60
80 105 62
73 96 56
73 97 56
80 106 63
77 102 59
111 130 112
162 174 178
159 172 177
155 168 171
169 181 187
166 178 184
147 161 158
163 175 178
170 182 186
158 172 172
168 180 184
150 163 165
169 181 185
155 167 171
166 178 185
165 178 181
156 169 169
156 170 173
150 165 167
156 170 173
164 176 178
139 154 148
78 99 67
77 103 60
75 100 58
76 100 59
78 103 60
76 100 58
72 95 56
78 103 61
75 99 58
72 95 56
76 101 59
80 106 63
75 99 58
72 97 56
79 104 62
76 101 59
79 104 62
72 96 56
79 103 61
100 120 96
158 170 174
162 175 178
154 167 170
165 177 178
167 179 184
151 165 170
167 180 187
164 177 183
164 177 180
163 176 180
171 183 187
151 165 165
173 185 190
155 167 169
147 161 161
159 172 176
158 172 172
169 182 187
147 160 159
90 111 81
78 102 60
76 101 59
81 106 63
70 95 56
74 98 57
78 103 60
79 104 61
76 100 60
76 100 59
73 97 56
73 97 57
78 103 60
70 94 54
78 104 61
74 98 58
75 100 58
122 139 126
164 177 181
157 170 174
164 177 180
157 171 174
153 167 167
154 167 167
153 166 167
160 173 175
158 171 173
162 174 180
147 161 161
136 150 148
125 141 131
133 148 142
120 136 127
135 149 143
132 147 142
139 153 152
147 161 161
152 165 167
163 175 180
153 166 169
147 160 162
152 164 165
144 159 159
152 165 166
160 174 180
161 173 177
154 168 169
120 137 125
87 108 83
71 95 55
103 123 101
102 121 102
111 129 115
130 144 138
128 143 137
146 159 160
148 161 164
131 146 141
119 135 124
91 109 89
112 129 116
124 139 132
137 150 147
158 171 177
181 193 203
202 214 228
215 228 243
225 237 254
225 237 254
225 237 254
225 237 254
225 237 254
225 237 254
225 237 254
225 237 254
225 237 254
225 237 254
225 237 254
225 237 254
225 237 254
225 237 254
225 237 254
225 237 254
225 237 254
225 237 254
225 237 254
225 237 254
225 237 254
225 237 254
225 237 254
225 237 254
225 237 254
225 237 254
225 237 254
225 237 254
225 237 254
225 237 254
225 237 254
225 237 254
225 237 254
225 237 254
225 237 254
225 237 254
225 237 254
225 237 254
225 237 254
225 237 254
225 237 254
225 237 254
225 237 254
225 237 254
225 237 254
225 237 254
225 237 254
225 237 254
225 237 254
225 237 254
225 237 254
225 237 254
225 237 254
225 237 254
225 237 254
225 237 254
225 237 254
225 237 254
225 237 254
225 237 254
225 237 254
225 237 254
225 237 254
225 237 254
225 237 254
225 237 254
225 237 254
225 237 254
225 237 254
225 237 254
225 237 254
225 237 254
225 237 254
225 237 254
225 237 254
225 237 254
225 237 254
225 237 254
225 237 254
225 237 254
225 237 254
225 237 254
225 237 254
225 237 254
225 237 254
225 237 254
225 237 254
225 237 254
225 237 254
225 237 254
225 237 254
225 237 254
225 237 254
225 237 254
225 237 254
225 237 254
225 237 254
225 237 254
225 237 254
225 237 254
225 237 254
225 237 254
225 237 254
225 237 254
225 237 254
225 237 254
225 237 254
225 237 254
225 237 254
225 237 254
225 237 254
225 237 254
225 237 254
225 237 254
225 237 254
225 237 254
225 237 254
225 237 254
225 237 254
225 237 254
225 237 254
225 237 254
225 237 254
225 237 254
225 237 254
225 237 254
225 237 254
225 237 254
225 237 254
225 237 254
225 237 254
225 237 254
225 237 254
225 237 254
225 237 254
225 237 254
225 237 254
225 237 254
225 237 254
225 237 254
225 237 254
225 237 254
225 237 254
225 237 254
225 237 254
225 237 254
225 237 254
225 237 254
225 237 254
225 237 254
225 237 254
225 237 254
225 237 254
225 237 254
225 237 254
225 237 254
225 237 254
225 237 254
225 237 254
225 237 254
225 237 254
225 237 254
225 237 254
225 237 254
225 237 254
225 237 254
225 237 254
225 237 254
225 237 254
225 237 254
225 237 254
225 237 254
225 237 254
225 237 254
224 236 253
212 224 239
180 193 199
161 174 177
148 162 161
135 151 145
132 146 145
146 159 160
139 152 151
116 132 122
103 120 102
121 135 126
131 146 144
149 162 162
135 148 148
153 167 168
148 160 161
151 164 166
134 147 143
114 130 118
95 112 95
81 102 69
76 100 61
74 97 57
74 98 58
70 94 55
73 98 57
68 91 52
78 102 60
73 96 56
82 107 64
98 118 94
133 148 143
123 139 128
112 130 115
98 116 98
88 110 81
73 97 57
78 103 60
71 94 54
68 91 53
67 90 51
74 98 58
76 101 60
73 97 57
73 97 56
72 96 56
73 97 57
75 100 59
72 96 56
74 99 57
71 95 55
86 105 80
90 113 84
138 152 146
115 132 120
102 121 103
109 128 107
84 107 71
80 103 64
69 93 54
74 98 57
73 97 57
75 99 58
74 98 57
77 102 60
72 97 56
76 100 58
72 96 56
75 100 59
74 98 58
75 99 58
72 96 55
75 99 58
74 98 57
81 104 68
126 140 133
155 169 172
160 172 176
155 169 170
159 172 176
155 167 169
152 165 167
164 176 179
161 174 179
160 173 175
152 166 168
155 169 171
139 153 150
147 162 161
131 145 138
132 148 139
133 148 142
111 128 115
119 136 123
113 130 116
99 118 99
109 128 109
138 154 151
157 171 173
154 166 169
169 181 187
168 179 187
164 177 183
158 171 175
159 171 175
160 172 176
165 177 179
160 173 176
163 176 181
146 159 161
158 171 175
171 183 189
151 163 166
168 180 185
169 181 186
157 171 174
161 174 178
134 149 141
74 98 58
75 99 58
77 101 59
71 96 56
82 107 64
75 99 58
74 98 57
76 101 59
70 93 54
72 95 55
78 102 60
76 101 60
77 102 59
74 98 57
70 94 55
74 97 57
75 100 59
79 104 61
71 95 56
114 133 118
157 169 170
153 166 166
155 167 168
161 174 179
148 161 160
167 179 182
149 162 165
156 168 170
162 175 178
163 175 177
166 179 185
160 173 174
164 176 182
157 169 170
166 178 181
165 177 181
145 158 156
159 172 177
115 131 118
80 102 68
79 103 61
69 93 53
75 100 59
79 104 61
73 97 57
71 94 55
67 90 50
70 94 55
72 96 55
69 93 54
74 98 58
75 100 59
75 100 58
74 99 58
75 99 58
85 107 74
140 155 150
141 156 155
130 145 140
146 160 159
131 146 139
123 139 126
131 147 140
97 116 94
105 123 103
105 125 104
89 110 81
73 97 57
78 103 61
70 94 54
82 104 70
109 127 113
131 146 141
150 162 163
153 166 167
156 169 172
165 178 182
150 162 164
156 169 172
146 159 159
149 162 164
146 158 160
151 164 167
153 165 167
140 154 153
134 148 145
130 145 138
129 144 139
147 159 159
141 154 153
149 162 164
157 169 173
158 171 171
133 147 144
143 156 158
138 151 151
132 147 145
137 150 151
169 181 187
171 184 191
196 209 221
217 230 245
224 236 253
225 237 254
225 237 254
225 237 254
225 237 254
225 237 254
225 237 254
225 237 254
225 237 254
225 237 254
225 237 254
225 237 254
225 237 254
225 237 254
225 237 254
225 237 254
225 237 254
225 237 254
225 237 254
225 237 254
225 237 254
225 237 254
225 237 254
225 237 254
225 237 254
225 237 254
225 237 254
225 237 254
225 237 254
225 237 254
225 237 254
225 237 254
225 237 254
225 237 254
225 237 254
225 237 254
225 237 254
225 237 254
225 237 254
225 237 254
225 237 254
225 237 254
225 237 254
225 237 254
225 237 254
225 237 254
225 237 254
225 237 254
225 237 254
225 237 254
225 237 254
225 237 254
225 237 254
225 237 254
225 237 254
225 237 254
225 237 254
225 237 254
225 237 254
225 237 254
225 237 254
225 237 254
225 237 254
225 237 254
225 237 254
225 237 254
225 237 254
225 237 254
225 237 254
225 237 254
225 237 254
225 237 254
225 237 254
225 237 254
225 237 254
225 237 254
225 237 254
225 237 254
225 237 254
225 237 254
225 237 254
225 237 254
225 237 254
225 237 254
225 237 254
225 237 254
225 237 254
225 237 254
225 237 254
225 237 254
225 237 254
225 237 254
225 237 254
225 237 254
225 237 254
225 237 254
225 237 254
225 237 254
225 237 254
225 237 254
225 237 254
225 237 254
225 237 254
225 237 254
225 237 254
225 237 254
225 237 254
225 237 254
225 237 254
225 237 254
225 237 254
225 237 254
225 237 254
225 237 254
225 237 254
225 237 254
225 237 254
225 237 254
225 237 254
225 237 254
225 237 254
225 237 254
225 237 254
225 237 254
225 237 254
225 237 254
225 237 254
225 237 254
225 237 254
225 237 254
225 237 254
225 237 254
225 237 254
225 237 254
225 237 254
225 237 254
225 237 254
225 237 254
225 237 254
225 237 254
225 237 254
225 237 254
225 237 254
225 237 254
225 237 254
225 237 254
225 237 254
225 237 254
225 237 254
225 237 254
225 237 254
225 237 254
225 237 254
225 237 254
225 237 254
225 237 254
225 237 254
225 237 254
225 237 254
225 237 254
225 237 254
225 237 254
225 237 254
225 237 254
225 237 254
225 237 254
225 237 254
225 237 254
225 237 254
225 237 254
225 237 254
225 237 254
225 237 254
225 237 254
225 237 254
225 237 254
225 237 254
225 237 254
225 237 254
225 237 254
225 237 254
225 237 254
225 237 254
225 237 254
224 236 252
206 218 231
186 199 207
181 194 201
162 175 179
112 127 119
98 114 99
83 103 74
78 99 67
105 121 110
113 129 119
128 141 137
130 145 140
147 160 161
150 163 164
134 148 147
152 165 168
141 154 152
144 158 156
130 144 139
111 128 112
103 121 102
78 100 64
69 92 54
68 91 52
66 87 50
134 148 141
144 158 159
153 166 168
153 167 170
146 158 161
149 162 164
142 155 154
143 156 155
120 135 128
126 140 131
97 115 95
84 105 79
69 92 54
72 95 56
75 99 59
67 91 53
73 97 57
72 96 56
76 100 59
71 95 56
69 92 53
77 102 60
128 143 134
158 170 175
154 168 169
153 166 169
157 171 176
159 171 174
146 160 160
151 165 163
149 162 163
117 132 119
134 150 143
111 127 114
93 112 88
92 113 89
73 96 57
78 103 60
67 90 52
78 103 61
68 91 52
75 100 58
78 103 60
80 103 67
128 144 137
150 163 165
154 166 170
162 175 179
153 167 169
154 168 170
151 164 165
157 171 174
150 163 166
166 179 186
174 187 194
156 169 170
141 154 153
167 178 183
147 161 160
138 152 150
173 184 190
160 173 178
158 170 175
164 177 181
154 167 168
127 143 134
74 98 64
73 98 57
76 100 59
88 112 75
94 114 89
108 127 105
103 122 100
104 122 103
114 133 117
119 135 124
117 134 120
125 140 133
120 138 127
117 134 120
134 147 146
138 152 146
149 162 165
145 158 158
135 149 147
150 163 163
128 143 137
78 100 65
76 99 62
72 96 59
75 99 57
74 98 57
71 95 55
75 99 58
73 98 58
80 105 62
80 106 63
75 99 57
70 94 54
78 103 61
69 93 54
76 100 58
73 97 56
78 103 62
70 94 54
83 105 71
133 149 141
150 163 165
168 181 185
160 172 175
152 164 166
148 162 159
157 171 174
144 158 159
164 178 184
157 170 175
159 171 175
147 160 159
167 180 187
158 171 174
146 159 161
165 178 181
152 165 166
157 172 175
155 168 169
109 127 110
108 127 108
94 114 88
103 121 102
106 124 107
98 116 99
112 127 116
108 125 112
125 142 130
101 118 105
118 135 128
124 139 130
135 149 143
125 141 131
138 152 147
144 157 154
151 164 166
120 136 125
81 104 70
74 99 58
73 97 57
74 98 58
69 92 54
73 97 57
73 97 56
74 97 57
74 98 58
71 95 56
69 92 54
67 91 52
75 99 58
79 104 62
95 115 91
127 140 134
132 146 145
147 161 162
156 169 170
159 172 173
150 163 165
137 150 148
122 137 129
120 135 129
108 124 111
100 119 100
91 110 85
111 129 113
129 143 142
146 158 159
149 163 165
150 165 168
146 159 158
121 136 127
124 139 132
120 135 128
108 125 111
129 143 137
154 167 169
169 182 188
194 207 218
213 225 240
224 237 253
225 237 254
225 237 254
225 237 254
225 237 254
225 237 254
225 237 254
225 237 254
225 237 254
225 237 254
225 237 254
225 237 254
225 237 254
225 237 254
225 237 254
225 237 254
225 237 254
225 237 254
225 237 254
225 237 254
225 237 254
225 237 254
225 237 254
225 237 254
225 237 254
225 237 254
225 237 254
225 237 254
225 237 254
225 237 254
225 237 254
225 237 254
225 237 254
225 237 254
225 237 254
225 237 254
225 237 254
225 237 254
225 237 254
225 237 254
225 237 254
225 237 254
225 237 254
225 237 254
225 237 254
225 237 254
225 237 254
225 237 254
225 237 254
225 237 254
225 237 254
225 237 254
225 237 254
225 237 254
225 237 254
225 237 254
225 237 254
225 237 254
225 237 254
225 237 254
225 237 254
225 237 254
225 237 254
225 237 254
225 237 254
225 237 254
225 237 254
225 237 254
225 237 254
225 237 254
225 237 254
225 237 254
225 237 254
225 237 254
225 237 254
225 237 254
225 237 254
225 237 254
225 237 254
225 237 254
225 237 254
225 237 254
225 237 254
225 237 254
225 237 254
225 237 254
225 237 254
225 237 254
225 237 254
225 237 254
225 237 254
225 237 254
225 237 254
225 237 254
225 237 254
225 237 254
225 237 254
225 237 254
225 237 254
225 237 254
225 237 254
225 237 254
225 237 254
225 237 254
225 237 254
225 237 254
225 237 254
225 237 254
225 237 254
225 237 254
225 237 254
225 237 254
225 237 254
225 237 254
225 237 254
225 237 254
225 237 254
225 237 254
225 237 254
225 237 254
225 237 254
225 237 254
225 237 254
225 237 254
225 237 254
225 237 254
225 237 254
225 237 254
225 237 254
225 237 254
225 237 254
225 237 254
225 237 254
225 237 254
225 237 254
225 237 254
225 237 254
225 237 254
225 237 254
225 237 254
225 237 254
225 237 254
225 237 254
225 237 254
225 237 254
225 237 254
225 237 254
225 237 254
225 237 254
225 237 254
225 237 254
225 237 254
225 237 254
225 237 254
225 237 254
225 237 254
225 237 254
225 237 254
225 237 254
225 237 254
225 237 254
225 237 254
225 237 254
225 237 254
225 238 254
225 237 254
225 238 254
225 238 254
225 238 254
225 238 254
225 238 254
225 238 254
225 238 254
225 238 254
225 238 254
225 238 254
225 238 254
225 238 254
225 238 254
225 238 254
225 238 254
225 238 254
225 238 254
225 238 254
225 238 254
225 238 254
225 238 254
225 238 254
225 238 254
225 238 254
225 238 254
225 238 254
225 238 254
225 238 254
224 236 252
212 224 240
201 214 227
186 199 207
159 173 176
120 135 127
102 117 106
80 99 73
73 95 59
83 103 80
97 113 100
113 128 119
132 146 144
130 144 140
153 165 167
138 152 150
155 168 172
133 147 145
143 157 157
139 153 149
97 115 97
132 148 140
123 138 132
147 162 160
136 150 150
158 169 173
137 151 151
145 159 161
153 165 166
152 166 168
149 162 163
159 172 177
144 157 160
158 172 175
127 141 136
134 148 143
122 136 128
107 125 109
102 120 99
76 98 63
83 105 71
65 88 50
127 143 136
168 180 185
164 176 180
155 168 170
162 175 178
162 174 180
152 165 167
141 154 151
163 175 178
160 173 179
148 160 162
141 155 156
160 172 177
161 174 180
145 159 160
154 166 167
142 157 156
140 152 152
130 145 140
139 153 151
118 136 122
110 127 113
112 130 117
133 148 144
150 163 165
160 173 176
145 158 159
154 168 170
145 159 159
158 172 175
158 169 173
142 157 155
155 169 174
162 176 183
152 165 167
158 171 175
148 161 161
151 165 167
145 159 161
156 169 170
152 165 168
146 158 160
155 168 170
128 142 134
73 96 58
73 97 56
66 88 50
76 100 59
70 93 55
70 95 55
74 98 58
72 96 55
73 97 57
72 97 56
77 102 60
71 94 55
73 97 57
70 94 55
71 94 55
68 92 53
71 95 56
75 98 58
73 97 57
79 102 66
132 147 142
154 166 167
152 164 165
154 167 169
149 162 167
150 163 162
153 167 169
153 166 167
142 157 158
157 170 173
132 145 142
145 160 162
146 159 156
138 152 150
141 156 153
140 154 154
126 142 134
140 154 153
135 149 148
130 145 136
91 111 88
100 118 97
114 133 115
99 118 99
106 125 106
96 116 92
96 117 90
89 109 83
93 114 87
95 114 89
86 107 80
80 101 70
93 114 83
82 105 72
90 110 83
84 106 74
75 100 59
73 97 56
118 135 123
154 165 169
141 154 153
162 175 182
163 175 179
152 165 166
144 158 160
155 167 168
146 159 159
141 155 155
161 174 177
148 161 161
158 170 173
152 165 166
142 156 152
144 158 158
134 147 144
126 141 133
76 99 61
70 93 54
71 94 55
73 96 56
71 94 55
71 95 55
72 96 56
71 94 55
76 100 60
70 94 54
74 98 58
73 97 57
76 97 66
80 101 74
87 107 82
117 132 122
110 128 114
106 122 107
105 122 108
89 107 86
84 104 77
75 100 59
65 88 50
70 93 54
60 82 46
65 88 50
97 115 95
120 136 128
140 153 152
128 143 139
124 140 136
105 122 105
88 106 85
94 111 94
119 134 125
150 164 164
167 180 185
183 195 204
219 231 247
225 238 254
225 238 254
225 238 254
225 238 254
225 238 254
225 238 254
225 238 254
225 238 254
225 238 254
225 238 254
225 238 254
225 238 254
225 238 254
225 238 254
225 238 254
225 238 254
225 238 254
225 238 254
225 238 254
225 238 254
225 238 254
225 238 254
225 238 254
225 238 254
225 238 254
225 238 254
225 238 254
225 238 254
225 238 254
225 238 254
225 237 254
225 237 254
225 237 254
225 237 254
225 237 254
225 237 254
225 237 254
225 237 254
225 237 254
225 237 254
225 237 254
225 237 254
225 237 254
225 237 254
225 237 254
225 237 254
225 237 254
225 237 254
225 237 254
225 237 254
225 237 254
225 237 254
225 237 254
225 237 254
225 237 254
225 237 254
225 237 254
225 237 254
225 237 254
225 237 254
225 237 254
225 237 254
225 237 254
225 237 254
225 237 254
225 237 254
225 237 254
225 237 254
225 237 254
225 237 254
225 237 254
225 237 254
225 237 254
225 237 254
225 237 254
225 237 254
225 237 254
225 237 254
225 237 254
225 237 254
225 237 254
225 237 254
225 237 254
225 237 254
225 237 254
225 237 254
225 237 254
225 237 254
225 237 254
225 237 254
225 237 254
225 237 254
225 237 254
225 237 254
225 237 254
225 237 254
225 237 254
225 237 254
225 237 254
225 237 254
225 237 254
225 237 254
225 237 254
225 237 254
225 237 254
225 237 254
225 237 254
225 237 254
225 237 254
225 237 254
225 237 254
225 237 254
225 237 254
225 237 254
225 237 254
225 237 254
225 237 254
225 237 254
225 237 254
225 237 254
225 237 254
225 237 254
225 237 254
225 237 254
225 237 254
225 237 254
225 237 254
225 237 254
225 237 254
225 237 254
225 237 254
225 237 254
225 237 254
225 237 254
225 237 254
225 237 254
225 237 254
225 237 254
225 237 254
225 237 254
225 238 254
225 238 254
225 238 254
225 238 254
225 238 254
225 238 254
225 238 254
225 238 254
225 238 254
225 238 254
225 238 254
225 238 254
225 238 254
225 238 254
225 238 254
225 238 254
225 238 254
225 238 254
225 238 254
225 238 254
225 238 254
225 238 254
225 238 254
226 238 254
226 238 254
226 238 254
226 238 254
226 238 254
226 238 254
226 238 254
226 238 254
226 238 254
226 238 254
226 238 254
226 238 254
226 238 254
226 238 254
226 238 254
226 238 254
226 238 254
226 238 254
226 238 254
226 238 254
226 238 254
226 238 254
226 238 254
226 238 254
226 238 254
226 238 254
226 238 254
226 238 254
226 238 254
226 238 254
226 238 254
226 238 254
226 238 254
226 238 254
226 238 254
226 238 254
226 238 254
226 238 254
226 238 254
226 238 254
226 238 254
226 238 254
223 235 252
201 213 226
200 213 223
164 176 184
140 153 153
110 125 116
89 106 91
73 93 63
75 97 61
96 113 97
111 128 119
134 148 146
130 144 141
82 100 82
67 89 52
67 89 51
69 93 53
69 91 53
73 94 61
92 112 87
97 115 100
124 138 130
124 139 134
122 138 132
134 148 147
156 169 173
155 168 172
145 159 157
156 168 170
152 165 168
147 162 163
150 163 165
142 155 153
146 160 159
121 136 129
118 133 122
103 122 103
106 122 109
104 120 108
131 146 140
128 143 135
148 161 163
149 162 164
159 171 176
142 156 156
160 171 177
153 165 169
151 164 166
152 164 168
161 172 177
153 167 167
154 166 169
163 176 182
147 161 164
145 159 158
150 163 167
145 159 160
97 116 97
71 94 55
75 99 58
72 96 57
77 100 62
89 109 83
102 118 100
106 124 108
103 122 103
114 131 119
126 143 132
129 145 137
138 152 153
151 164 166
160 173 177
160 173 176
158 171 174
149 163 164
159 170 174
145 159 159
143 158 158
125 140 134
76 101 59
70 94 56
74 97 57
70 93 54
71 94 55
79 104 62
71 95 55
76 101 60
67 89 51
73 96 56
73 97 57
70 93 54
70 94 54
75 99 59
74 98 57
73 96 56
70 93 54
73 97 57
75 100 59
85 104 80
152 165 166
134 149 145
167 179 183
156 169 172
147 161 163
165 178 183
147 161 162
160 174 176
156 170 176
148 162 163
153 167 171
162 174 177
164 176 184
152 166 169
154 167 167
148 162 162
150 163 165
152 166 168
137 152 150
121 137 128
74 98 57
69 93 54
75 99 58
69 93 54
67 90 51
73 97 57
69 92 53
69 92 53
72 96 56
66 89 51
72 95 56
62 84 47
72 95 55
71 94 56
71 95 55
71 95 55
70 93 55
102 118 104
139 154 152
153 166 168
151 163 165
159 171 176
161 173 177
159 171 174
154 167 171
153 166 169
146 159 159
146 159 160
150 161 165
147 160 161
152 165 168
159 172 175
139 153 155
166 179 182
131 145 139
84 106 77
67 89 52
67 90 52
75 96 65
69 90 59
85 105 77
97 115 95
101 118 105
114 131 120
124 138 133
143 156 152
110 126 112
152 165 165
132 147 147
125 139 136
84 103 79
64 86 49
72 95 56
68 91 53
63 86 49
71 95 55
68 90 53
83 103 74
91 107 92
100 117 99
90 108 88
73 93 64
72 92 62
80 98 72
64 86 50
88 105 88
118 134 125
157 170 174
186 198 207
206 218 231
224 236 253
226 238 254
226 238 254
226 238 254
226 238 254
226 238 254
226 238 254
226 238 254
226 238 254
226 238 254
226 238 254
226 238 254
226 238 254
226 238 254
226 238 254
226 238 254
226 238 254
226 238 254
226 238 254
226 238 254
226 238 254
226 238 254
226 238 254
226 238 254
226 238 254
226 238 254
226 238 254
226 238 254
226 238 254
226 238 254
226 238 254
226 238 254
226 238 254
226 238 254
226 238 254
226 238 254
226 238 254
226 238 254
226 238 254
226 238 254
226 238 254
226 238 254
226 238 254
225 238 254
225 238 254
225 238 254
225 238 254
225 238 254
225 238 254
225 238 254
225 238 254
225 238 254
225 238 254
225 238 254
225 238 254
225 238 254
225 238 254
225 238 254
225 238 254
225 238 254
225 238 254
225 238 254
225 238 254
225 238 254
225 238 254
225 238 254
225 238 254
225 237 254
225 237 254
225 237 254
225 237 254
225 237 254
225 237 254
225 237 254
225 237 254
225 237 254
225 237 254
225 237 254
225 237 254
225 237 254
225 237 254
225 237 254
225 237 254
225 237 254
225 237 254
225 237 254
225 237 254
225 237 254
225 237 254
225 237 254
225 237 254
225 237 254
225 237 254
225 237 254
225 237 254
225 237 254
225 237 254
225 237 254
225 237 254
225 237 254
225 237 254
225 237 254
225 237 254
225 237 254
225 237 254
225 237 254
225 237 254
225 237 254
225 237 254
225 237 254
225 237 254
225 237 254
225 237 254
225 237 254
225 237 254
225 237 254
225 237 254
225 237 254
225 237 254
225 237 254
225 238 254
225 238 254
225 238 254
225 238 254
225 238 254
225 238 254
225 238 254
225 238 254
225 238 254
225 238 254
225 238 254
225 238 254
225 238 254
225 238 254
225 238 254
225 238 254
225 238 254
225 238 254
226 238 254
226 238 254
226 238 254
226 238 254
226 238 254
226 238 254
226 238 254
226 238 254
226 238 254
226 238 254
226 238 254
226 238 254
226 238 254
226 238 254
226 238 254
226 238 254
226 238 254
226 238 254
226 238 254
226 238 254
226 238 254
226 238 254
226 238 254
226 238 254
226 238 254
226 238 254
226 238 254
226 238 254
226 238 254
226 238 254
226 238 254
226 238 254
226 238 254
226 238 254
226 238 254
226 238 254
226 238 254
226 238 254
226 238 254
226 238 254
226 238 254
226 238 254
226 238 254
226 238 254
226 238 254
226 238 254
226 238 254
226 238 254
226 238 254
226 238 254
226 238 254
226 238 254
226 238 254
226 238 254
226 238 254
226 238 254
226 238 254
226 238 254
226 238 254
226 238 254
226 238 254
226 238 254
226 238 254
226 238 254
226 238 254
226 238 254
226 238 254
226 238 254
226 238 254
226 238 254
226 238 254
226 238 254
226 238 254
226 238 254
226 238 254
226 238 254
226 238 254
226 238 254
226 238 254
216 228 243
208 220 233
194 206 217
144 158 157
145 158 159
130 143 141
134 147 148
123 136 135
113 128 121
116 131 123
109 124 111
111 127 114
95 112 94
78 98 73
71 92 59
63 86 49
64 86 49
68 90 52
64 86 49
79 101 68
92 110 92
105 123 105
109 123 113
130 143 140
116 133 123
132 147 143
139 151 150
142 155 157
95 112 94
60 82 46
70 93 54
66 89 51
65 87 50
66 89 51
64 86 49
71 94 56
72 93 60
90 109 89
104 120 104
113 130 119
112 130 119
122 138 129
132 147 141
132 146 143
142 154 152
140 152 153
137 151 152
153 166 168
153 167 170
132 147 143
85 105 79
73 96 56
66 88 50
73 97 57
72 95 56
72 96 56
72 96 55
68 91 52
68 91 53
66 89 51
69 93 53
66 89 52
71 94 55
73 98 57
70 93 53
71 94 54
71 93 57
83 103 74
86 107 79
104 121 101
116 133 119
138 152 149
110 127 113
122 138 127
119 135 122
110 127 112
95 114 94
108 125 110
89 110 83
85 106 79
91 113 82
80 103 69
78 103 63
69 91 53
72 95 55
75 99 58
74 99 58
69 92 54
67 90 52
71 93 54
66 90 51
107 124 110
157 170 174
140 153 151
153 166 167
134 147 144
159 172 176
155 168 171
146 159 158
158 170 174
155 167 172
152 166 167
154 167 170
152 165 165
146 159 162
149 163 163
145 157 161
156 169 172
150 165 166
151 164 168
151 164 163
102 120 105
63 85 48
69 93 54
70 93 55
73 97 57
69 92 53
73 97 56
70 93 54
71 94 54
71 94 55
71 95 55
67 89 52
76 100 59
72 95 56
69 92 53
71 94 55
67 90 52
79 101 71
132 147 142
144 157 156
149 162 162
148 160 164
146 159 159
130 144 142
147 161 165
150 162 164
133 147 145
141 155 153
128 142 138
128 143 139
129 143 140
125 139 134
116 131 123
106 122 111
132 146 142
143 157 158
133 148 143
136 150 147
144 157 157
149 162 164
143 155 158
143 156 157
146 158 158
143 156 158
145 157 158
144 157 157
154 166 168
143 156 157
121 137 132
105 121 105
79 98 72
78 99 72
86 105 83
104 121 105
105 122 108
122 137 131
119 134 129
126 141 139
116 131 125
133 148 147
123 137 135
118 132 125
129 143 140
172 184 191
183 195 204
193 205 216
219 231 247
226 238 254
226 238 254
226 238 254
226 238 254
226 238 254
226 238 254
226 238 254
226 238 254
226 238 254
226 238 254
226 238 254
226 238 254
226 238 254
226 238 254
226 238 254
226 238 254
226 238 254
226 238 254
226 238 254
226 238 254
226 238 254
226 238 254
226 238 254
226 238 254
226 238 254
226 238 254
226 238 254
226 238 254
226 238 254
226 238 254
226 238 254
226 238 254
226 238 254
226 238 254
226 238 254
226 238 254
226 238 254
226 238 254
226 238 254
226 238 254
226 238 254
226 238 254
226 238 254
226 238 254
226 238 254
226 238 254
226 238 254
226 238 254
226 238 254
226 238 254
226 238 254
226 238 254
226 238 254
226 238 254
226 238 254
226 238 254
226 238 254
226 238 254
226 238 254
226 238 254
226 238 254
226 238 254
226 238 254
226 238 254
226 238 254
226 238 254
226 238 254
226 238 254
226 238 254
226 238 254
226 238 254
226 238 254
226 238 254
226 238 254
226 238 254
226 238 254
226 238 254
225 238 254
225 238 254
225 238 254
225 238 254
225 238 254
225 238 254
225 238 254
225 238 254
225 238 254
225 238 254
225 238 254
225 238 254
225 238 254
225 238 254
225 238 254
225 238 254
225 238 254
225 238 254
225 238 254
225 238 254
225 238 254
225 238 254
225 237 254
225 237 254
225 237 254
225 237 254
225 237 254
225 237 254
225 237 254
225 237 254
225 237 254
225 237 254
225 237 254
225 237 254
225 238 254
225 238 254
225 238 254
225 238 254
225 238 254
225 238 254
226 238 254
226 238 254
226 238 254
226 238 254
226 238 254
226 238 254
226 238 254
226 238 254
226 238 254
226 238 254
226 238 254
226 238 254
226 238 254
226 238 254
226 238 254
226 238 254
226 238 254
226 238 254
226 238 254
226 238 254
226 238 254
226 238 254
226 238 254
226 238 254
226 238 254
226 238 254
226 238 254
226 238 254
226 238 254
226 238 254
226 238 254
226 238 254
226 238 254
226 238 254
226 238 254
226 238 254
226 238 254
226 238 254
226 238 254
226 238 254
226 238 254
226 238 254
226 238 254
226 238 254
226 238 254
226 238 254
226 238 254
226 238 254
226 238 254
226 238 254
226 238 254
226 238 254
226 238 254
226 238 254
226 238 254
226 238 254
226 238 254
226 238 254
226 238 254
226 238 254
226 238 254
226 238 254
226 238 254
226 238 254
226 238 254
226 238 254
226 238 254
226 238 254
226 238 254
226 238 254
226 238 254
226 238 254
226 238 254
226 238 254
226 238 254
226 238 254
226 238 254
226 238 254
226 238 254
226 238 254
226 238 254
226 238 254
226 238 254
226 238 254
226 238 254
226 238 254
226 238 254
226 238 254
226 238 254
226 238 254
226 238 254
226 238 254
226 238 254
226 238 254
226 238 254
226 238 254
226 238 254
226 238 254
226 238 254
226 238 254
226 238 254
226 238 254
226 238 254
226 238 254
226 238 254
226 238 254
226 238 254
226 238 254
226 238 254
226 238 254
226 238 254
224 236 252
216 228 243
195 207 218
183 196 205
159 172 176
151 165 167
131 144 141
98 114 99
117 132 127
98 113 101
97 114 99
101 116 104
80 97 75
87 105 85
89 108 88
64 87 50
65 88 51
67 90 52
71 94 55
68 91 52
94 111 92
133 146 141
107 122 109
104 121 108
110 125 112
82 101 73
86 105 82
75 98 60
75 99 59
66 88 50
76 100 59
65 88 51
69 92 53
73 96 56
74 97 57
67 90 51
65 87 50
68 91 52
65 87 53
84 105 76
90 109 88
112 129 116
136 149 148
122 137 132
96 114 97
114 129 119
106 125 106
77 98 69
76 100 61
72 96 55
66 89 51
69 93 54
72 96 56
65 88 50
68 90 53
72 95 56
63 86 49
66 88 51
76 100 59
71 94 55
74 97 57
75 99 58
72 96 56
82 103 75
144 159 156
163 176 181
151 164 166
150 162 162
146 158 161
149 161 162
146 159 163
144 158 159
148 161 164
148 161 161
152 165 166
137 150 149
136 151 150
136 150 148
140 154 153
140 153 152
142 156 153
134 148 145
137 151 148
127 142 135
84 104 76
114 128 121
109 124 113
104 121 107
105 121 108
114 129 119
114 130 120
108 124 114
120 135 128
130 144 142
112 128 119
127 142 134
144 156 157
145 160 159
126 140 131
126 141 135
115 131 121
121 136 129
126 142 133
135 150 145
106 123 108
110 127 114
109 125 113
111 127 115
96 114 96
92 110 89
96 113 99
109 125 114
117 133 124
109 126 112
124 139 130
111 126 117
114 129 119
117 132 119
122 136 129
123 136 130
120 135 127
89 107 86
97 115 96
106 121 108
85 105 76
97 118 93
76 98 63
83 103 77
69 91 56
74 97 60
70 93 54
66 89 52
67 90 52
70 94 55
65 88 50
67 89 51
71 93 58
118 133 124
131 145 142
148 160 161
145 160 163
132 147 143
140 153 153
126 141 137
129 143 140
147 160 162
131 144 144
121 135 128
132 144 143
100 118 102
141 154 155
140 153 153
127 142 138
111 126 116
114 128 122
109 124 116
116 130 124
110 125 117
107 121 113
115 131 121
138 151 150
156 169 172
174 186 194
186 198 207
218 230 246
225 237 253
226 238 254
226 238 254
226 238 254
226 238 254
226 238 254
226 238 254
226 238 254
226 238 254
226 238 254
226 238 254
226 238 254
226 238 254
226 238 254
226 238 254
226 238 254
226 238 254
226 238 254
226 238 254
226 238 254
226 238 254
226 238 254
226 238 254
226 238 254
226 238 254
226 238 254
226 238 254
226 238 254
226 238 254
226 238 254
226 238 254
226 238 254
226 238 254
226 238 254
226 238 254
226 238 254
226 238 254
226 238 254
226 238 254
226 238 254
226 238 254
226 238 254
226 238 254
226 238 254
226 238 254
226 238 254
226 238 254
226 238 254
226 238 254
226 238 254
226 238 254
226 238 254
226 238 254
226 238 254
226 238 254
226 238 254
226 238 254
226 238 254
226 238 254
226 238 254
226 238 254
226 238 254
226 238 254
226 238 254
226 238 254
226 238 254
226 238 254
226 238 254
226 238 254
226 238 254
226 238 254
226 238 254
226 238 254
226 238 254
226 238 254
226 238 254
226 238 254
226 238 254
226 238 254
226 238 254
226 238 254
226 238 254
226 238 254
226 238 254
226 238 254
226 238 254
226 238 254
226 238 254
226 238 254
226 238 254
226 238 254
226 238 254
226 238 254
226 238 254
226 238 254
226 238 254
226 238 254
226 238 254
226 238 254
226 238 254
226 238 254
226 238 254
226 238 254
226 238 254
226 238 254
226 238 254
226 238 254
226 238 254
226 238 254
226 238 254
226 238 254
225 238 254
225 238 254
225 238 254
225 238 254
225 238 254
225 238 254
225 238 254
226 238 254
226 238 254
226 238 254
226 238 254
226 238 254
226 238 254
226 238 254
226 238 254
226 238 254
226 238 254
226 238 254
226 238 254
226 238 254
226 238 254
226 238 254
226 238 254
226 238 254
226 238 254
226 238 254
226 238 254
226 238 254
226 238 254
226 238 254
226 238 254
226 238 254
226 238 254
226 238 254
226 238 254
226 238 254
226 238 254
226 238 254
226 238 254
226 238 254
226 238 254
226 238 254
226 238 254
226 238 254
226 238 254
226 238 254
226 238 254
226 238 254
226 238 254
226 238 254
226 238 254
226 238 254
226 238 254
226 238 254
226 238 254
226 238 254
226 238 254
226 238 254
226 238 254
226 238 254
226 238 254
226 238 254
226 238 254
226 238 254
226 238 254
226 238 254
226 238 254
226 238 254
226 238 254
226 238 254
226 238 254
226 238 254
226 238 254
226 238 254
226 238 254
226 238 254
226 238 254
226 238 254
226 238 254
226 238 254
226 238 254
226 238 254
226 238 254
226 238 254
226 238 254
226 238 254
226 238 254
226 238 254
226 238 254
226 238 254
226 238 254
226 238 254
226 238 254
226 238 254
226 238 254
226 238 254
226 238 254
226 238 254
226 238 254
226 238 254
226 238 254
226 238 254
226 238 254
226 238 254
226 238 254
226 238 254
226 238 254
226 238 254
226 238 254
226 238 254
226 238 254
226 238 254
226 238 254
226 238 254
226 238 254
226 238 254
226 238 254
226 238 254
226 238 254
226 238 254
226 238 254
226 238 254
226 238 254
226 238 254
226 238 254
226 238 254
226 238 254
226 238 254
226 238 254
226 238 254
226 238 254
222 234 250
207 218 232
192 204 215
168 180 187
121 136 128
85 101 88
79 97 79
77 96 70
83 102 76
75 97 63
74 93 67
94 111 97
123 138 130
133 145 144
117 131 126
123 136 133
133 146 147
117 129 124
122 135 133
138 152 154
133 146 143
139 153 152
140 153 152
126 140 138
104 121 107
103 120 110
93 111 94
90 109 87
73 95 62
61 83 47
69 92 54
67 89 52
67 90 52
75 96 66
110 125 116
143 156 156
149 162 164
155 167 172
150 163 167
144 157 158
140 152 153
140 153 152
150 162 164
141 155 153
138 151 151
140 153 152
116 132 123
111 127 118
120 135 128
104 120 105
96 113 93
83 103 75
82 99 77
79 103 64
80 101 69
116 132 122
147 161 159
143 156 157
143 156 159
152 163 165
147 159 160
153 166 170
150 162 167
147 159 159
143 155 157
137 149 148
158 171 175
146 161 163
143 156 158
145 159 158
142 156 158
149 162 164
148 161 165
159 170 175
142 155 156
114 129 120
68 89 58
69 92 54
68 91 53
67 90 52
69 92 53
71 95 56
64 86 50
70 93 54
73 97 57
66 89 52
68 90 53
68 90 52
69 92 54
65 88 51
72 95 56
66 88 51
67 89 51
65 87 50
100 117 99
133 147 145
146 159 160
138 151 150
148 161 163
149 161 165
155 167 173
145 157 159
140 154 154
138 151 153
152 164 169
139 152 156
133 146 147
146 159 160
141 154 156
142 156 156
147 161 163
129 143 139
99 115 100
78 99 67
64 86 49
70 93 55
67 90 52
66 89 52
65 87 50
61 84 48
70 94 54
65 88 50
69 93 54
70 93 55
71 95 55
71 94 55
66 87 53
66 87 57
110 125 115
116 129 124
118 133 124
118 132 127
121 135 129
109 124 115
111 126 119
108 123 115
91 106 96
105 120 107
98 115 99
101 117 106
84 101 83
85 104 81
94 110 96
107 122 115
94 111 95
103 118 107
108 122 117
137 149 149
168 179 187
211 222 237
213 225 241
223 235 252
226 238 254
226 238 254
226 238 254
226 238 254
226 238 254
226 238 254
226 238 254
226 238 254
226 238 254
226 238 254
226 238 254
226 238 254
226 238 254
226 238 254
226 238 254
226 238 254
226 238 254
226 238 254
226 238 254
226 238 254
226 238 254
226 238 254
226 238 254
226 238 254
226 238 254
226 238 254
226 238 254
226 238 254
226 238 254
226 238 254
226 238 254
226 238 254
226 238 254
226 238 254
226 238 254
226 238 254
226 238 254
226 238 254
226 238 254
226 238 254
226 238 254
226 238 254
226 238 254
226 238 254
226 238 254
226 238 254
226 238 254
226 238 254
226 238 254
226 238 254
226 238 254
226 238 254
226 238 254
226 238 254
226 238 254
226 238 254
226 238 254
226 238 254
226 238 254
226 238 254
226 238 254
226 238 254
226 238 254
226 238 254
226 238 254
226 238 254
226 238 254
226 238 254
226 238 254
226 238 254
226 238 254
226 238 254
226 238 254
226 238 254
226 238 254
226 238 254
226 238 254
226 238 254
226 238 254
226 238 254
226 238 254
226 238 254
226 238 254
226 238 254
226 238 254
226 238 254
226 238 254
226 238 254
226 238 254
226 238 254
226 238 254
226 238 254
226 238 254
226 238 254
226 238 254
226 238 254
226 238 254
226 238 254
226 238 254
226 238 254
226 238 254
226 238 254
226 238 254
226 238 254
226 238 254
226 238 254
226 238 254
226 238 254
226 238 254
226 238 254
226 238 254
226 238 254
226 238 254
226 238 254
226 238 254
226 238 254
226 238 254
226 238 254
226 238 254
226 238 254
226 238 254
226 238 254
226 238 254
226 238 254
226 238 254
226 238 254
226 238 254
226 238 254
226 238 254
226 238 254
226 238 254
226 238 254
226 238 254
226 238 254
226 238 254
226 238 254
226 238 254
226 238 254
226 238 254
226 238 254
226 238 254
226 238 254
226 238 254
226 238 254
226 238 254
226 238 254
226 238 254
226 238 254
226 238 254
226 238 254
226 238 254
226 238 254
226 238 254
226 238 254
226 238 254
226 238 254
226 238 254
226 238 254
226 238 254
226 238 254
226 238 254
226 238 254
226 238 254
226 238 254
226 238 254
226 238 254
226 238 254
226 238 254
226 238 254
226 238 254
226 238 254
226 238 254
226 238 254
226 238 254
226 238 254
226 238 254
226 238 254
226 238 254
226 238 254
226 238 254
226 238 254
226 238 254
226 238 254
226 238 254
226 238 254
226 238 254
226 238 254
226 238 254
226 238 254
226 238 254
226 238 254
226 238 254
226 238 254
226 238 254
226 238 254
226 238 254
226 238 254
226 238 254
226 238 254
226 238 254
226 238 254
226 238 254
226 238 254
226 238 254
226 238 254
226 238 254
226 238 254
226 238 254
226 238 254
226 238 254
226 238 254
226 238 254
226 238 254
226 238 254
226 238 254
226 238 254
226 238 254
226 238 254
226 238 254
226 238 254
226 238 254
226 238 254
226 238 254
226 238 254
226 238 254
226 238 254
226 238 254
226 238 254
226 238 254
226 238 254
226 238 254
226 238 254
226 238 254
226 238 254
226 238 254
226 238 254
226 238 254
226 238 254
226 238 254
226 238 254
226 238 254
226 238 254
226 238 254
226 238 254
226 238 254
224 236 252
210 222 237
192 204 214
157 169 174
149 161 168
116 128 126
89 102 96
91 103 99
79 93 83
78 92 85
65 82 62
55 69 53
58 75 51
59 73 60
75 89 74
106 117 116
99 112 107
96 109 100
113 127 122
117 131 129
111 124 120
116 130 123
115 129 122
99 114 104
87 103 88
107 122 114
85 102 85
107 121 111
100 116 103
103 120 108
100 115 103
109 124 115
92 109 92
97 112 100
117 132 125
100 115 105
98 114 101
120 135 130
117 132 126
120 134 131
127 141 140
129 143 140
129 143 141
140 154 155
134 147 145
137 151 151
139 152 155
137 151 151
128 141 141
146 159 163
136 149 147
147 160 162
143 157 157
137 150 149
138 151 151
140 154 153
116 131 122
74 94 68
68 90 55
74 93 67
80 98 76
77 96 71
90 109 88
103 119 105
103 119 104
102 118 104
112 126 116
108 123 112
123 138 132
126 139 137
132 148 144
114 129 122
128 141 138
131 144 144
131 146 142
137 149 149
123 137 132
85 102 81
73 95 62
69 90 56
70 93 54
58 79 45
71 95 56
67 89 52
66 89 51
62 84 47
65 87 50
65 87 49
61 83 47
66 89 50
67 90 52
68 91 53
66 89 52
69 92 53
71 94 58
79 99 71
130 145 144
138 153 155
150 161 167
129 143 141
138 151 153
142 154 154
143 156 158
125 139 134
139 152 154
139 152 153
142 154 155
138 151 152
145 158 159
142 155 158
130 143 143
131 146 142
123 137 133
127 142 136
93 108 92
84 103 81
95 113 97
95 111 99
94 111 95
88 105 89
93 111 94
94 111 96
97 114 97
94 112 92
101 118 102
109 125 115
91 107 92
115 131 121
130 143 141
132 145 144
114 130 120
126 140 139
128 142 139
118 131 126
111 123 121
118 132 126
114 127 123
85 100 85
105 120 111
110 124 116
106 119 116
117 131 127
109 122 119
109 121 118
91 103 99
106 118 117
105 118 118
78 91 83
68 85 67
70 85 72
87 102 92
88 100 96
100 113 111
161 173 181
172 183 193
189 201 212
205 217 231
223 235 252
226 238 254
226 238 254
226 238 254
226 238 254
226 238 254
226 238 254
226 238 254
226 238 254
226 238 254
226 238 254
226 238 254
226 238 254
226 238 254
226 238 254
226 238 254
226 238 254
226 238 254
226 238 254
226 238 254
226 238 254
226 238 254
226 238 254
226 238 254
226 238 254
226 238 254
226 238 254
226 238 254
226 238 254
226 238 254
226 238 254
226 238 254
226 238 254
226 238 254
226 238 254
226 238 254
226 238 254
226 238 254
226 238 254
226 238 254
226 238 254
226 238 254
226 238 254
226 238 254
226 238 254
226 238 254
226 238 254
226 238 254
226 238 254
226 238 254
226 238 254
226 238 254
226 238 254
226 238 254
226 238 254
226 238 254
226 238 254
226 238 254
226 238 254
226 238 254
226 238 254
226 238 254
226 238 254
226 238 254
226 238 254
226 238 254
226 238 254
226 238 254
226 238 254
226 238 254
226 238 254
226 238 254
226 238 254
226 238 254
226 238 254
226 238 254
226 238 254
226 238 254
226 238 254
226 238 254
226 238 254
226 238 254
226 238 254
226 238 254
226 238 254
226 238 254
226 238 254
226 238 254
226 238 254
226 238 254
226 238 254
226 238 254
226 238 254
226 238 254
226 238 254
226 238 254
226 238 254
226 238 254
226 238 254
226 238 254
226 238 254
226 238 254
226 238 254
226 238 254
226 238 254
226 238 254
226 238 254
226 238 254
226 238 254
226 238 254
226 238 254
226 238 254
226 238 254
226 238 254
226 238 254
226 238 254
226 238 254
226 238 254
226 238 254
226 238 254
226 238 254
226 238 254
226 238 254
226 238 254
226 238 254
226 238 254
226 238 254
226 238 254
226 238 254
226 238 254
226 238 254
226 238 254
226 238 254
226 238 254
226 238 254
226 238 254
226 238 254
226 238 254
226 238 254
226 238 254
226 238 254
226 238 254
226 238 254
226 238 254
226 238 254
226 238 254
226 238 254
226 238 254
226 238 254
226 238 254
226 238 254
226 238 254
226 238 254
226 238 254
226 238 254
226 238 254
226 238 254
226 238 254
226 238 254
226 238 254
226 238 254
226 238 254
226 238 254
226 238 254
226 238 254
226 238 254
226 238 254
226 238 254
226 238 254
226 238 254
226 238 254
226 238 254
226 238 254
226 238 254
226 238 254
226 238 254
226 238 254
226 238 254
226 238 254
226 238 254
226 238 254
226 238 254
226 238 254
226 238 254
226 238 254
226 238 254
226 238 254
226 238 254
226 238 254
226 238 254
226 238 254
226 238 254
226 238 254
226 238 254
226 238 254
226 238 254
226 238 254
226 238 254
226 238 254
226 238 254
226 238 254
226 238 254
226 238 254
226 238 254
226 238 254
226 238 254
226 238 254
226 238 254
226 238 254
226 238 254
226 238 254
226 238 254
226 238 254
226 238 254
226 238 254
226 238 254
226 238 254
226 238 254
226 238 254
226 238 254
226 238 254
226 238 254
226 238 254
226 238 254
226 238 254
226 238 254
226 238 254
226 238 254
226 238 254
226 238 254
226 238 254
226 238 254
226 238 254
226 238 254
226 238 254
226 238 254
226 238 254
226 238 254
224 236 253
200 211 225
171 183 190
153 165 170
139 152 156
105 120 116
81 95 87
88 102 94
84 97 93
78 92 86
64 79 63
48 63 41
43 60 34
53 71 46
57 71 56
58 73 58
67 80 70
65 75 71
76 89 81
85 96 94
67 79 73
36 50 28
41 58 32
31 44 24
40 56 31
40 54 35
68 81 70
68 81 68
79 91 84
93 105 99
109 121 115
102 115 109
121 132 132
123 135 133
125 139 136
108 122 114
106 121 111
77 93 74
69 88 61
101 116 104
124 137 133
117 130 126
129 142 141
131 142 142
140 152 153
131 145 144
127 141 144
142 156 159
130 143 143
126 140 137
139 151 150
123 137 131
133 144 143
130 143 144
126 138 137
134 146 146
119 133 129
101 115 105
118 132 126
106 122 114
116 130 121
105 121 109
113 128 121
94 110 95
100 115 103
101 116 105
99 114 104
95 112 96
93 107 95
94 111 95
93 111 95
76 96 70
104 121 105
99 116 103
98 114 101
89 104 92
90 108 89
87 104 85
106 123 109
74 93 66
101 118 103
123 137 131
128 140 137
121 135 129
121 134 130
135 148 148
112 128 116
128 142 137
105 121 111
122 136 133
112 127 118
109 125 118
111 126 118
96 111 98
98 114 101
93 110 95
110 123 115
117 132 127
130 144 140
103 118 110
107 124 115
119 133 129
111 126 117
118 132 127
114 129 124
102 117 104
125 138 134
108 123 115
110 124 118
106 121 113
115 129 124
121 134 131
126 139 138
127 139 138
106 121 112
111 126 118
71 91 62
78 97 74
66 86 57
64 84 55
63 85 49
61 82 48
60 81 47
65 87 51
63 86 49
68 88 60
74 95 66
59 79 51
84 100 84
76 95 72
66 82 64
79 95 79
99 114 101
92 108 93
77 96 76
82 99 81
71 88 68
76 93 71
56 71 52
65 80 65
65 80 65
71 84 74
77 89 83
81 93 88
44 57 41
41 56 32
39 53 31
37 52 28
39 54 30
54 72 47
53 65 54
61 73 64
81 92 90
81 94 86
53 66 53
43 59 34
49 67 39
44 62 34
52 69 47
73 90 71
76 92 76
83 100 86
83 97 89
127 139 140
150 163 165
181 193 203
199 210 223
225 237 253
226 238 254
226 238 254
226 238 254
226 238 254
226 238 254
226 238 254
226 238 254
226 238 254
226 238 254
226 238 254
226 238 254
226 238 254
226 238 254
226 238 254
226 238 254
226 238 254
226 238 254
226 238 254
226 238 254
226 238 254
226 238 254
226 238 254
226 238 254
226 238 254
226 238 254
226 238 254
226 238 254
226 238 254
226 238 254
226 238 254
226 238 254
226 238 254
226 238 254
226 238 254
226 238 254
226 238 254
226 238 254
226 238 254
226 238 254
226 238 254
226 238 254
226 238 254
226 238 254
226 238 254
226 238 254
226 238 254
226 238 254
226 238 254
226 238 254
226 238 254
226 238 254
226 238 254
226 238 254
226 238 254
226 238 254
226 238 254
226 238 254
226 238 254
226 238 254
226 238 254
226 238 254
226 238 254
226 238 254
226 238 254
226 238 254
226 238 254
226 238 254
226 238 254
226 238 254
226 238 254
226 238 254
226 238 254
226 238 254
226 238 254
226 238 254
226 238 254
226 238 254
226 238 254
226 238 254
226 238 254
226 238 254
226 238 254
226 238 254
226 238 254
226 238 254
226 238 254
226 238 254
226 238 254
226 238 254
226 238 254
226 238 254
226 238 254
226 238 254
226 238 254
226 238 254
226 238 254
226 238 254
226 238 254
226 238 254
226 238 254
226 238 254
226 238 254
226 238 254
226 238 254
226 238 254
226 238 254
226 238 254
226 238 254
226 238 254
226 238 254
226 238 254
226 238 254
226 238 254
226 238 254
226 238 254
226 238 254
226 238 254
226 238 254
226 238 254
226 238 254
226 238 254
226 238 254
226 238 254
226 238 254
226 238 254
226 238 254
226 238 254
226 238 254
226 238 254
226 238 254
226 238 254
226 238 254
226 238 254
226 238 254
226 238 254
226 238 254
226 238 254
226 238 254
226 238 254
226 238 254
226 238 254
226 238 254
226 238 254
226 238 254
226 238 254
226 238 254
226 238 254
226 238 254
226 238 254
226 238 254
226 238 254
226 238 254
226 238 254
226 238 254
226 238 254
226 238 254
226 238 254
226 238 254
226 238 254
226 238 254
226 238 254
226 238 254
226 238 254
226 238 254
226 238 254
226 238 254
226 238 254
226 238 254
226 238 254
226 238 254
226 238 254
226 238 254
226 238 254
226 238 254
226 238 254
226 238 254
226 238 254
226 238 254
226 238 254
226 238 254
226 238 254
226 238 254
226 238 254
226 238 254
226 238 254
226 238 254
226 238 254
226 238 254
226 238 254
226 238 254
226 238 254
226 238 254
226 238 254
226 238 254
226 238 254
226 238 254
226 238 254
226 238 254
226 238 254
226 238 254
226 238 254
226 238 254
226 238 254
226 238 254
226 238 254
226 238 254
226 238 254
226 238 254
226 238 254
226 238 254
226 238 254
226 238 254
226 238 254
226 238 254
226 238 254
226 238 254
226 238 254
226 238 254
226 238 254
226 238 254
226 238 254
226 238 254
226 238 254
226 238 254
226 238 254
226 238 254
226 238 254
225 236 253
209 220 235
186 198 209
147 161 165
128 141 143
81 97 84
72 90 71
77 91 82
106 120 116
67 81 69
54 70 49
52 71 41
47 65 38
59 72 57
65 79 66
62 75 65
69 83 73
81 93 88
78 90 85
80 90 87
91 103 102
86 96 94
81 92 89
77 88 83
71 82 78
69 79 74
65 76 68
73 85 79
74 85 79
61 70 68
72 81 81
63 74 67
49 57 52
55 64 61
61 70 65
60 70 63
59 67 65
63 73 70
55 64 57
58 67 62
44 54 44
55 68 54
62 74 61
57 72 53
70 82 73
62 76 64
79 92 82
60 78 52
59 76 52
85 102 85
82 96 82
74 91 72
85 100 85
80 93 79
82 99 84
92 108 95
105 118 109
109 124 116
115 128 126
117 131 128
123 135 135
118 130 130
97 113 100
67 87 60
56 76 43
55 74 42
62 83 48
57 76 47
71 90 65
66 83 58
68 86 60
71 90 63
90 106 93
82 98 82
97 113 101
86 104 87
100 117 102
104 118 109
101 116 108
103 119 107
120 133 131
121 133 133
112 125 119
92 107 94
83 99 82
85 101 84
93 110 96
86 102 83
87 104 87
70 89 63
74 94 67
75 95 66
77 95 70
67 89 55
75 95 67
61 83 47
70 91 59
60 80 46
72 94 61
69 88 61
84 101 79
112 127 119
122 135 130
138 151 152
122 135 134
116 131 124
111 125 119
127 141 139
118 133 125
118 130 129
118 131 128
118 131 128
105 118 114
105 118 115
114 128 121
114 127 124
113 129 124
128 141 140
99 113 104
99 113 104
114 128 124
100 115 105
106 121 113
107 120 112
113 126 121
96 111 103
107 122 115
115 127 124
108 121 116
114 126 126
113 125 125
86 97 92
87 100 92
64 78 63
63 77 62
75 87 82
70 81 74
63 72 68
61 72 67
29 41 23
32 44 25
34 46 26
37 50 29
35 50 27
35 48 27
35 49 27
49 61 45
33 44 29
73 83 80
77 87 82
67 79 73
49 62 46
54 69 50
42 58 33
36 51 27
36 51 28
40 56 31
39 55 30
40 56 31
47 64 37
45 63 35
59 74 55
75 89 79
86 99 93
97 111 107
61 74 61
70 86 71
63 80 61
54 73 43
54 72 45
48 64 42
75 90 80
79 97 81
120 133 132
141 154 156
178 191 199
198 209 222
222 234 250
226 238 254
226 238 254
226 238 254
226 238 254
226 238 254
226 238 254
226 238 254
226 238 254
226 238 254
226 238 254
226 238 254
226 238 254
226 238 254
226 238 254
226 238 254
226 238 254
226 238 254
226 238 254
226 238 254
226 238 254
226 238 254
226 238 254
226 238 254
226 238 254
226 238 254
226 238 254
226 238 254
226 238 254
226 238 254
226 238 254
226 238 254
226 238 254
226 238 254
226 238 254
226 238 254
226 238 254
226 238 254
226 238 254
226 238 254
226 238 254
226 238 254
226 238 254
226 238 254
226 238 254
226 238 254
226 238 254
226 238 254
226 238 254
226 238 254
226 238 254
226 238 254
226 238 254
226 238 254
226 238 254
226 238 254
226 238 254
226 238 254
226 238 254
226 238 254
226 238 254
226 238 254
226 238 254
226 238 254
226 238 254
226 238 254
226 238 254
226 238 254
226 238 254
226 238 254
226 238 254
226 238 254
226 238 254
226 238 254
226 238 254
226 238 254
226 238 254
226 238 254
226 238 254
226 238 254
226 238 254
226 238 254
226 238 254
226 238 254
226 238 254
226 238 254
226 238 254
226 238 254
226 238 254
226 238 254
226 238 254
226 238 254
226 238 254
226 238 254
226 238 254
226 238 254
226 238 254
226 238 254
226 238 254
226 238 254
226 238 254
226 238 254
226 238 254
226 238 254
226 238 254
226 238 254
226 238 254
226 238 254
226 238 254
226 238 254
226 238 254
226 238 254
226 238 254
226 238 254
226 238 254
226 238 254
226 238 254
226 238 254
226 238 254
226 238 254
226 238 254
226 238 254
226 238 254
226 238 254
226 238 254
226 238 254
226 238 254
226 238 254
226 238 254
226 238 254
226 238 254
226 238 254
226 238 254
226 238 254
226 238 254
226 238 254
226 238 254
226 238 254
226 238 254
226 238 254
226 238 254
226 238 254
226 238 254
226 238 254
226 238 254
226 238 254
226 238 254
226 238 254
226 238 254
226 238 254
226 238 254
226 238 254
226 238 254
226 238 254
226 238 254
226 238 254
226 238 254
226 238 254
226 238 254
226 238 254
226 238 254
226 238 254
226 238 254
226 238 254
226 238 254
226 238 254
226 238 254
226 238 254
226 238 254
226 238 254
226 238 254
226 238 254
226 238 254
226 238 254
226 238 254
226 238 254
226 238 254
226 238 254
226 238 254
226 238 254
226 238 254
226 238 254
226 238 254
226 238 254
226 238 254
226 238 254
226 238 254
226 238 254
226 238 254
226 238 254
226 238 254
226 238 254
226 238 254
226 238 254
226 238 254
226 238 254
226 238 254
226 238 254
226 238 254
226 238 254
226 238 254
226 238 254
226 238 254
226 238 254
226 238 254
226 238 254
226 238 254
226 238 254
226 238 254
226 238 254
226 238 254
226 238 254
226 238 254
226 238 254
226 238 254
226 238 254
226 238 254
226 238 254
226 238 254
214 226 241
188 200 211
163 175 182
147 159 164
85 102 88
61 78 59
88 104 94
84 100 91
86 99 92
95 107 106
97 111 106
109 122 122
89 101 99
87 101 95
81 96 87
79 94 82
96 108 108
86 97 94
94 107 102
101 113 113
77 89 85
85 96 95
88 100 97
65 77 68
76 89 80
44 56 42
51 64 47
35 49 27
40 57 31
36 50 28
29 43 22
43 55 41
82 93 90
62 73 66
82 93 90
75 86 82
85 93 95
65 77 68
61 71 65
42 55 37
38 48 37
32 44 25
37 50 29
25 36 19
33 46 25
34 47 27
36 50 29
27 37 21
20 29 14
46 54 50
65 73 72
54 61 60
54 62 57
41 50 43
58 64 64
65 73 73
57 65 61
56 66 59
57 70 57
64 74 69
41 55 32
45 60 35
70 80 73
78 90 85
86 98 93
80 92 84
97 109 107
91 103 96
101 114 110
106 119 114
105 117 113
91 106 96
94 109 100
80 93 84
101 115 106
96 110 99
95 110 101
85 100 85
79 94 79
87 102 87
60 79 53
76 94 72
57 78 45
76 92 76
107 120 115
115 126 125
118 131 128
114 127 124
125 137 137
109 122 119
113 126 121
117 129 128
114 126 124
118 130 130
127 139 139
119 131 130
114 125 126
99 111 105
120 133 130
134 147 148
113 126 124
98 111 103
76 93 73
70 87 63
53 71 42
55 75 42
62 81 54
77 93 75
55 70 53
79 97 78
60 78 55
69 85 65
58 75 51
58 74 53
84 99 85
74 90 73
66 81 64
61 79 55
74 88 77
84 98 88
87 99 94
94 104 102
80 90 87
74 87 77
77 88 81
85 95 91
47 57 48
52 63 54
29 40 22
50 59 51
53 62 57
60 68 66
43 52 45
52 62 54
32 42 29
38 45 42
55 64 59
68 78 75
63 71 70
64 73 69
45 53 49
58 69 62
60 68 64
63 72 68
39 49 38
34 48 26
37 51 29
36 49 29
37 52 28
28 39 22
41 55 32
43 59 34
38 53 30
32 47 24
39 54 31
35 48 28
66 79 66
80 90 91
72 85 76
61 73 64
81 92 89
80 93 87
56 67 57
56 68 56
62 77 61
61 75 61
45 62 34
65 80 65
89 101 98
107 119 121
89 102 95
92 104 101
90 103 95
91 105 98
91 107 93
83 99 86
85 98 92
102 116 115
107 121 119
117 131 133
92 107 101
108 122 118
126 139 137
151 163 167
182 194 204
208 220 235
225 237 253
226 238 254
226 238 254
226 238 254
226 238 254
226 238 254
226 238 254
226 238 254
226 238 254
226 238 254
226 238 254
226 238 254
226 238 254
226 238 254
226 238 254
226 238 254
226 238 254
226 238 254
226 238 254
226 238 254
226 238 254
226 238 254
226 238 254
226 238 254
226 238 254
226 238 254
226 238 254
226 238 254
226 238 254
226 238 254
226 238 254
226 238 254
226 238 254
226 238 254
226 238 254
226 238 254
226 238 254
226 238 254
226 238 254
226 238 254
226 238 254
226 238 254
226 238 254
226 238 254
226 238 254
226 238 254
226 238 254
226 238 254
226 238 254
226 238 254
226 238 254
226 238 254
226 238 254
226 238 254
226 238 254
226 238 254
226 238 254
226 238 254
226 238 254
226 238 254
226 238 254
226 238 254
226 238 254
226 238 254
226 238 254
226 238 254
226 238 254
226 238 254
226 238 254
226 238 254
226 238 254
226 238 254
226 238 254
226 238 254
226 238 254
226 238 254
226 238 254
226 238 254
226 238 254
226 238 254
226 238 254
226 238 254
226 238 254
226 238 254
226 238 254
226 238 254
226 238 254
226 238 254
226 238 254
226 238 254
226 238 254
226 238 254
226 238 254
226 238 254
226 238 254
226 238 254
226 238 254
226 238 254
226 238 254
226 238 254
226 238 254
226 238 254
226 238 254
226 238 254
226 238 254
226 238 254
226 238 254
226 238 254
226 238 254
226 238 254
226 238 254
226 238 254
226 238 254
226 238 254
226 238 254
226 238 254
226 238 254
226 238 254
226 238 254
226 238 254
226 238 254
226 238 254
226 238 254
226 238 254
226 238 254
226 238 254
226 238 254
226 238 254
226 238 254
226 238 254
226 238 254
226 238 254
226 238 254
226 238 254
226 238 254
226 238 254
226 238 254
226 238 254
226 238 254
226 238 254
226 238 254
226 238 254
226 238 254
226 238 254
226 238 254
226 238 254
226 238 254
226 238 254
226 238 254
226 238 254
226 238 254
226 238 254
226 238 254
226 238 254
226 238 254
226 238 254
226 238 254
226 238 254
226 238 254
226 238 254
226 238 254
226 238 254
226 238 254
226 238 254
226 238 254
226 238 254
226 238 254
226 238 254
226 238 254
226 238 254
226 238 254
226 238 254
226 238 254
226 238 254
226 238 254
226 238 254
226 238 254
226 238 254
226 238 254
226 238 254
226 238 254
226 238 254
226 238 254
226 238 254
226 238 254
226 238 254
226 238 254
226 238 254
226 238 254
226 238 254
226 238 254
226 238 254
226 238 254
226 238 254
226 238 254
226 238 254
226 238 254
226 238 254
226 238 254
226 238 254
226 238 254
226 238 254
226 238 254
226 238 254
226 238 254
226 238 254
226 238 254
226 238 254
226 238 254
221 233 249
197 209 222
183 196 205
156 169 175
110 125 117
68 86 68
69 89 63
80 97 81
91 105 96
94 108 103
102 114 113
105 118 119
98 111 110
93 106 103
91 102 101
82 96 88
51 69 40
45 63 35
47 64 37
51 67 44
93 105 105
94 105 106
82 94 88
86 98 95
70 85 72
64 78 65
50 66 42
41 56 31
46 63 36
41 57 33
35 49 27
40 55 31
40 55 31
37 52 29
47 62 41
42 56 33
53 65 54
68 80 72
53 63 55
46 58 46
37 52 28
28 40 21
37 52 29
39 53 31
32 45 25
32 46 24
36 49 29
31 44 24
40 54 31
31 44 24
31 42 24
31 42 24
36 49 29
23 34 17
14 23 9
69 76 78
42 50 45
48 57 51
41 51 40
47 55 51
28 39 22
23 34 16
31 43 25
25 35 19
28 39 22
28 39 21
21 30 16
23 33 18
24 33 18
25 35 19
26 36 21
24 35 18
50 58 55
28 35 28
56 63 61
35 42 35
42 50 43
29 36 29
41 50 40
30 37 29
35 45 33
52 59 56
45 52 49
47 56 47
45 55 47
40 51 40
47 57 47
46 57 44
40 52 36
38 49 34
41 53 36
29 38 28
40 53 36
48 60 45
50 61 49
53 65 54
43 54 41
41 51 40
43 53 42
41 54 32
52 65 51
40 52 35
54 65 55
49 59 51
63 71 69
70 79 77
72 80 78
59 67 62
39 49 37
60 69 62
68 76 71
59 66 64
56 66 61
57 63 64
22 32 17
15 22 11
35 43 37
21 30 15
20 28 15
22 30 17
21 29 16
44 50 48
43 51 45
47 52 52
18 28 12
39 47 39
36 43 37
34 42 37
56 64 62
49 58 53
58 69 60
49 57 51
45 54 46
39 46 42
56 64 60
59 68 63
49 58 54
25 36 19
33 45 26
27 35 27
41 51 40
24 34 17
28 39 22
40 50 40
32 44 25
54 65 55
56 67 58
45 55 47
47 56 49
40 54 31
38 51 30
37 49 32
19 30 12
47 60 44
38 51 33
33 46 26
41 57 32
35 49 27
40 55 31
43 59 35
34 48 26
37 52 28
40 56 31
69 81 75
87 99 97
77 89 86
101 114 114
85 96 95
80 93 85
89 101 97
93 105 105
100 111 111
93 105 102
82 96 89
87 100 95
88 100 99
103 115 117
95 109 104
96 109 104
96 110 104
110 123 126
90 104 98
118 130 134
98 114 106
101 115 111
74 89 75
68 87 64
90 104 101
112 126 127
117 132 131
115 128 130
122 136 133
166 179 187
171 183 192
211 224 237
224 236 252
226 238 254
226 238 254
226 238 254
226 238 254
226 238 254
226 238 254
226 238 254
226 238 254
226 238 254
226 238 254
226 238 254
226 238 254
226 238 254
226 238 254
226 238 254
226 238 254
226 238 254
226 238 254
226 238 254
226 238 254
226 238 254
226 238 254
226 238 254
226 238 254
226 238 254
226 238 254
226 238 254
226 238 254
226 238 254
226 238 254
226 238 254
226 238 254
226 238 254
226 238 254
226 238 254
226 238 254
226 238 254
226 238 254
226 238 254
226 238 254
226 238 254
226 238 254
226 238 254
226 238 254
226 238 254
226 238 254
226 238 254
226 238 254
226 238 254
226 238 254
226 238 254
226 238 254
226 238 254
226 238 254
226 238 254
226 238 254
226 238 254
226 238 254
226 238 254
226 238 254
226 238 254
226 238 254
226 238 254
226 238 254
226 238 254
226 238 254
226 238 254
226 238 254
226 238 254
226 238 254
226 238 254
226 238 254
226 238 254
226 238 254
226 238 254
226 238 254
226 238 254
226 238 254
226 238 254
226 238 254
226 238 254
226 238 254
226 238 254
226 238 254
226 238 254
226 238 254
226 238 254
226 238 254
226 238 254
226 238 254
226 238 254
226 238 254
226 238 254
226 238 254
226 238 254
226 238 254
226 238 254
226 238 254
226 238 254
226 238 254
226 238 254
226 238 254
226 238 254
226 238 254
226 238 254
226 238 254
226 238 254
226 238 254
226 238 254
226 238 254
226 238 254
226 238 254
226 238 254
226 238 254
226 238 254
226 238 254
226 238 254
226 238 254
226 238 254
226 238 254
226 238 254
226 238 254
226 238 254
226 238 254
226 238 254
226 238 254
226 238 254
226 238 254
226 238 254
226 238 254
226 238 254
226 238 254
226 238 254
226 238 254
226 238 254
226 238 254
226 238 254
226 238 254
226 238 254
226 238 254
226 238 254
226 238 254
226 238 254
226 238 254
226 238 254
226 238 254
226 238 254
226 238 254
226 238 254
226 238 254
226 238 254
226 238 254
226 238 254
226 238 254
226 238 254
226 238 254
226 238 254
226 238 254
226 238 254
226 238 254
226 238 254
226 238 254
226 238 254
226 238 254
226 238 254
226 238 254
226 238 254
226 238 254
226 238 254
226 238 254
226 238 254
226 238 254
226 238 254
226 238 254
226 238 254
226 238 254
226 238 254
226 238 254
226 238 254
226 238 254
226 238 254
226 238 254
226 238 254
226 238 254
226 238 254
226 238 254
226 238 254
226 238 254
226 238 254
226 238 254
226 238 254
226 238 254
226 238 254
226 238 254
226 238 254
226 238 254
226 238 254
226 238 254
226 238 254
226 238 254
216 228 243
189 201 212
161 174 179
150 164 168
95 112 104
123 137 139
91 107 97
77 95 76
102 117 111
113 126 126
110 123 121
93 107 98
92 105 102
90 106 97
70 87 69
49 65 41
51 71 40
51 70 41
48 66 37
48 67 38
44 61 35
60 76 57
78 94 80
84 98 89
98 111 110
67 83 67
45 63 36
50 69 40
40 56 32
43 60 34
37 52 28
37 51 29
42 58 32
41 55 37
47 62 40
57 71 54
69 81 74
72 82 79
77 89 83
65 76 68
79 89 88
79 90 87
70 82 77
32 46 25
40 54 32
42 58 33
38 52 29
40 55 32
32 45 24
37 52 29
40 54 31
33 46 26
40 52 36
46 58 43
50 58 56
50 58 53
57 66 61
62 71 67
56 64 61
57 65 62
25 33 24
29 41 22
25 34 19
34 46 26
19 27 14
28 40 21
24 34 18
30 41 23
26 36 21
31 42 24
33 45 26
19 28 14
26 37 20
27 37 21
32 44 25
25 35 19
20 28 16
60 68 65
59 65 67
34 41 37
51 57 59
52 60 57
36 43 37
38 46 39
31 36 34
54 63 58
45 54 47
15 23 11
35 44 33
39 50 34
34 43 31
22 31 17
24 34 18
25 34 19
37 41 41
33 38 35
43 51 46
40 47 44
27 34 26
44 52 45
26 34 26
45 53 47
28 36 28
45 52 49
26 36 20
52 61 54
37 44 38
18 25 14
47 55 51
44 50 49
35 42 36
17 25 12
17 24 14
26 36 20
26 36 21
25 35 20
23 33 17
22 32 16
19 27 14
29 40 22
18 26 14
19 27 14
27 37 21
28 39 22
21 31 16
19 28 14
43 49 49
34 41 35
41 49 43
57 65 65
54 64 58
51 61 53
38 46 37
60 68 66
52 60 57
55 63 60
50 60 53
57 66 62
51 60 56
56 65 62
67 75 75
42 50 43
29 41 23
28 41 22
25 36 19
31 43 23
32 44 25
33 45 25
40 54 32
36 49 28
33 45 26
34 47 26
34 47 26
30 42 23
32 44 25
49 63 45
70 81 78
56 65 60
73 83 81
69 81 74
65 76 70
75 85 82
73 83 80
63 75 66
51 63 53
59 70 63
45 59 43
59 71 60
56 67 58
75 86 81
86 96 95
70 81 77
79 89 87
92 104 104
91 103 100
73 86 77
100 112 111
100 113 112
98 110 110
93 105 104
89 103 97
48 64 42
45 63 35
48 63 46
51 63 53
64 79 62
95 110 103
94 108 102
92 105 102
114 128 128
95 109 106
76 93 77
51 70 41
51 71 40
74 92 73
65 85 61
99 113 111
104 120 113
92 108 99
105 121 116
118 131 129
148 161 164
197 209 221
218 230 245
226 238 254
226 238 254
226 238 254
226 238 254
226 238 254
226 238 254
226 238 254
226 238 254
226 238 254
226 238 254
226 238 254
226 238 254
226 238 254
226 238 254
226 238 254
226 238 254
226 238 254
226 238 254
226 238 254
226 238 254
226 238 254
226 238 254
226 238 254
226 238 254
226 238 254
226 238 254
226 238 254
226 238 254
226 238 254
226 238 254
226 238 254
226 238 254
226 238 254
226 238 254
226 238 254
226 238 254
226 238 254
226 238 254
226 238 254
226 238 254
226 238 254
226 238 254
226 238 254
226 238 254
226 238 254
226 238 254
226 238 254
226 238 254
226 238 254
226 238 254
226 238 254
226 238 254
226 238 254
226 238 254
226 238 254
226 238 254
226 238 254
226 238 254
226 238 254
226 238 254
226 238 254
226 238 254
226 238 254
226 238 254
226 238 254
226 238 254
226 238 254
226 238 254
226 238 254
226 238 254
226 238 254
226 238 254
226 238 254
226 238 254
226 238 254
226 238 254
226 238 254
226 238 254
226 238 254
226 238 254
226 238 254
226 238 254
226 238 254
226 238 254
226 238 254
226 238 254
226 238 254
226 238 254
226 238 254
226 238 254
226 238 254
226 238 254
226 238 254
226 238 254
226 238 254
226 238 254
226 238 254
226 238 254
226 238 254
226 238 254
226 238 254
226 238 254
226 238 254
226 238 254
226 238 254
226 238 254
226 238 254
226 238 254
226 238 254
226 238 254
226 238 254
226 238 254
226 238 254
226 238 254
226 238 254
226 238 254
226 238 254
226 238 254
226 238 254
226 238 254
226 238 254
226 238 254
226 238 254
226 238 254
226 238 254
226 238 254
226 238 254
226 238 254
226 238 254
226 238 254
226 238 254
226 238 254
226 238 254
226 238 254
226 238 254
226 238 254
226 238 254
226 238 254
226 238 254
226 238 254
226 238 254
226 238 254
226 238 254
226 238 254
226 238 254
226 238 254
226 238 254
226 238 254
226 238 254
226 238 254
226 238 254
226 238 254
226 238 254
226 238 254
226 238 254
226 238 254
226 238 254
226 238 254
226 238 254
226 238 254
226 238 254
226 238 254
226 238 254
226 238 254
226 238 254
226 238 254
226 238 254
226 238 254
226 238 254
226 238 254
226 238 254
226 238 254
226 238 254
226 238 254
226 238 254
226 238 254
226 238 254
226 238 254
226 238 254
226 238 254
226 238 254
226 238 254
226 238 254
226 238 254
226 238 254
226 238 254
226 238 254
226 238 254
226 238 254
226 238 254
226 238 254
226 238 254
220 232 248
196 209 221
155 169 171
119 135 129
106 122 117
122 137 134
110 124 120
88 105 93
64 82 61
55 75 43
58 79 46
65 85 59
104 117 114
83 97 87
58 75 58
63 84 53
53 73 42
56 77 45
49 68 39
50 68 42
67 81 66
81 96 87
90 104 98
94 106 105
113 126 127
104 116 116
91 105 99
105 116 117
105 117 117
85 97 94
42 58 33
45 63 35
58 72 58
54 68 51
67 79 71
94 106 104
89 102 100
87 98 98
83 92 94
89 100 98
57 69 60
80 93 86
68 80 73
72 83 77
87 97 95
70 81 78
72 84 78
63 73 68
45 61 35
34 47 25
35 48 27
42 55 38
42 54 39
65 75 72
63 74 66
76 88 84
59 69 62
70 80 78
61 72 67
66 78 70
63 72 69
54 63 57
54 63 58
64 73 70
61 72 65
23 33 17
33 46 26
32 45 25
37 51 29
30 41 23
28 39 22
32 45 24
33 46 26
25 35 18
28 39 21
33 46 26
54 63 58
36 48 29
36 45 37
38 45 40
40 46 43
34 44 31
39 48 38
26 36 19
23 32 17
25 35 18
26 37 20
16 24 11
27 37 20
28 40 21
31 42 24
27 37 21
27 37 21
18 26 14
26 37 20
20 29 16
29 40 23
20 27 15
31 42 24
52 58 59
34 42 31
45 52 50
40 47 43
63 72 68
37 45 38
44 52 46
34 41 36
29 39 22
39 46 42
49 57 52
57 65 62
15 22 11
62 72 67
41 48 44
45 52 48
44 51 48
26 36 21
25 36 19
27 37 21
21 30 16
25 36 19
22 31 17
25 35 19
24 35 17
28 40 21
22 33 16
26 35 21
23 34 17
30 42 23
29 41 22
23 32 18
46 53 50
67 75 75
45 54 47
54 62 59
55 65 59
56 64 61
63 72 70
51 58 56
49 59 51
51 61 54
58 68 63
62 70 68
58 67 62
54 63 57
63 71 71
41 49 43
37 46 37
29 42 22
26 37 20
29 40 22
26 38 20
37 52 30
32 43 25
34 47 26
35 47 28
33 46 25
34 46 27
31 44 23
35 49 27
54 65 54
73 84 80
59 70 60
78 89 87
76 86 83
79 92 85
82 93 89
81 92 89
75 85 82
82 92 92
90 102 101
70 82 73
75 88 81
79 89 85
60 73 62
41 57 32
51 63 51
64 78 62
71 86 73
64 77 66
76 88 82
83 96 89
101 114 113
90 101 99
114 125 129
88 101 99
70 85 72
47 65 37
46 64 37
50 68 40
49 68 38
50 69 40
50 69 39
54 74 43
71 86 71
66 83 64
75 91 77
69 85 68
70 88 65
52 72 42
53 74 42
61 82 49
53 72 40
73 90 71
76 93 74
64 85 57
69 86 66
79 98 79
119 135 126
150 163 165
187 199 209
208 220 233
226 238 254
226 238 254
226 238 254
226 238 254
226 238 254
226 238 254
226 238 254
226 238 254
226 238 254
226 238 254
226 238 254
226 238 254
226 238 254
226 238 254
226 238 254
226 238 254
226 238 254
226 238 254
226 238 254
226 238 254
226 238 254
226 238 254
226 238 254
226 238 254
226 238 254
226 238 254
226 238 254
226 238 254
226 238 254
226 238 254
226 238 254
226 238 254
226 238 254
226 238 254
226 238 254
226 238 254
226 238 254
226 238 254
226 238 254
226 238 254
226 238 254
226 238 254
226 238 254
226 238 254
226 238 254
226 238 254
226 238 254
226 238 254
226 238 254
226 238 254
226 238 254
226 238 254
226 238 254
226 238 254
226 238 254
226 238 254
226 238 254
226 238 254
226 238 254
226 238 254
226 238 254
226 238 254
226 238 254
226 238 254
226 238 254
226 238 254
226 238 254
226 238 254
226 238 254
226 238 254
226 238 254
226 238 254
226 238 254
226 238 254
226 238 254
226 238 254
226 238 254
226 238 254
226 238 254
226 238 254
226 238 254
226 238 254
226 238 254
226 238 254
226 238 254
226 238 254
226 238 254
226 238 254
226 238 254
226 238 254
226 238 254
226 238 254
226 238 254
226 238 254
226 238 254
226 238 254
226 238 254
226 238 254
226 238 254
226 238 254
226 238 254
226 238 254
226 238 254
226 238 254
226 238 254
226 238 254
226 238 254
226 238 254
226 238 254
226 238 254
226 238 254
226 238 254
226 238 254
226 238 254
226 238 254
226 238 254
226 238 254
226 238 254
226 238 254
226 238 254
226 238 254
226 238 254
226 238 254
226 238 254
226 238 254
226 238 254
226 238 254
226 238 254
226 238 254
226 238 254
226 238 254
226 238 254
226 238 254
226 238 254
226 238 254
226 238 254
226 238 254
226 238 254
226 238 254
226 238 254
226 238 254
226 238 254
226 238 254
226 238 254
226 238 254
226 238 254
226 238 254
226 238 254
226 238 254
226 238 254
226 238 254
226 238 254
226 238 254
226 238 254
226 238 254
226 238 254
226 238 254
226 238 254
226 238 254
226 238 254
226 238 254
226 238 254
226 238 254
226 238 254
226 238 254
226 238 254
226 238 254
226 238 254
226 238 254
226 238 254
226 238 254
226 238 254
226 238 254
226 238 254
226 238 254
226 238 254
226 238 254
226 238 254
226 238 254
226 238 254
226 238 254
226 238 254
226 238 254
226 238 254
218 230 246
193 205 218
166 181 188
146 162 165
131 145 149
121 134 136
92 109 97
96 113 104
66 86 60
53 74 42
58 78 49
66 84 63
85 101 87
104 119 115
101 115 112
105 120 118
114 128 126
52 70 44
50 69 40
55 71 49
71 86 73
82 99 84
94 107 105
107 120 117
108 120 121
97 109 108
108 121 122
98 111 110
99 112 111
104 116 117
88 101 98
83 94 92
82 95 90
61 74 63
66 78 69
89 101 98
79 91 87
88 100 100
103 116 116
86 97 94
79 92 84
84 93 94
84 97 90
76 89 81
85 96 93
82 92 93
95 108 106
72 83 78
76 87 84
63 76 64
55 68 53
46 57 47
86 97 94
77 87 84
66 77 71
64 72 72
66 76 72
85 96 94
74 85 82
59 70 62
73 84 78
59 70 60
78 89 86
48 61 45
78 89 86
66 75 72
73 83 81
59 67 65
78 88 88
50 57 55
30 43 23
31 43 24
51 62 49
32 42 29
46 53 49
50 62 49
42 53 40
70 79 77
58 67 63
52 62 54
58 66 64
67 76 75
45 54 48
48 57 50
57 67 59
62 71 67
48 56 50
30 38 28
30 42 23
39 53 30
31 44 24
27 38 21
26 37 19
34 47 26
35 48 28
26 37 20
32 44 25
35 49 28
32 44 25
33 45 26
25 35 20
28 40 22
25 36 19
27 38 21
56 63 61
45 55 47
54 60 59
54 60 60
64 71 72
61 68 69
55 64 57
42 52 42
59 66 65
50 58 56
49 57 52
46 52 50
76 84 86
49 58 52
42 50 44
52 60 57
35 42 37
25 35 20
33 44 31
28 35 27
31 40 30
35 45 32
40 50 40
45 52 47
43 53 42
49 60 48
42 52 41
53 63 57
50 60 52
45 55 47
48 56 51
37 45 37
51 62 52
51 61 52
49 59 51
62 72 64
39 50 34
45 56 43
57 67 58
46 56 47
46 57 47
42 52 40
48 58 48
61 72 65
47 56 50
46 59 44
53 65 54
61 71 66
32 45 25
45 55 45
46 57 46
43 56 39
41 54 37
32 42 30
34 48 26
29 38 28
38 52 30
29 42 21
36 50 28
38 52 30
34 49 26
37 51 28
71 83 77
77 89 83
74 86 78
63 75 65
79 90 89
70 82 76
77 89 84
89 101 98
86 97 94
91 104 101
75 88 81
80 93 86
78 90 86
92 104 102
42 56 37
45 62 35
40 56 30
44 60 35
37 52 28
46 63 36
44 60 35
42 58 31
51 67 47
52 67 48
67 79 72
68 83 67
63 76 65
48 64 43
59 77 54
45 62 34
53 73 42
57 78 45
47 65 37
44 62 35
52 71 40
53 73 42
74 90 77
111 124 121
100 115 112
98 112 108
96 113 103
68 84 66
73 90 75
57 79 45
68 87 63
91 106 97
104 120 113
92 109 96
84 100 89
86 105 86
134 148 149
167 179 187
192 204 215
218 230 245
226 238 254
226 238 254
226 238 254
226 238 254
226 238 254
226 238 254
226 238 254
226 238 254
226 238 254
226 238 254
226 238 254
226 238 254
226 238 254
226 238 254
226 238 254
226 238 254
226 238 254
226 238 254
226 238 254
226 238 254
226 238 254
226 238 254
226 238 254
226 238 254
226 238 254
226 238 254
226 238 254
226 238 254
226 238 254
226 238 254
226 238 254
226 238 254
226 238 254
226 238 254
226 238 254
226 238 254
226 238 254
226 238 254
226 238 254
226 238 254
226 238 254
226 238 254
226 238 254
226 238 254
226 238 254
226 238 254
226 238 254
226 238 254
226 238 254
226 238 254
226 238 254
226 238 254
226 238 254
226 238 254
226 238 254
226 238 254
226 238 254
226 238 254
226 238 254
226 238 254
226 238 254
226 238 254
226 238 254
226 238 254
226 238 254
226 238 254
226 238 254
226 238 254
226 238 254
226 238 254
226 238 254
226 238 254
226 238 254
226 238 254
226 238 254
226 238 254
226 238 254
226 238 254
226 238 254
226 238 254
226 238 254
226 238 254
226 238 254
226 238 254
226 238 254
226 238 254
226 238 254
226 238 254
226 238 254
226 238 254
226 238 254
226 238 254
226 238 254
226 238 254
226 238 254
226 238 254
226 238 254
226 238 254
226 238 254
226 238 254
226 238 254
226 238 254
226 238 254
226 238 254
226 238 254
226 238 254
226 238 254
226 238 254
226 238 254
226 238 254
226 238 254
226 238 254
226 238 254
226 238 254
226 238 254
226 238 254
226 238 254
226 238 254
226 238 254
226 238 254
226 238 254
226 238 254
226 238 254
226 238 254
226 238 254
226 238 254
226 238 254
226 238 254
226 238 254
226 238 254
226 238 254
226 238 254
226 238 254
226 238 254
226 238 254
226 238 254
226 238 254
226 238 254
226 238 254
226 238 254
226 238 254
226 238 254
226 238 254
226 238 254
226 238 254
226 238 254
226 238 254
226 238 254
226 238 254
226 238 254
226 238 254
226 238 254
226 238 254
226 238 254
226 238 254
226 238 254
226 238 254
226 238 254
226 238 254
226 238 254
226 238 254
226 238 254
226 238 254
226 238 254
226 238 254
226 238 254
226 238 254
226 238 254
226 238 254
226 238 254
226 238 254
226 238 254
226 238 254
226 238 254
226 238 254
226 238 254
219 231 246
199 212 222
154 166 172
138 152 155
116 131 129
108 123 119
112 128 123
102 119 112
73 91 72
56 78 46
62 83 52
73 91 72
94 108 102
95 111 104
105 119 114
116 131 128
111 125 123
112 126 127
107 119 119
106 119 116
94 108 106
83 100 87
117 128 132
91 105 99
101 115 114
106 118 119
121 134 136
100 113 111
115 128 130
105 118 117
85 99 92
77 93 78
88 102 96
59 74 59
50 67 43
42 59 33
43 59 33
40 57 30
45 62 36
90 101 100
91 101 100
102 114 113
97 109 110
86 99 96
86 98 95
80 93 87
81 94 87
73 86 77
56 68 54
46 59 43
41 57 32
40 55 31
32 46 24
41 56 32
32 46 25
38 54 30
41 54 39
70 79 75
72 83 78
72 84 76
80 93 88
85 96 94
75 86 82
76 86 82
82 91 92
79 88 88
71 82 75
82 93 91
65 73 70
79 90 86
50 61 52
60 69 66
47 57 46
38 47 37
60 70 65
69 78 77
65 75 70
67 75 72
65 74 71
61 71 67
60 70 63
65 74 70
54 63 57
55 65 58
57 66 62
62 72 67
65 75 69
58 68 62
51 61 53
55 66 58
65 73 72
75 83 83
25 35 18
34 47 27
33 46 26
35 48 27
30 42 23
27 38 21
25 36 18
30 42 23
23 35 16
34 47 27
31 43 25
29 41 23
36 49 29
28 40 21
29 40 22
42 53 41
41 51 39
58 65 63
58 67 62
48 57 51
40 49 40
46 54 50
53 62 57
39 48 38
42 54 39
31 40 29
31 40 29
29 40 23
33 45 25
27 38 21
25 36 19
30 42 23
27 38 21
38 51 35
54 61 59
49 58 53
57 65 61
74 84 81
53 62 56
56 66 59
63 72 69
39 48 39
47 58 47
50 60 52
57 66 60
59 70 63
61 70 66
72 82 79
58 66 61
63 75 69
32 44 25
28 40 21
29 41 23
36 49 28
28 40 21
35 49 27
30 42 22
37 52 29
28 40 22
32 45 25
33 46 26
37 52 29
26 38 20
39 54 31
29 38 27
85 94 95
69 79 76
65 76 70
76 86 84
78 89 87
84 94 94
84 94 97
85 95 97
72 82 79
77 88 84
74 84 81
75 86 81
66 77 71
69 79 75
71 82 78
64 77 67
51 64 49
61 72 64
72 83 78
84 96 92
69 83 71
86 99 93
89 101 99
100 113 111
79 91 85
77 89 82
103 114 116
87 100 96
43 58 38
48 66 37
49 67 38
45 62 35
41 58 32
45 63 36
51 69 40
45 62 35
38 55 28
43 60 34
47 66 37
53 72 42
72 87 76
103 117 116
105 118 117
88 103 95
101 114 110
87 101 95
89 103 94
68 83 67
63 82 56
52 71 45
59 80 47
85 99 91
109 122 124
116 130 132
107 120 117
113 128 126
107 121 118
88 104 96
99 114 108
88 106 90
96 112 105
125 140 140
125 139 138
122 137 137
109 126 120
111 126 122
107 123 117
127 141 140
166 179 185
201 214 226
221 233 249
226 238 254
226 238 254
226 238 254
226 238 254
226 238 254
226 238 254
226 238 254
226 238 254
226 238 254
226 238 254
226 238 254
226 238 254
226 238 254
226 238 254
226 238 254
226 238 254
226 238 254
226 238 254
226 238 254
226 238 254
226 238 254
226 238 254
226 238 254
226 238 254
226 238 254
226 238 254
226 238 254
226 238 254
226 238 254
226 238 254
226 238 254
226 238 254
226 238 254
226 238 254
226 238 254
226 238 254
226 238 254
226 238 254
226 238 254
226 238 254
226 238 254
226 238 254
226 238 254
226 238 254
226 238 254
226 238 254
226 238 254
226 238 254
226 238 254
226 238 254
226 238 254
226 238 254
226 238 254
226 238 254
226 238 254
226 238 254
226 238 254
226 238 254
226 238 254
226 238 254
226 238 254
226 238 254
226 238 254
226 238 254
226 238 254
226 238 254
226 238 254
226 238 254
226 238 254
226 238 254
226 238 254
226 238 254
226 238 254
226 238 254
226 238 254
226 238 254
226 238 254
226 238 254
226 238 254
226 238 254
226 238 254
226 238 254
226 238 254
226 238 254
226 238 254
226 238 254
226 238 254
226 238 254
226 238 254
226 238 254
226 238 254
226 238 254
226 238 254
226 238 254
226 238 254
226 238 254
226 238 254
226 238 254
226 238 254
226 238 254
226 238 254
226 238 254
226 238 254
226 238 254
226 238 254
226 238 254
226 238 254
226 238 254
226 238 254
226 238 254
226 238 254
226 238 254
226 238 254
226 238 254
226 238 254
226 238 254
226 238 254
226 238 254
226 238 254
226 238 254
226 238 254
226 238 254
226 238 254
226 238 254
226 238 254
226 238 254
226 238 254
226 238 254
226 238 254
226 238 254
226 238 254
226 238 254
226 238 254
226 238 254
226 238 254
226 238 254
226 238 254
226 238 254
226 238 254
226 238 254
226 238 254
226 238 254
226 238 254
226 238 254
226 238 254
226 238 254
226 238 254
226 238 254
226 238 254
226 238 254
226 238 254
226 238 254
226 238 254
226 238 254
226 238 254
226 238 254
226 238 254
226 238 254
226 238 254
226 238 254
226 238 254
226 238 254
226 238 254
226 238 254
226 238 254
226 238 254
226 238 254
226 238 254
226 238 254
204 216 229
178 191 196
150 165 166
122 139 135
124 138 140
117 133 130
102 120 111
127 143 141
61 83 49
57 78 44
89 106 95
85 100 90
106 121 116
112 124 124
113 127 127
128 142 144
113 126 127
115 128 129
106 121 120
82 98 88
80 97 83
52 71 45
51 70 40
49 67 38
48 67 38
108 121 122
101 115 111
109 121 123
95 108 103
103 117 116
72 85 74
76 91 76
59 77 53
46 64 35
44 61 34
46 64 36
47 64 37
50 68 39
52 71 41
43 59 34
37 53 29
42 58 32
60 74 59
98 110 109
77 90 82
68 81 69
67 80 70
57 73 54
45 61 35
41 58 31
40 55 31
39 54 31
42 58 34
44 60 35
42 58 32
38 54 29
49 67 39
42 58 33
39 54 31
43 59 34
58 71 57
83 94 91
76 88 83
85 96 96
79 91 87
79 90 86
72 82 80
44 56 41
46 60 44
41 54 36
43 56 37
40 55 31
43 60 34
35 49 27
29 40 22
34 47 26
38 53 29
32 47 24
80 90 88
69 79 74
72 82 78
71 82 78
71 81 79
69 79 75
49 58 50
74 84 83
47 57 48
63 72 69
63 73 68
70 81 73
68 78 75
58 68 62
77 86 88
58 68 61
71 80 77
63 73 69
37 50 29
29 39 25
29 41 22
30 40 29
48 59 46
39 51 33
56 66 59
56 67 58
53 63 53
68 78 73
49 59 51
53 62 56
73 81 81
62 70 69
68 77 74
61 70 67
44 54 44
30 43 23
28 40 22
24 35 18
23 33 17
32 45 25
34 48 27
27 40 20
25 35 19
36 50 28
28 38 22
35 49 28
36 50 29
39 52 30
32 45 25
31 43 24
28 39 21
40 50 40
52 61 57
69 79 76
66 76 72
45 56 46
64 73 70
62 72 66
56 66 59
59 68 65
74 83 82
65 74 71
57 68 59
63 73 67
64 73 69
67 76 72
72 82 80
71 81 78
32 46 24
33 46 26
33 46 26
27 40 20
33 46 26
39 55 31
40 54 31
35 49 27
32 45 24
39 54 31
40 54 32
40 56 31
35 48 27
37 51 28
50 62 49
53 65 53
65 75 72
86 96 97
59 72 59
69 79 73
69 80 75
76 86 84
77 88 84
94 105 107
81 93 89
80 91 88
89 100 100
81 92 88
62 72 66
74 85 80
43 58 34
39 55 30
39 55 30
34 49 25
51 69 41
37 52 29
40 57 31
41 58 33
49 64 46
55 70 52
62 74 63
56 71 55
75 87 80
54 68 52
56 71 53
65 79 68
48 62 44
45 61 35
43 59 34
52 72 42
51 70 41
54 73 43
50 69 40
43 61 33
45 63 34
66 84 65
83 98 88
99 114 107
101 115 112
110 122 124
104 118 114
111 123 122
107 119 120
112 124 126
100 114 112
95 109 105
88 104 94
116 129 129
110 123 123
115 129 129
133 147 153
115 130 130
110 123 122
126 140 140
117 132 131
123 137 138
101 116 111
98 114 104
112 127 123
128 142 145
137 152 157
132 147 148
132 146 152
84 104 84
92 111 95
129 144 139
171 185 189
212 224 238
226 238 254
226 238 254
226 238 254
226 238 254
226 238 254
226 238 254
226 238 254
226 238 254
226 238 254
226 238 254
226 238 254
226 238 254
226 238 254
226 238 254
226 238 254
226 238 254
226 238 254
226 238 254
226 238 254
226 238 254
226 238 254
226 238 254
226 238 254
226 238 254
226 238 254
226 238 254
226 238 254
226 238 254
226 238 254
226 238 254
226 238 254
226 238 254
226 238 254
226 238 254
226 238 254
226 238 254
226 238 254
226 238 254
226 238 254
226 238 254
226 238 254
226 238 254
226 238 254
226 238 254
226 238 254
226 238 254
226 238 254
226 238 254
226 238 254
226 238 254
226 238 254
226 238 254
226 238 254
226 238 254
226 238 254
226 238 254
226 238 254
226 238 254
226 238 254
226 238 254
226 238 254
226 238 254
226 238 254
226 238 254
226 238 254
226 238 254
226 238 254
226 238 254
226 238 254
226 238 254
226 238 254
226 238 254
226 238 254
226 238 254
226 238 254
226 238 254
226 238 254
226 238 254
226 238 254
226 238 254
226 238 254
226 238 254
226 238 254
226 238 254
226 238 254
226 238 254
226 238 254
226 238 254
226 238 254
226 238 254
226 238 254
226 238 254
226 238 254
226 238 254
226 238 254
226 238 254
226 238 254
226 238 254
226 238 254
226 238 254
226 238 254
226 238 254
226 238 254
226 238 254
226 238 254
226 238 254
226 238 254
226 238 254
226 238 254
226 238 254
226 238 254
226 238 254
226 238 254
226 238 254
226 238 254
226 238 254
226 238 254
226 238 254
226 238 254
226 238 254
226 238 254
226 238 254
226 238 254
226 238 254
226 238 254
226 238 254
226 238 254
226 238 254
226 238 254
226 238 254
226 238 254
226 238 254
226 238 254
226 238 254
226 238 254
226 238 254
226 238 254
226 238 254
226 238 254
226 238 254
226 238 254
226 238 254
226 238 254
226 238 254
226 238 254
226 238 254
226 238 254
226 238 254
226 238 254
226 238 254
226 238 254
226 238 254
226 238 254
226 238 254
226 238 254
226 238 254
226 238 254
226 238 254
226 238 254
226 238 254
226 238 254
226 238 254
222 234 250
175 188 194
167 181 188
117 133 128
119 136 136
121 138 137
116 132 126
124 139 142
138 154 156
122 137 137
110 126 121
104 119 117
104 120 111
116 131 131
118 130 133
117 131 134
113 128 127
118 132 133
110 125 120
84 98 91
68 87 64
56 75 51
52 72 41
50 69 39
53 73 41
49 69 39
48 67 37
49 69 38
50 68 41
82 98 85
72 89 72
72 88 73
58 78 46
46 63 36
47 66 37
52 71 41
44 62 34
43 60 32
57 77 46
45 61 35
57 76 45
47 64 36
55 75 44
72 85 77
70 84 73
93 106 103
88 100 97
61 75 61
45 62 35
51 70 40
45 63 35
51 70 40
52 70 41
45 62 36
44 60 35
44 61 34
44 61 34
39 55 30
40 56 32
39 55 30
39 54 30
36 51 27
45 60 39
73 86 76
59 73 60
51 64 51
58 72 56
50 66 43
41 57 32
43 60 34
42 58 33
38 52 30
34 48 25
36 51 28
40 54 31
39 54 30
39 54 31
40 55 31
39 54 31
38 53 29
39 53 30
42 57 33
48 60 49
70 81 76
70 81 77
65 75 70
77 88 82
79 90 87
59 70 63
72 79 80
83 93 92
72 82 80
67 77 73
65 75 71
64 75 67
66 78 70
55 67 55
52 66 51
46 58 44
46 58 43
64 73 70
64 75 68
58 68 63
60 69 65
75 83 83
72 83 77
49 59 51
56 65 61
57 67 60
59 69 65
60 73 62
61 72 64
68 78 74
57 67 59
51 61 53
64 73 72
79 90 87
50 60 52
29 42 22
31 44 23
34 47 27
38 53 30
30 42 23
35 48 28
28 40 21
23 34 16
33 46 25
34 47 27
27 38 20
43 59 34
40 55 31
28 40 22
38 54 30
34 48 26
45 53 47
66 75 72
62 71 67
71 81 77
59 67 65
60 68 67
63 72 69
64 72 71
64 73 71
55 66 59
71 82 76
76 86 84
58 71 57
70 80 75
66 77 72
74 84 81
61 71 66
37 51 28
30 44 23
34 47 26
40 54 32
36 51 28
31 44 22
38 52 31
33 47 25
32 45 25
34 47 26
43 59 33
42 57 32
41 57 33
41 57 32
48 60 47
69 82 73
75 86 82
84 95 94
68 80 72
75 86 81
88 99 97
84 95 93
74 86 81
85 96 94
88 98 97
82 95 88
80 93 86
87 97 96
93 104 105
81 93 87
47 64 36
44 62 35
38 53 30
44 60 34
39 55 30
43 59 33
50 69 39
48 66 38
49 68 39
38 54 29
43 61 33
48 65 38
52 72 42
80 95 84
106 118 118
88 100 98
80 93 85
96 110 104
86 100 92
94 107 102
79 91 87
81 95 86
78 95 81
71 86 75
65 82 63
55 72 50
84 97 91
111 125 124
100 113 113
112 125 126
117 130 132
109 123 121
103 117 112
104 118 116
112 124 129
113 127 127
121 134 139
102 117 113
64 84 57
68 83 67
86 104 89
96 112 105
85 101 89
107 121 118
128 142 148
105 121 120
122 137 137
111 127 122
66 85 60
74 94 71
71 90 69
113 128 123
127 143 143
107 124 117
106 124 115
102 118 110
105 122 115
114 130 124
143 157 155
177 190 195
217 229 243
226 238 254
226 238 254
226 238 254
226 238 254
226 238 254
226 238 254
226 238 254
226 238 254
226 238 254
226 238 254
226 238 254
226 238 254
226 238 254
226 238 254
226 238 254
226 238 254
226 238 254
226 238 254
226 238 254
226 238 254
226 238 254
226 238 254
226 238 254
226 238 254
226 238 254
226 238 254
226 238 254
226 238 254
226 238 254
226 238 254
226 238 254
226 238 254
226 238 254
226 238 254
226 238 254
226 238 254
226 238 254
226 238 254
226 238 254
226 238 254
226 238 254
226 238 254
226 238 254
226 238 254
226 238 254
226 238 254
226 238 254
226 238 254
226 238 254
226 238 254
226 238 254
226 238 254
226 238 254
226 238 254
226 238 254
226 238 254
226 238 254
226 238 254
226 238 254
226 238 254
226 238 254
226 238 254
226 238 254
226 238 254
226 238 254
226 238 254
226 238 254
226 238 254
226 238 254
226 238 254
226 238 254
226 238 254
226 238 254
226 238 254
226 238 254
226 238 254
226 238 254
226 238 254
226 238 254
226 238 254
226 238 254
226 238 254
226 238 254
226 238 254
226 238 254
226 238 254
226 238 254
226 238 254
226 238 254
226 238 254
226 238 254
226 238 254
226 238 254
226 238 254
226 238 254
226 238 254
226 238 254
226 238 254
226 238 254
226 238 254
226 238 254
226 238 254
226 238 254
226 238 254
226 238 254
226 238 254
226 238 254
226 238 254
226 238 254
226 238 254
226 238 254
226 238 254
226 238 254
226 238 254
226 238 254
226 238 254
226 238 254
226 238 254
226 238 254
226 238 254
226 238 254
226 238 254
226 238 254
226 238 254
226 238 254
226 238 254
226 238 254
226 238 254
226 238 254
226 238 254
226 238 254
226 238 254
226 238 254
226 238 254
226 238 254
226 238 254
226 238 254
226 238 254
226 238 254
226 238 254
226 238 254
226 238 254
226 238 254
226 238 254
226 238 254
226 238 254
226 238 254
226 238 254
226 238 254
226 238 254
226 238 254
226 238 254
226 238 254
226 238 254
226 238 254
201 213 225
168 180 185
141 155 154
119 137 134
121 139 130
126 142 141
94 110 99
71 91 66
117 134 128
127 143 140
120 134 133
94 109 101
69 89 64
61 83 49
60 82 48
71 91 67
123 137 137
103 118 114
96 113 103
78 95 79
61 80 54
54 75 43
59 80 47
63 85 51
59 80 47
53 73 41
55 76 44
57 75 51
81 97 84
89 101 99
116 130 131
104 117 115
97 110 107
59 75 57
47 65 37
50 69 40
49 69 38
47 65 38
49 68 38
44 61 34
58 79 47
61 78 57
95 108 102
99 113 109
88 103 94
107 119 118
94 106 107
103 116 115
98 110 111
87 99 95
104 116 116
49 66 42
46 64 36
42 60 32
43 59 33
45 63 35
41 57 32
44 61 35
49 67 39
42 59 33
45 59 43
71 84 73
78 89 84
88 100 96
85 97 95
81 93 87
99 111 110
88 99 99
83 95 90
42 59 33
33 47 25
45 61 35
44 60 33
49 66 38
34 48 25
43 59 34
35 50 27
38 53 29
42 57 33
39 54 31
34 49 26
41 57 32
37 52 28
39 55 31
40 56 31
43 59 35
65 75 67
63 75 65
62 74 64
56 66 58
55 65 56
50 62 49
36 46 32
40 56 31
41 54 36
38 52 30
42 57 33
31 44 23
33 46 25
37 51 29
39 53 30
35 49 27
33 47 25
36 49 28
67 77 74
86 98 94
66 75 73
71 81 79
73 85 79
63 73 67
74 84 80
78 89 86
67 77 72
53 63 57
57 67 62
71 81 78
65 76 69
74 85 82
75 85 82
81 90 89
76 86 86
47 57 48
33 46 26
33 46 26
36 51 29
37 51 29
35 49 27
36 50 29
35 49 27
33 47 25
37 52 29
35 48 27
41 57 33
40 54 32
29 41 23
42 57 33
29 43 20
36 49 28
60 69 65
66 76 71
70 79 79
85 94 95
81 91 90
73 83 81
61 73 63
64 74 69
72 82 80
87 96 99
54 64 57
72 83 78
75 86 82
92 102 103
80 90 89
80 90 91
64 74 70
37 52 29
36 51 28
43 59 34
36 50 28
43 57 38
38 52 29
35 47 27
30 43 23
49 63 45
37 52 28
44 62 34
36 51 28
38 52 30
47 64 37
38 53 29
69 82 71
80 90 88
79 89 88
93 105 104
82 93 90
81 92 90
87 98 94
87 98 96
76 87 85
92 103 103
82 94 90
78 90 83
82 91 92
92 104 102
105 117 117
47 62 43
48 66 38
44 62 35
44 60 34
46 62 36
40 55 31
47 64 36
41 58 32
40 56 29
41 58 32
46 63 36
47 64 37
44 61 35
69 85 66
103 115 115
86 101 93
104 117 115
92 105 99
96 109 108
104 117 117
100 113 111
99 110 111
104 115 116
89 102 97
102 113 112
85 97 90
96 110 103
95 109 102
74 90 76
102 116 111
106 120 120
96 109 105
115 128 132
93 107 102
119 133 137
115 129 130
119 132 134
108 123 119
79 95 80
55 75 43
48 67 38
56 77 44
58 79 45
62 82 55
80 98 83
89 105 94
105 120 117
103 119 113
91 108 97
61 83 48
60 82 48
59 80 47
59 81 47
85 103 86
80 100 77
105 122 113
107 123 117
125 141 140
124 139 138
105 122 113
140 156 153
173 186 193
199 212 224
225 237 253
226 238 254
226 238 254
226 238 254
226 238 254
226 238 254
226 238 254
226 238 254
226 238 254
226 238 254
226 238 254
226 238 254
226 238 254
226 238 254
226 238 254
226 238 254
226 238 254
226 238 254
226 238 254
226 238 254
226 238 254
226 238 254
226 238 254
226 238 254
226 238 254
226 238 254
226 238 254
226 238 254
226 238 254
226 238 254
226 238 254
226 238 254
226 238 254
226 238 254
226 238 254
226 238 254
226 238 254
226 238 254
226 238 254
226 238 254
226 238 254
226 238 254
226 238 254
226 238 254
226 238 254
226 238 254
226 238 254
226 238 254
226 238 254
226 238 254
226 238 254
226 238 254
226 238 254
226 238 254
226 238 254
226 238 254
226 238 254
226 238 254
226 238 254
226 238 254
226 238 254
226 238 254
226 238 254
226 238 254
226 238 254
226 238 254
226 238 254
226 238 254
226 238 254
226 238 254
226 238 254
226 238 254
226 238 254
226 238 254
226 238 254
226 238 254
226 238 254
226 238 254
226 238 254
226 238 254
226 238 254
226 238 254
226 238 254
226 238 254
226 238 254
226 238 254
226 238 254
226 238 254
226 238 254
226 238 254
226 238 254
226 238 254
226 238 254
226 238 254
226 238 254
226 238 254
226 238 254
226 238 254
226 238 254
226 238 254
226 238 254
226 238 254
226 238 254
226 238 254
226 238 254
226 238 254
226 238 254
226 238 254
226 238 254
226 238 254
226 238 254
226 238 254
226 238 254
226 238 254
226 238 254
226 238 254
226 238 254
226 238 254
226 238 254
226 238 254
226 238 254
226 238 254
226 238 254
226 238 254
226 238 254
226 238 254
226 238 254
226 238 254
226 238 254
226 238 254
226 238 254
226 238 254
226 238 254
226 238 254
226 238 254
226 238 254
226 238 254
226 238 254
226 238 254
226 238 254
226 238 254
226 238 254
226 238 254
226 238 254
226 238 254
226 238 254
226 238 254
226 238 254
221 233 248
207 219 233
157 170 174
122 140 131
111 127 119
133 148 148
113 130 125
87 105 89
61 84 48
62 85 50
68 89 62
93 111 98
79 97 78
61 82 51
62 85 50
59 82 47
60 82 48
73 92 69
94 111 98
112 128 126
83 101 86
52 73 41
63 85 50
49 68 38
52 71 40
56 78 45
54 75 42
67 86 63
86 101 92
96 111 103
114 128 126
116 130 132
117 131 132
98 112 109
108 122 118
111 127 124
105 119 116
92 106 101
50 70 39
44 62 34
54 72 46
64 80 62
86 102 91
96 108 105
112 126 124
117 130 132
112 125 126
108 120 120
97 110 107
91 104 99
102 116 114
96 109 107
98 111 109
86 101 93
102 114 114
77 91 83
48 65 38
39 55 30
49 66 42
69 83 70
71 82 75
74 88 79
86 98 94
112 125 124
103 115 116
93 105 104
87 99 98
72 83 75
96 109 108
72 85 76
79 91 87
106 117 120
79 90 85
66 78 70
35 49 27
34 49 26
44 60 35
34 48 25
43 59 33
43 59 34
52 71 42
39 55 31
41 56 32
42 59 33
49 65 42
41 56 37
62 74 66
72 83 79
69 79 73
88 99 100
76 87 83
66 80 67
44 61 35
37 53 28
34 47 26
37 52 29
38 53 30
37 51 28
33 47 26
41 56 32
37 51 28
41 57 33
37 53 29
35 50 27
38 54 29
39 54 30
42 58 32
41 56 32
50 63 48
82 93 91
72 83 80
70 80 79
77 88 87
86 95 96
72 83 78
61 72 62
71 81 77
68 79 72
68 80 73
69 80 76
76 87 85
85 95 94
62 71 69
71 83 77
78 88 87
75 85 82
33 44 31
35 50 26
38 53 30
34 47 26
37 51 29
41 55 37
39 51 35
45 58 42
61 73 63
39 50 34
68 80 73
52 64 50
60 71 63
63 74 68
73 85 78
68 79 74
67 76 72
54 65 54
52 65 51
49 60 49
55 68 55
52 63 53
33 48 25
41 55 37
48 64 41
51 66 47
39 52 34
40 53 36
38 53 29
41 56 32
36 51 27
44 60 34
39 55 30
46 56 46
85 97 92
84 97 91
75 87 82
70 81 75
84 94 95
74 83 80
74 85 81
93 105 102
74 83 83
77 87 86
84 95 94
88 101 97
89 101 98
93 106 101
75 86 83
51 64 50
46 59 43
55 70 53
51 62 52
52 65 50
67 79 70
55 66 57
59 71 59
66 79 69
69 84 71
78 91 85
63 77 63
60 73 60
87 98 94
67 80 68
55 68 55
61 77 58
52 68 48
44 60 34
40 55 30
40 55 31
46 64 36
44 61 34
51 70 40
45 62 35
48 66 38
52 71 41
50 68 39
47 65 37
104 118 117
97 109 106
102 115 113
103 117 113
92 107 99
106 120 117
104 117 116
96 110 104
118 131 130
109 123 123
100 114 112
91 106 100
93 106 101
66 80 67
54 75 43
53 73 43
57 78 46
54 73 47
60 76 55
85 99 90
90 104 98
104 118 114
116 131 129
123 138 141
106 122 117
60 79 55
49 68 39
61 82 48
62 85 51
53 72 41
51 70 40
60 82 48
54 75 43
66 86 60
65 85 57
89 104 92
89 109 92
80 97 79
64 87 52
57 78 46
78 97 74
105 121 117
119 134 134
130 146 146
121 137 135
120 137 136
131 146 147
122 137 134
135 150 153
167 181 187
200 212 226
223 235 251
226 238 254
226 238 254
226 238 254
226 238 254
226 238 254
226 238 254
226 238 254
226 238 254
226 238 254
226 238 254
226 238 254
226 238 254
226 238 254
226 238 254
226 238 254
226 238 254
226 238 254
226 238 254
226 238 254
226 238 254
226 238 254
226 238 254
226 238 254
226 238 254
226 238 254
226 238 254
226 238 254
226 238 254
226 238 254
226 238 254
226 238 254
226 238 254
226 238 254
226 238 254
226 238 254
226 238 254
226 238 254
226 238 254
226 238 254
226 238 254
226 238 254
226 238 254
226 238 254
226 238 254
226 238 254
226 238 254
226 238 254
226 238 254
226 238 254
226 238 254
226 238 254
226 238 254
226 238 254
226 238 254
226 238 254
226 238 254
226 238 254
226 238 254
226 238 254
226 238 254
226 238 254
226 238 254
226 238 254
226 238 254
226 238 254
226 238 254
226 238 254
226 238 254
226 238 254
226 238 254
226 238 254
226 238 254
226 238 254
226 238 254
226 238 254
226 238 254
226 238 254
226 238 254
226 238 254
226 238 254
226 238 254
226 238 254
226 238 254
226 238 254
226 238 254
226 238 254
226 238 254
226 238 254
226 238 254
226 238 254
226 238 254
226 238 254
226 238 254
226 238 254
226 238 254
226 238 254
226 238 254
226 238 254
226 238 254
226 238 254
226 238 254
226 238 254
226 238 254
226 238 254
226 238 254
226 238 254
226 238 254
226 238 254
226 238 254
226 238 254
226 238 254
226 238 254
226 238 254
226 238 254
226 238 254
226 238 254
226 238 254
226 238 254
226 238 254
226 238 254
226 238 254
226 238 254
226 238 254
226 238 254
226 238 254
226 238 254
226 238 254
226 238 254
226 238 254
226 238 254
226 238 254
226 238 254
226 238 254
226 238 254
226 238 254
226 238 254
226 238 254
226 238 254
226 238 254
226 238 254
226 238 254
222 233 249
193 206 218
153 167 170
103 122 106
74 94 69
94 112 97
106 123 115
80 101 78
57 79 45
67 88 58
85 103 87
95 111 101
98 114 106
61 84 49
64 88 52
62 83 49
66 85 63
89 106 90
114 130 126
123 139 137
119 134 135
122 137 139
115 129 129
117 132 132
64 86 50
55 77 42
69 88 68
79 95 80
97 115 104
126 140 142
121 134 137
114 129 129
118 132 134
111 126 122
114 130 128
117 130 129
106 120 118
101 116 109
120 134 136
99 113 108
89 104 96
86 101 94
113 126 125
106 120 117
109 123 122
113 126 128
101 114 111
97 110 110
122 135 139
104 117 117
104 115 115
107 120 121
101 113 112
107 120 118
112 126 126
111 125 125
99 113 111
98 110 109
77 91 80
84 99 88
93 106 103
89 101 96
92 105 102
83 97 92
89 102 97
96 108 106
95 106 106
86 98 92
97 108 110
86 99 95
101 113 111
87 101 93
89 101 98
84 95 91
96 106 107
90 102 101
90 104 99
47 63 41
36 51 28
42 58 33
38 54 29
52 68 46
65 78 65
73 86 78
74 87 76
82 93 88
83 95 90
69 80 74
90 102 99
97 108 109
91 104 101
85 98 91
88 98 98
77 89 84
80 92 85
41 56 32
39 55 30
40 55 32
38 52 29
44 60 34
40 55 31
40 55 32
43 58 33
46 62 36
43 59 35
44 59 34
37 53 29
40 54 30
44 59 34
39 55 30
43 60 34
40 55 31
81 93 88
75 85 83
81 90 91
75 84 85
91 102 100
86 96 97
84 94 95
87 99 96
70 83 76
82 93 91
83 94 91
57 67 63
80 92 85
68 79 73
64 76 67
59 71 62
54 68 52
64 76 66
63 74 67
67 79 72
79 89 87
77 88 84
99 110 111
84 94 95
76 88 81
86 97 96
65 78 69
79 91 85
85 96 95
70 81 77
69 79 74
91 101 103
95 106 106
59 70 64
66 77 71
47 62 41
33 46 24
39 54 31
38 52 29
45 61 35
45 61 35
35 49 27
40 55 30
45 61 35
42 58 32
42 58 33
45 63 36
40 55 31
39 54 31
37 52 28
34 48 25
68 80 72
94 106 106
94 105 105
82 95 87
78 89 86
90 103 97
101 112 113
81 93 90
68 80 72
71 82 79
78 92 82
85 97 93
74 86 78
88 100 98
75 88 81
82 92 92
56 71 53
41 58 32
40 56 30
38 54 28
47 66 37
41 58 32
44 62 35
46 64 36
46 63 36
43 60 34
40 55 31
52 71 41
42 59 33
47 65 37
47 63 42
81 94 87
90 102 97
96 109 107
87 100 95
96 109 104
79 91 87
83 96 87
97 110 107
90 103 99
67 82 71
68 83 68
63 80 61
61 75 63
61 78 55
80 94 85
99 113 112
108 122 122
108 122 119
90 105 97
93 106 101
106 119 119
120 132 136
109 123 124
89 102 97
112 126 124
102 117 110
107 120 118
78 93 82
53 74 42
53 73 42
55 75 43
51 70 40
46 64 35
48 67 36
55 75 44
58 78 46
58 77 49
75 93 74
86 103 87
58 78 51
83 100 88
79 98 79
63 84 56
52 71 40
63 85 50
60 83 49
60 82 48
58 79 46
59 81 48
97 113 106
125 139 139
126 141 143
103 118 112
96 112 104
93 110 96
107 123 118
126 141 142
115 131 129
95 112 102
80 102 75
92 110 97
110 127 121
123 139 136
132 147 150
132 148 148
161 176 181
200 213 225
221 232 248
226 238 254
226 238 254
226 238 254
226 238 254
226 238 254
226 238 254
226 238 254
226 238 254
226 238 254
226 238 254
226 238 254
226 238 254
226 238 254
226 238 254
226 238 254
226 238 254
226 238 254
226 238 254
226 238 254
226 238 254
226 238 254
226 238 254
226 238 254
226 238 254
226 238 254
226 238 254
226 238 254
226 238 254
226 238 254
226 238 254
226 238 254
226 238 254
226 238 254
226 238 254
226 238 254
226 238 254
226 238 254
226 238 254
226 238 254
226 238 254
226 238 254
226 238 254
226 238 254
226 238 254
226 238 254
226 238 254
226 238 254
226 238 254
226 238 254
226 238 254
226 238 254
226 238 254
226 238 254
226 238 254
226 238 254
226 238 254
226 238 254
226 238 254
226 238 254
226 238 254
226 238 254
226 238 254
226 238 254
226 238 254
226 238 254
226 238 254
226 238 254
226 238 254
226 238 254
226 238 254
226 238 254
226 238 254
226 238 254
226 238 254
226 238 254
226 238 254
226 238 254
226 238 254
226 238 254
226 238 254
226 238 254
226 238 254
226 238 254
226 238 254
226 238 254
226 238 254
226 238 254
226 238 254
226 238 254
226 238 254
226 238 254
226 238 254
226 238 254
226 238 254
226 238 254
226 238 254
226 238 254
226 238 254
226 238 254
226 238 254
226 238 254
226 238 254
226 238 254
226 238 254
226 238 254
226 238 254
226 238 254
226 238 254
226 238 254
226 238 254
226 238 254
226 238 254
226 238 254
226 238 254
226 238 254
226 238 254
226 238 254
226 238 254
226 238 254
226 238 254
226 238 254
226 238 254
226 238 254
226 238 254
226 238 254
226 238 254
226 238 254
226 238 254
226 238 254
226 238 254
226 238 254
226 238 254
226 238 254
226 238 254
226 238 254
218 230 245
193 205 218
136 151 151
96 114 100
87 108 85
115 132 126
112 128 125
139 154 156
143 158 164
118 135 130
102 121 108
124 140 139
124 140 140
122 137 135
114 130 126
63 85 50
77 96 77
103 120 113
122 137 138
115 130 127
123 137 140
118 134 130
114 129 126
126 140 143
113 127 124
134 147 151
104 120 114
95 110 103
104 119 113
125 141 142
120 133 133
129 144 144
117 130 132
111 125 125
116 129 129
117 130 132
103 117 115
112 125 124
101 115 109
82 98 88
73 88 75
70 89 69
51 70 40
53 72 42
75 92 77
117 131 131
118 131 134
127 141 144
116 130 133
115 129 129
125 137 141
98 112 107
108 121 120
94 107 105
122 136 139
102 114 113
74 87 79
65 81 65
51 67 44
46 64 36
48 66 37
54 73 43
82 95 87
103 116 115
108 119 122
97 110 107
103 115 115
90 104 98
108 121 120
100 113 111
91 104 102
94 106 104
103 115 115
93 105 102
90 104 96
101 113 114
87 99 92
95 108 105
93 106 105
80 94 84
77 91 77
62 74 64
93 105 103
90 102 101
106 117 121
93 106 101
94 106 105
82 92 91
96 108 108
91 103 100
91 102 100
77 90 82
90 101 101
95 106 105
88 99 97
89 101 98
78 88 84
77 89 85
73 86 76
41 56 32
43 60 34
37 52 29
37 53 28
45 62 35
47 65 37
44 61 34
43 61 33
42 57 33
36 51 28
36 51 27
40 56 31
41 58 32
40 56 31
45 62 36
38 51 35
47 60 44
84 95 92
76 88 82
42 56 36
54 68 54
57 71 57
41 55 37
49 65 41
40 55 31
44 61 34
39 53 30
45 62 35
37 53 28
33 47 25
47 65 37
38 53 29
41 57 31
40 55 31
60 74 62
86 98 96
76 88 85
75 86 83
81 92 91
87 98 96
89 101 101
88 100 99
72 84 77
81 92 90
76 87 83
70 80 78
85 96 96
90 101 101
87 100 95
81 94 89
92 104 101
62 73 64
42 58 32
35 50 28
43 59 34
38 52 29
36 50 28
43 59 34
43 60 34
42 58 33
41 57 32
43 59 33
37 52 29
41 57 32
40 56 30
44 60 34
41 57 33
36 51 27
73 84 79
88 101 96
90 101 98
98 110 109
86 99 95
83 95 91
81 94 86
77 90 84
82 93 89
82 95 90
82 96 88
77 88 84
92 104 103
84 95 92
81 93 89
93 105 104
70 85 69
43 59 35
42 58 33
43 60 33
45 61 35
47 65 36
44 62 34
46 63 36
46 64 36
44 62 34
44 62 34
35 49 27
46 63 36
51 70 40
43 61 33
88 102 96
104 117 116
96 109 106
105 118 116
96 108 105
94 107 103
107 120 121
106 118 120
92 106 99
109 120 119
109 123 122
98 111 109
100 113 111
97 110 110
88 102 96
66 83 63
57 74 51
67 83 66
86 102 91
86 101 89
86 101 90
94 108 105
98 112 108
106 120 118
106 120 119
107 120 119
120 133 135
89 103 97
51 70 45
55 76 44
54 75 42
50 70 39
48 67 38
49 68 38
55 75 43
52 72 41
54 74 41
55 75 43
59 80 47
83 100 84
104 120 113
117 132 131
108 122 121
101 118 111
90 106 94
78 95 79
60 82 48
62 85 49
60 81 48
68 87 64
114 129 126
126 141 142
125 140 140
134 148 151
140 155 160
101 118 107
95 113 99
107 125 116
122 138 135
86 105 90
60 83 48
59 82 48
75 96 73
98 116 106
123 138 136
122 139 135
100 120 108
142 157 156
190 203 214
215 227 242
226 238 254
226 238 254
226 238 254
226 238 254
226 238 254
226 238 254
226 238 254
226 238 254
226 238 254
226 238 254
226 238 254
226 238 254
226 238 254
226 238 254
226 238 254
226 238 254
226 238 254
226 238 254
226 238 254
226 238 254
226 238 254
226 238 254
226 238 254
226 238 254
226 238 254
226 238 254
226 238 254
226 238 254
226 238 254
226 238 254
226 238 254
226 238 254
226 238 254
226 238 254
226 238 254
226 238 254
226 238 254
226 238 254
226 238 254
226 238 254
226 238 254
226 238 254
226 238 254
226 238 254
226 238 254
226 238 254
226 238 254
226 238 254
226 238 254
226 238 254
226 238 254
226 238 254
226 238 254
226 238 254
226 238 254
226 238 254
226 238 254
226 238 254
226 238 254
226 238 254
226 238 254
226 238 254
226 238 254
226 238 254
226 238 254
226 238 254
226 238 254
226 238 254
226 238 254
226 238 254
226 238 254
226 238 254
226 238 254
226 238 254
226 238 254
226 238 254
226 238 254
226 238 254
226 238 254
226 238 254
226 238 254
226 238 254
226 238 254
226 238 254
226 238 254
226 238 254
226 238 254
226 238 254
226 238 254
226 238 254
226 238 254
226 238 254
226 238 254
226 238 254
226 238 254
226 238 254
226 238 254
226 238 254
226 238 254
226 238 254
226 238 254
226 238 254
226 238 254
226 238 254
226 238 254
226 238 254
226 238 254
226 238 254
226 238 254
226 238 254
226 238 254
226 238 254
226 238 254
226 238 254
227 238 254
227 238 254
227 238 254
227 238 254
227 238 254
227 238 254
227 238 254
227 238 254
227 238 254
227 238 254
227 238 254
227 238 254
227 238 254
227 238 254
227 238 254
215 227 241
191 204 214
134 150 147
92 112 95
87 106 86
101 119 105
117 133 130
148 163 171
129 144 146
128 144 146
89 107 89
74 95 66
58 80 47
104 121 112
134 150 155
121 137 134
116 133 129
114 129 129
114 131 125
126 140 143
135 148 154
116 132 131
120 135 135
124 139 139
122 136 135
103 118 112
103 119 111
76 94 75
55 76 44
56 78 45
88 105 91
125 139 141
124 138 138
129 142 147
124 137 140
109 125 123
113 128 125
108 122 123
99 115 108
79 96 78
62 81 54
62 84 50
44 62 33
49 69 39
52 71 41
50 69 39
47 66 37
55 75 44
111 124 122
92 107 99
119 132 135
103 116 116
116 129 130
100 114 110
87 101 95
77 93 80
69 86 68
52 70 44
49 69 39
48 66 38
53 73 42
52 72 42
47 65 37
45 63 35
48 66 38
56 75 46
114 127 126
103 117 116
107 120 120
104 117 117
96 109 105
94 107 104
90 102 100
104 117 116
111 124 126
103 117 114
83 97 90
76 90 83
62 77 62
64 80 63
47 63 40
47 65 37
42 59 34
46 64 35
102 114 113
97 109 107
81 96 86
90 101 99
93 105 105
88 100 98
80 94 85
99 111 111
88 101 96
96 106 107
105 119 119
105 117 117
89 101 97
90 103 100
92 104 105
90 101 100
97 109 107
87 100 96
52 67 46
42 58 33
48 66 37
41 58 32
44 61 35
49 66 39
45 60 39
59 73 57
68 81 71
65 78 66
82 95 89
73 84 78
68 78 70
86 97 97
87 98 96
76 89 80
88 100 96
83 94 91
44 61 35
39 54 31
43 59 34
33 47 25
43 59 34
34 49 27
42 58 34
38 54 30
40 56 31
41 57 33
40 56 31
40 56 31
41 57 32
39 54 31
44 60 34
31 46 24
43 59 34
69 82 72
97 107 108
94 106 104
88 100 96
87 100 95
93 103 104
91 103 100
75 87 83
93 106 105
83 94 94
68 81 72
74 86 78
97 109 108
79 90 85
87 100 97
86 98 95
88 100 96
63 74 67
46 64 37
48 65 37
41 56 32
44 61 34
49 66 38
40 55 31
43 59 33
48 65 38
45 63 35
37 53 29
37 52 28
38 54 30
48 66 39
47 64 37
45 62 36
38 53 29
84 95 91
89 101 98
83 94 93
91 103 99
90 102 99
89 100 99
76 87 83
100 113 113
82 94 90
69 81 74
96 109 106
96 108 105
95 108 103
100 112 111
96 108 106
84 96 93
60 74 59
48 66 38
44 62 34
49 66 38
45 62 36
45 62 36
44 61 34
44 62 35
40 57 31
45 63 35
51 69 40
52 71 41
53 72 42
44 62 35
44 62 34
87 100 92
122 134 139
98 111 111
89 104 97
101 113 113
107 119 122
91 106 99
97 109 107
107 120 117
106 118 116
109 121 123
104 117 116
108 120 123
101 114 113
78 94 80
51 70 40
50 68 40
51 70 40
52 71 41
53 72 42
56 76 45
51 70 40
55 76 43
61 80 56
89 105 96
81 97 86
82 100 85
89 105 92
72 90 68
52 70 45
56 76 47
57 79 45
50 70 38
52 72 42
59 81 47
55 74 43
57 78 46
50 70 39
59 80 47
61 80 54
115 130 129
124 139 140
119 132 134
121 135 134
130 145 148
134 147 151
127 142 144
106 121 118
91 108 95
89 106 93
84 102 85
118 133 132
124 139 140
132 147 153
131 147 148
58 81 47
60 83 49
62 85 49
75 94 70
73 93 66
78 97 79
91 112 88
60 82 47
67 91 55
69 93 59
89 108 89
76 97 74
74 98 64
85 106 83
125 141 137
176 189 197
218 230 246
227 238 254
227 238 254
227 238 254
227 238 254
227 238 254
227 238 254
227 238 254
227 238 254
227 238 254
227 238 254
227 238 254
227 238 254
227 238 254
227 238 254
227 238 254
227 238 254
226 238 254
226 238 254
226 238 254
226 238 254
226 238 254
226 238 254
226 238 254
226 238 254
226 238 254
226 238 254
226 238 254
226 238 254
226 238 254
226 238 254
226 238 254
226 238 254
226 238 254
226 238 254
226 238 254
226 238 254
226 238 254
226 238 254
226 238 254
226 238 254
226 238 254
226 238 254
226 238 254
226 238 254
226 238 254
226 238 254
226 238 254
226 238 254
226 238 254
226 238 254
226 238 254
226 238 254
226 238 254
226 238 254
226 238 254
226 238 254
226 238 254
226 238 254
226 238 254
226 238 254
226 238 254
226 238 254
226 238 254
226 238 254
226 238 254
226 238 254
226 238 254
226 238 254
226 238 254
226 238 254
226 238 254
226 238 254
226 238 254
226 238 254
226 238 254
226 238 254
226 238 254
226 238 254
226 238 254
226 238 254
226 238 254
226 238 254
226 238 254
226 238 254
226 238 254
226 238 254
226 238 254
226 238 254
227 238 254
227 238 254
227 238 254
227 238 254
227 238 254
227 238 254
227 238 254
227 238 254
227 238 254
227 238 254
227 238 254
227 238 254
227 238 254
227 238 254
227 238 254
227 238 254
227 238 254
227 238 254
227 238 254
227 238 254
227 238 254
227 238 254
227 238 254
227 238 254
227 238 254
227 238 254
227 238 254
227 238 254
227 238 254
227 238 254
227 238 254
227 238 254
227 238 254
227 238 254
227 238 254
217 229 245
196 209 221
150 164 166
93 112 94
94 113 98
110 127 121
133 150 152
136 150 153
140 157 161
127 143 142
93 112 95
71 96 61
62 85 50
69 94 56
60 82 47
77 98 74
108 124 118
94 114 96
66 89 53
73 93 69
132 146 150
129 144 144
132 146 150
130 143 147
116 131 131
100 118 107
83 100 84
64 87 51
58 79 46
56 78 44
62 84 50
52 73 42
56 77 45
77 94 78
112 126 126
122 138 139
118 133 134
101 117 110
89 105 95
57 78 45
59 80 46
53 74 42
58 79 47
55 76 44
57 78 45
57 78 45
56 76 44
53 73 42
54 74 43
54 74 43
51 71 40
79 92 81
96 110 104
89 104 94
74 89 75
58 77 49
46 65 36
51 70 40
50 69 39
53 73 42
48 66 37
42 58 33
57 78 46
48 67 38
46 64 36
42 59 33
50 69 40
53 72 42
46 64 36
84 98 90
105 117 117
100 113 110
107 121 117
107 121 118
97 110 108
78 93 83
74 87 77
62 77 60
48 66 38
47 65 36
45 64 36
43 59 33
53 72 42
37 53 28
46 65 36
48 65 38
42 58 32
61 76 61
97 109 109
95 106 106
89 101 96
99 111 111
93 106 102
98 111 111
98 111 107
99 112 109
87 100 96
98 111 109
95 108 106
98 111 108
83 96 89
108 120 120
103 115 115
98 111 109
88 99 98
60 73 61
76 90 77
71 82 76
86 98 93
88 100 95
72 85 79
88 101 94
74 87 78
92 103 103
92 103 102
94 107 104
95 108 106
103 115 117
76 88 82
82 96 86
80 93 87
96 108 108
102 114 116
75 88 79
46 63 36
45 62 35
43 62 33
39 55 30
38 52 30
36 50 28
39 54 31
41 56 32
43 59 33
43 60 35
43 60 34
45 62 35
43 60 33
48 66 38
43 59 34
43 60 34
43 57 38
83 96 90
91 102 100
92 104 101
81 94 89
94 106 105
88 100 96
92 104 101
85 97 95
89 101 98
80 93 88
82 92 90
95 108 107
80 92 86
73 86 80
92 106 99
84 97 92
86 98 93
75 87 80
42 58 32
47 65 37
45 61 36
41 57 32
44 61 34
45 63 35
41 59 30
44 61 35
40 55 32
42 58 33
40 57 31
48 66 37
42 59 32
46 64 35
47 65 37
53 67 48
75 88 81
94 105 104
88 100 95
103 115 117
96 109 106
91 103 100
86 99 92
98 109 109
81 91 90
100 113 110
101 113 111
88 100 97
98 110 107
98 109 108
99 111 111
95 109 104
48 64 41
47 64 37
48 66 37
51 69 40
44 60 33
48 67 38
48 67 38
46 63 35
56 76 45
53 71 42
51 70 41
47 64 36
50 69 39
49 69 38
43 58 37
92 106 99
101 115 115
103 114 116
102 114 113
103 116 114
103 117 113
112 124 126
112 126 125
99 111 112
91 105 100
99 113 110
101 115 110
100 114 108
111 124 124
102 116 112
58 77 47
47 65 36
52 71 42
47 65 36
53 73 42
50 69 40
56 77 44
55 75 44
51 69 40
53 73 42
56 77 45
59 80 46
61 79 54
95 109 105
131 144 149
123 137 141
102 116 112
110 125 122
76 91 79
81 98 82
65 85 57
51 70 44
60 82 48
62 84 50
63 81 56
89 105 98
116 131 131
121 136 135
128 142 144
119 133 133
125 140 141
111 126 123
131 145 150
116 131 129
127 142 147
118 134 132
103 119 111
106 122 117
118 133 130
79 99 76
61 83 48
60 82 48
61 84 48
65 89 53
71 94 59
110 127 119
137 153 157
111 127 122
100 119 107
72 92 68
62 86 50
68 92 57
103 122 110
105 124 112
111 130 123
86 107 86
113 129 119
160 174 174
212 224 238
227 238 254
227 238 254
227 238 254
227 238 254
227 238 254
227 238 254
227 238 254
227 238 254
227 238 254
227 238 254
227 238 254
227 238 254
227 238 254
227 238 254
227 238 254
227 238 254
227 238 254
227 238 254
227 238 254
227 238 254
227 238 254
227 238 254
227 238 254
227 238 254
227 238 254
227 238 254
227 238 254
227 238 254
227 238 254
227 238 254
227 238 254
227 238 254
227 238 254
227 238 254
227 238 254
226 238 254
226 238 254
226 238 254
226 238 254
226 238 254
226 238 254
226 238 254
226 238 254
226 238 254
226 238 254
226 238 254
226 238 254
226 238 254
226 238 254
226 238 254
226 238 254
226 238 254
226 238 254
226 238 254
226 238 254
226 238 254
226 238 254
226 238 254
226 238 254
226 238 254
226 238 254
226 238 254
226 238 254
227 238 254
227 238 254
227 238 254
227 238 254
227 238 254
227 238 254
227 238 254
227 238 254
227 238 254
227 238 254
227 238 254
227 238 254
227 238 254
227 238 254
227 238 254
227 238 254
227 238 254
227 238 254
227 238 254
227 238 254
227 238 254
227 238 254
227 238 254
227 238 254
227 238 254
227 238 254
227 238 254
227 238 254
227 238 254
227 238 254
227 238 254
227 238 254
227 238 254
227 238 254
227 238 254
227 238 254
227 238 254
227 238 254
227 238 254
227 238 254
227 238 254
227 238 254
227 238 254
227 238 254
227 238 254
227 238 254
227 238 254
227 238 254
227 238 254
227 238 254
227 238 254
227 238 254
227 238 254
227 238 254
216 228 242
174 188 193
139 154 154
106 124 117
85 109 81
109 127 119
141 157 162
147 163 169
130 146 147
122 141 138
87 106 89
65 88 55
64 87 51
64 87 50
72 93 65
86 103 92
113 129 125
120 135 134
142 157 162
131 146 149
62 85 51
58 80 46
111 129 118
120 136 136
98 114 106
91 108 97
69 89 63
55 77 43
56 77 44
61 84 48
60 82 48
62 84 49
55 77 43
57 78 46
65 88 52
62 83 53
84 102 89
80 97 84
52 69 47
47 67 36
52 72 41
54 75 43
57 78 45
53 74 42
52 72 41
59 80 47
52 72 41
59 81 48
57 77 45
53 74 42
65 84 55
75 92 78
86 101 94
109 122 121
106 120 118
63 84 53
54 74 43
56 76 44
52 72 41
54 75 42
58 80 46
50 70 40
54 75 42
53 72 42
50 69 40
54 74 43
52 71 41
45 64 35
53 73 42
53 73 42
50 68 39
51 68 43
101 116 107
62 77 63
52 69 47
52 71 42
54 73 43
53 73 42
53 73 42
46 65 36
54 73 43
41 59 32
52 70 41
44 61 35
58 78 46
50 68 39
42 59 32
47 65 37
51 70 41
51 69 40
46 64 36
98 112 108
97 110 110
112 124 124
108 121 120
104 116 118
86 98 96
100 113 113
97 110 107
110 123 125
91 103 98
85 97 92
72 86 76
86 101 93
54 69 52
56 74 51
42 59 32
50 68 40
40 56 31
90 103 96
93 106 101
84 95 93
103 116 114
103 114 117
95 107 106
99 111 111
84 97 91
101 115 110
81 94 86
82 94 91
97 109 107
92 104 102
96 108 108
94 107 109
75 87 79
84 97 92
96 107 106
53 67 51
49 66 39
45 63 35
43 59 33
43 59 34
40 56 32
42 58 32
36 51 28
45 61 35
39 55 30
41 57 31
47 64 36
43 59 34
43 61 34
53 72 42
50 69 40
45 62 35
68 82 68
84 97 90
89 101 100
87 99 96
90 102 99
84 96 94
102 114 114
84 97 89
75 87 81
92 104 103
88 100 99
92 103 102
86 97 95
90 104 100
101 113 113
84 96 92
76 89 78
78 89 86
62 77 60
75 90 78
72 86 76
74 87 79
79 92 83
64 79 61
87 99 96
81 93 86
103 115 115
82 95 87
85 97 92
78 91 86
93 106 103
89 101 98
91 103 101
89 101 98
80 92 85
63 78 62
46 61 42
54 71 47
57 72 54
53 68 51
57 72 57
60 78 57
62 75 61
65 80 66
55 73 47
67 83 68
54 69 52
71 87 72
68 80 71
69 82 71
63 78 62
92 107 100
77 90 85
89 102 98
87 102 93
71 85 74
65 78 65
69 84 72
71 85 75
72 88 73
61 77 59
58 75 51
57 72 57
62 80 56
57 73 53
61 76 62
90 103 98
94 107 103
106 120 118
116 130 130
117 131 132
105 117 118
108 121 121
108 121 119
105 120 117
106 119 119
114 127 130
114 128 127
110 124 125
116 129 133
87 101 93
48 68 38
51 70 39
46 64 36
57 78 46
50 69 39
54 75 43
50 69 39
48 68 38
55 76 45
55 75 44
52 71 41
52 72 41
58 77 50
107 122 117
120 135 133
116 130 130
128 142 142
115 129 131
117 131 132
107 121 119
119 133 134
106 122 117
115 132 126
99 116 106
85 102 89
96 111 104
134 149 153
124 139 142
117 134 133
127 142 145
144 157 163
132 147 149
125 140 141
115 130 128
112 127 125
142 156 162
97 114 103
61 82 52
122 138 137
122 137 136
117 133 131
95 113 98
82 101 84
61 83 49
63 86 50
83 103 83
129 145 146
147 162 168
139 155 158
133 148 151
116 134 128
99 117 109
80 104 74
87 107 89
143 159 164
132 149 151
101 119 108
93 114 95
136 153 148
186 199 208
211 223 236
227 238 254
227 238 254
227 238 254
227 238 254
227 238 254
227 238 254
227 238 254
227 238 254
227 238 254
227 238 254
227 238 254
227 238 254
227 238 254
227 238 254
227 238 254
227 238 254
227 238 254
227 238 254
227 238 254
227 238 254
227 238 254
227 238 254
227 238 254
227 238 254
227 238 254
227 238 254
227 238 254
227 238 254
227 238 254
227 238 254
227 238 254
227 238 254
227 238 254
227 238 254
227 238 254
227 238 254
227 238 254
227 238 254
227 238 254
227 238 254
227 238 254
227 238 254
227 238 254
227 238 254
227 238 254
227 238 254
227 238 254
227 238 254
227 238 254
227 238 254
227 238 254
227 238 254
227 238 254
226 238 254
226 238 254
226 238 254
226 238 254
227 238 254
227 238 254
227 238 254
227 238 254
227 238 254
227 238 254
227 238 254
227 238 254
227 238 254
227 238 254
227 238 254
227 238 254
227 238 254
227 238 254
227 238 254
227 238 254
227 238 254
227 238 254
227 238 254
227 238 254
227 238 254
227 238 254
227 238 254
227 238 254
227 238 254
227 238 254
227 238 254
227 238 254
227 238 254
227 238 254
227 238 254
227 238 254
227 238 254
227 238 254
227 238 254
227 238 254
227 238 254
227 238 254
227 238 254
227 238 254
227 238 254
227 238 254
227 238 254
227 238 254
227 238 254
227 238 254
227 238 254
227 238 254
227 238 254
227 238 254
227 238 254
227 238 254
227 238 254
227 238 254
216 228 242
185 197 205
149 163 166
132 149 147
131 148 151
106 125 112
107 127 115
150 166 174
137 154 157
116 133 126
78 98 74
68 92 54
69 94 56
60 83 48
64 86 54
98 116 105
119 137 134
125 140 141
130 144 146
118 134 133
127 142 145
131 145 146
141 155 158
81 99 81
99 116 104
118 132 130
65 85 56
58 80 47
65 88 53
58 80 45
56 78 44
53 74 41
58 79 46
59 81 47
74 94 67
81 98 81
104 120 111
103 119 113
109 124 122
114 128 126
107 123 117
60 82 48
53 74 42
50 69 40
59 81 47
52 72 41
54 75 43
58 78 45
58 81 47
52 72 40
69 87 68
89 106 93
117 132 132
111 125 123
115 128 130
124 139 140
117 129 131
117 131 130
69 87 66
53 73 42
49 68 38
51 71 40
56 77 45
55 75 43
51 71 41
51 71 41
50 69 39
52 72 41
49 68 39
62 78 60
75 93 76
76 92 78
98 112 106
107 120 119
111 126 123
117 130 132
74 89 77
51 71 41
59 79 46
47 66 37
50 68 38
48 66 37
45 64 34
51 71 40
48 67 37
46 63 36
48 67 38
45 63 35
42 59 32
45 63 36
49 68 39
45 62 34
48 66 38
48 66 38
73 88 76
102 115 115
97 109 109
96 107 106
95 107 104
85 100 90
83 96 89
67 84 65
45 62 35
50 69 40
44 62 35
41 57 32
44 61 33
40 56 31
46 63 36
48 65 37
46 64 36
51 70 40
66 80 69
94 106 104
95 107 105
110 123 122
109 121 123
85 96 94
110 122 124
99 111 111
101 113 113
91 105 98
102 116 113
78 91 84
86 98 94
101 113 115
99 111 111
72 87 76
90 102 98
92 104 101
96 109 106
45 63 36
37 53 29
41 57 32
50 69 40
47 64 38
44 61 35
44 61 34
45 63 36
47 64 37
50 69 40
45 62 35
42 59 33
51 67 43
50 65 44
46 62 40
63 77 64
71 86 74
77 91 79
62 77 59
61 76 56
71 84 73
59 71 62
73 87 76
66 82 65
52 67 47
44 61 35
40 54 36
46 63 36
45 63 35
44 61 35
45 61 35
46 64 37
45 63 35
43 61 33
52 70 44
89 103 97
95 106 106
99 112 108
98 110 111
115 127 131
95 107 106
93 105 100
96 109 106
82 95 90
88 101 96
97 109 106
88 103 98
102 114 113
91 103 100
95 109 105
94 108 105
78 91 83
45 63 36
48 67 39
41 58 32
51 70 40
51 69 40
46 63 36
52 72 40
47 65 37
50 68 39
50 69 39
45 61 35
50 69 40
44 62 34
51 71 40
49 67 39
71 85 76
103 114 116
111 123 122
97 110 106
107 120 120
94 107 103
110 125 123
106 120 117
104 116 118
99 112 112
100 112 110
113 125 127
100 114 111
111 123 125
95 108 104
111 125 126
82 99 85
53 71 44
72 88 72
73 89 73
80 96 83
76 91 80
83 99 85
79 96 81
94 108 103
87 102 96
100 114 110
84 100 88
123 137 138
114 128 129
105 120 118
59 78 53
52 71 40
56 76 45
55 74 43
52 71 41
54 74 42
55 75 43
62 84 49
58 80 46
56 75 44
58 80 47
61 82 48
58 80 46
83 98 84
128 143 146
128 142 145
121 134 134
108 123 120
118 133 134
118 132 132
133 147 150
112 129 124
133 146 150
122 139 137
121 136 135
116 130 131
90 106 96
76 94 77
98 114 107
98 114 104
115 130 129
115 129 129
133 148 151
126 140 142
130 144 146
125 139 141
125 141 141
119 134 134
126 142 144
128 144 146
142 157 163
132 147 149
131 147 149
105 122 116
111 129 120
84 101 85
95 114 101
125 141 141
139 155 158
139 154 158
133 148 149
143 158 162
131 146 147
109 127 122
125 143 140
138 153 158
149 165 173
142 157 162
102 122 110
113 131 127
156 172 174
194 207 219
222 234 249
227 238 254
227 238 254
227 238 254
227 238 254
227 238 254
227 238 254
227 238 254
227 238 254
227 238 254
227 238 254
227 238 254
227 238 254
227 238 254
227 238 254
227 238 254
227 238 254
227 238 254
227 238 254
227 238 254
227 238 254
227 238 254
227 238 254
227 238 254
227 238 254
227 238 254
227 238 254
227 238 254
227 238 254
227 238 254
227 238 254
227 238 254
227 238 254
227 238 254
227 238 254
227 238 254
227 238 254
227 238 254
227 238 254
227 238 254
227 238 254
227 238 254
227 238 254
227 238 254
227 238 254
227 238 254
227 238 254
227 238 254
227 238 254
227 238 254
227 238 254
227 238 254
227 238 254
227 238 254
227 238 254
227 238 254
227 238 254
227 238 254
227 238 254
227 238 254
227 238 254
227 238 254
227 238 254
227 238 254
227 238 254
227 238 254
227 238 254
227 238 254
227 238 254
227 238 254
227 238 254
227 238 254
227 238 254
227 238 254
227 238 254
227 238 254
227 238 254
227 238 254
227 238 254
227 238 254
227 238 254
227 238 254
227 238 254
227 238 254
227 238 254
227 238 254
227 238 254
227 238 254
227 238 254
227 238 254
227 238 254
227 238 254
227 238 254
227 238 254
227 238 254
227 238 254
227 238 254
227 238 254
227 238 254
227 238 254
227 238 254
227 238 254
227 238 254
227 238 254
227 238 254
227 238 254
221 232 247
193 205 215
152 166 168
142 159 160
132 148 148
113 132 126
89 110 88
66 91 53
86 107 83
114 132 125
86 107 89
66 89 53
68 93 55
62 85 50
71 93 65
97 117 102
127 143 143
128 143 143
138 153 157
143 157 162
131 147 148
129 143 147
136 151 154
130 146 147
103 119 110
85 105 88
95 112 101
124 139 140
134 148 151
96 114 100
60 83 48
66 89 53
57 80 46
65 86 58
81 101 81
106 121 116
113 129 125
127 142 145
127 141 145
110 124 123
127 141 145
120 134 135
130 144 147
105 120 115
55 77 44
61 83 49
55 76 44
57 78 45
59 79 50
85 102 88
95 110 100
105 121 118
105 120 116
117 131 132
121 137 134
109 124 121
111 125 123
133 147 153
120 133 136
124 137 143
118 132 133
92 106 101
58 79 47
51 70 40
56 76 44
56 77 45
57 77 46
48 67 38
76 91 78
76 93 76
92 108 101
97 109 108
98 111 109
112 126 122
113 125 127
123 136 138
109 123 120
114 128 127
99 111 110
94 108 102
49 69 38
57 78 46
55 75 43
49 68 39
53 72 42
46 64 37
53 72 42
54 73 43
54 74 43
49 69 39
50 69 38
44 63 34
51 71 41
48 66 38
61 78 58
79 96 80
86 99 93
83 96 88
64 79 61
53 70 45
48 67 38
49 68 38
52 72 41
47 65 36
43 59 32
48 67 37
51 70 41
44 61 34
44 62 34
47 65 37
52 73 41
50 69 40
46 64 37
48 67 38
44 62 35
45 62 35
75 88 80
113 125 125
101 115 113
97 110 107
105 118 116
97 110 110
98 111 110
93 106 104
101 114 109
102 114 115
108 120 120
90 102 96
88 103 91
89 104 93
101 115 112
91 103 100
90 102 100
96 108 105
62 78 60
47 65 37
61 78 60
60 74 63
60 74 59
70 84 76
84 99 89
89 102 97
92 104 106
79 93 84
89 101 98
107 120 119
94 105 102
100 112 111
92 103 102
108 121 123
89 101 99
82 95 89
65 79 70
47 64 36
49 67 39
46 64 36
38 54 29
48 65 38
49 67 38
46 63 36
45 62 34
44 61 34
46 64 36
43 59 33
48 66 38
50 68 40
48 66 38
50 68 39
47 65 36
77 93 80
93 106 104
100 113 112
95 106 107
110 123 124
101 113 111
96 109 109
94 106 104
86 99 93
88 100 99
91 102 99
100 113 111
104 117 116
90 105 100
103 116 114
92 105 100
111 123 126
86 100 95
47 65 37
51 70 40
49 68 38
41 58 31
45 63 35
53 72 42
49 67 39
50 70 40
50 68 39
44 62 33
46 65 36
51 70 39
53 73 41
51 70 41
48 68 37
77 93 79
100 113 113
98 112 108
104 118 116
99 111 111
105 118 119
104 117 113
107 119 118
124 137 139
116 129 134
119 132 133
111 126 124
97 109 108
106 119 117
104 118 114
110 124 122
66 83 66
50 69 41
52 72 41
44 61 34
57 78 45
49 66 38
53 73 43
50 69 39
49 68 39
53 73 42
51 71 40
54 73 42
55 76 44
64 82 62
70 87 69
95 111 102
103 118 113
90 105 95
91 106 96
78 94 79
80 97 84
60 80 53
55 76 43
53 73 41
62 84 49
52 72 40
55 76 44
56 78 45
89 106 94
114 129 127
124 139 139
128 142 145
111 125 124
111 125 121
117 131 131
125 140 143
121 136 133
119 133 136
124 140 142
115 129 129
111 124 123
83 101 86
59 81 48
58 80 47
64 87 51
67 87 63
83 101 86
94 108 102
98 112 106
128 143 144
108 124 119
71 95 60
87 105 89
119 134 134
124 138 140
141 156 159
135 151 151
129 143 145
123 139 139
138 153 157
136 151 154
136 152 150
125 140 141
118 133 129
130 145 148
141 156 161
145 159 165
142 158 164
147 161 166
143 159 165
128 144 141
116 132 128
134 151 153
149 165 170
148 163 170
132 148 147
145 161 165
163 177 184
196 209 220
224 235 251
227 238 254
227 238 254
227 238 254
227 238 254
227 238 254
227 238 254
227 238 254
227 238 254
227 238 254
227 238 254
227 238 254
227 238 254
227 238 254
227 238 254
227 238 254
227 238 254
227 238 254
227 238 254
227 238 254
227 238 254
227 238 254
227 238 254
227 238 254
227 238 254
227 238 254
227 238 254
227 238 254
227 238 254
227 238 254
227 238 254
227 238 254
227 238 254
227 238 254
227 238 254
227 238 254
227 238 254
227 238 254
227 238 254
227 238 254
227 238 254
227 238 254
227 238 254
227 238 254
227 238 254
227 238 254
227 238 254
227 238 254
227 238 254
227 238 254
227 238 254
227 238 254
227 238 254
227 238 254
227 238 254
227 238 254
227 238 254
227 238 254
227 238 254
227 238 254
227 238 254
227 238 254
227 238 254
227 238 254
227 238 254
227 238 254
227 238 254
227 238 254
227 238 254
227 238 254
227 238 254
227 238 254
227 238 254
227 238 254
227 238 254
227 238 254
227 238 254
227 238 254
227 238 254
227 238 254
227 238 254
227 238 254
227 238 254
227 238 254
227 238 254
227 238 254
227 238 254
227 238 254
227 238 254
227 238 254
227 238 254
227 238 254
227 238 254
227 238 254
227 238 254
227 238 254
227 238 254
227 238 254
227 238 254
227 238 254
227 238 254
191 204 212
174 188 195
130 148 144
135 153 155
115 134 126
90 114 89
67 92 54
81 104 76
108 128 117
127 145 144
147 164 173
151 166 174
66 90 53
84 104 80
100 119 106
122 138 134
141 157 159
149 163 169
153 169 178
141 156 161
140 156 161
127 144 145
111 128 122
105 124 112
71 93 64
64 87 52
65 88 52
59 80 47
102 121 108
139 153 158
136 151 153
133 147 151
86 106 88
90 105 94
103 118 114
125 140 142
116 130 127
131 147 149
128 142 148
130 144 146
126 139 143
139 153 158
123 138 136
121 136 137
128 142 146
121 136 136
72 92 67
73 92 70
92 108 95
111 126 124
123 138 139
130 145 148
126 141 141
123 137 138
123 139 137
126 139 141
119 132 133
119 132 133
112 127 125
120 134 135
108 123 120
127 140 144
112 126 125
119 134 133
57 76 48
56 75 47
85 102 89
76 92 76
117 132 132
117 131 130
106 118 117
110 125 123
109 122 122
102 116 114
111 125 124
119 134 135
127 141 144
117 130 133
122 136 137
117 131 131
122 136 138
108 123 123
68 84 65
58 79 46
52 71 41
51 71 41
50 69 40
54 74 43
52 72 41
60 81 49
55 73 49
72 90 72
71 86 75
83 96 86
90 102 99
116 131 131
117 131 132
107 120 119
107 119 118
110 123 119
99 114 111
48 67 38
50 69 39
45 62 34
51 70 40
46 63 36
50 70 39
49 68 39
59 79 47
49 68 38
47 66 36
51 70 40
51 70 40
52 71 41
49 67 38
50 69 39
48 65 38
53 72 42
56 71 53
104 118 114
100 113 111
89 104 97
89 103 97
93 105 102
105 118 118
93 107 102
101 115 114
105 115 115
112 126 126
98 111 109
84 98 91
85 98 93
75 89 80
79 94 83
68 83 69
77 92 82
63 79 59
101 114 114
104 116 118
98 110 110
89 103 96
95 108 105
101 113 113
101 114 109
98 112 110
95 109 104
101 114 112
90 103 99
89 102 96
93 107 102
103 116 115
97 111 108
113 127 125
85 98 94
91 102 102
49 68 39
54 74 42
47 65 36
51 70 40
53 72 42
48 66 38
50 69 39
45 63 35
53 72 42
51 70 40
44 62 34
42 60 32
39 54 30
50 68 38
52 72 41
47 65 37
46 65 36
94 107 101
96 109 104
101 115 112
97 110 107
102 115 112
100 113 112
100 113 112
91 103 103
106 120 116
99 112 110
102 115 112
98 110 108
107 120 120
114 128 128
100 112 112
99 112 113
107 120 122
61 79 57
48 66 38
51 72 40
45 63 35
50 70 39
48 67 37
44 62 35
45 63 35
50 69 40
60 81 49
48 67 38
51 70 41
54 73 43
48 67 38
54 73 44
48 67 37
80 95 82
103 118 114
91 106 99
109 122 124
96 108 106
104 118 116
104 118 115
108 121 118
101 115 113
116 130 131
115 128 128
108 122 120
120 133 136
86 100 92
95 109 104
105 118 119
66 85 62
52 72 42
47 66 37
52 72 41
50 70 40
56 76 44
52 71 41
50 69 39
54 74 42
60 82 47
55 76 43
49 68 37
52 72 40
48 67 37
72 91 72
115 129 130
112 127 126
111 125 124
111 124 124
124 139 139
120 134 134
120 134 133
117 131 130
104 119 114
98 113 107
94 110 101
87 102 91
72 91 68
91 107 94
122 136 137
112 127 124
120 133 135
109 124 122
111 127 124
121 134 134
125 139 140
126 141 140
119 133 134
126 141 143
125 141 142
127 141 143
97 114 102
60 82 47
61 83 49
56 77 44
56 78 45
64 88 52
60 81 47
71 91 69
125 141 141
116 132 130
119 134 131
118 134 130
130 145 149
126 141 142
138 152 158
133 148 150
129 144 143
124 139 137
146 160 167
126 144 141
136 150 155
124 138 138
76 95 73
75 96 71
96 116 103
111 128 124
130 146 148
127 143 143
149 165 173
139 154 155
95 114 101
75 97 69
113 131 124
127 145 143
139 155 159
141 157 161
129 145 147
127 145 142
182 195 205
206 219 234
225 236 252
227 238 254
227 238 254
227 238 254
227 238 254
227 238 254
227 238 254
227 238 254
227 238 254
227 238 254
227 238 254
227 238 254
227 238 254
227 238 254
227 238 254
227 238 254
227 238 254
227 238 254
227 238 254
227 238 254
227 238 254
227 238 254
227 238 254
227 238 254
227 238 254
227 238 254
227 238 254
227 238 254
227 238 254
227 238 254
227 238 254
227 238 254
227 238 254
227 238 254
227 238 254
227 238 254
227 238 254
227 238 254
227 238 254
227 238 254
227 238 254
227 238 254
227 238 254
227 238 254
227 238 254
227 238 254
227 238 254
227 238 254
227 238 254
227 238 254
227 238 254
227 238 254
227 238 254
227 238 254
227 238 254
227 238 254
227 238 254
227 238 254
227 238 254
227 238 254
227 238 254
227 238 254
227 238 254
227 238 254
227 238 254
227 238 254
227 238 254
227 238 254
227 238 254
227 238 254
227 238 254
227 238 254
227 238 254
227 238 254
227 238 254
227 238 254
227 238 254
227 238 254
227 238 254
227 238 254
227 238 254
227 238 254
227 238 254
227 238 254
227 238 254
227 238 254
227 238 254
227 238 254
227 238 254
227 238 254
227 238 254
227 238 254
227 238 254
227 238 254
227 238 254
207 220 233
154 170 171
162 177 182
137 155 157
115 134 127
96 118 96
72 98 59
81 104 76
111 129 121
134 150 151
154 169 174
147 163 169
145 160 166
147 162 167
119 135 135
130 146 149
126 141 145
156 170 178
142 157 159
132 147 149
137 153 155
121 138 135
127 144 143
92 111 95
70 92 63
64 87 51
62 86 50
63 86 51
62 84 49
63 86 51
62 84 49
79 99 78
135 149 154
118 136 131
81 99 81
80 100 79
118 133 131
133 148 154
137 153 156
128 143 145
124 139 139
127 141 141
121 136 134
127 142 144
129 144 144
114 131 127
115 130 128
107 122 119
85 102 89
101 114 112
116 130 130
136 150 152
120 134 136
121 136 137
113 127 126
127 142 146
133 147 153
138 152 157
123 138 140
128 142 145
120 136 133
126 141 141
125 140 143
126 138 142
118 133 132
108 124 118
82 98 83
99 114 109
117 130 132
116 130 129
113 126 127
130 145 148
111 125 126
126 140 143
104 117 116
127 140 147
117 131 133
119 132 133
98 113 106
113 127 125
110 124 123
119 132 135
121 135 137
113 127 124
125 138 143
102 116 112
50 69 40
52 71 40
57 77 48
84 100 85
84 99 88
102 117 113
109 122 120
104 117 116
113 126 127
114 126 129
117 131 130
117 131 132
101 115 109
115 128 127
100 113 110
109 123 121
110 125 121
113 126 126
52 69 43
50 69 40
55 76 44
50 69 40
53 72 42
50 69 39
47 65 37
46 64 35
48 67 38
49 67 38
54 73 42
51 70 40
47 65 36
58 79 47
53 73 42
52 71 41
44 62 35
46 64 37
86 101 95
99 113 109
98 108 109
89 102 97
100 114 113
73 88 76
87 101 91
78 92 82
67 85 67
52 69 47
49 67 38
38 55 28
52 71 42
54 74 43
48 66 37
51 70 40
42 59 32
45 63 35
71 85 71
97 110 104
104 118 117
106 118 118
97 111 110
106 119 119
99 112 110
93 107 103
99 111 112
111 124 123
98 110 109
105 119 115
100 112 110
109 121 124
96 110 104
111 124 126
99 112 110
116 129 129
78 92 83
50 69 39
47 65 36
54 74 43
50 69 39
47 65 37
47 66 37
48 66 37
52 71 41
46 64 36
50 69 40
50 69 39
54 74 43
50 69 39
44 62 34
44 62 34
45 64 35
49 66 40
103 116 114
105 120 118
95 108 104
91 104 101
106 119 118
118 131 133
98 111 108
110 123 122
107 121 121
109 123 121
106 120 116
109 121 123
100 114 111
119 134 131
111 124 122
95 109 103
93 106 101
64 82 59
38 55 30
52 72 41
52 71 42
55 75 44
52 72 42
49 70 39
52 72 41
53 73 41
56 75 45
48 67 38
51 71 40
52 71 41
50 70 39
56 76 44
53 72 42
85 100 93
99 113 111
105 119 118
101 115 112
104 119 116
99 113 109
96 110 107
122 135 140
107 121 118
114 127 128
109 123 124
106 120 116
107 121 119
105 119 118
118 132 133
121 134 136
59 79 49
54 75 43
54 75 43
55 75 43
54 74 42
51 71 41
48 67 37
54 74 42
58 79 46
49 68 37
54 75 43
58 79 45
52 72 41
62 84 50
76 93 77
114 129 127
118 133 131
127 142 145
122 137 138
124 138 140
126 141 141
114 127 126
114 128 126
116 130 129
128 142 145
124 139 142
124 139 137
115 130 126
112 126 125
76 95 73
98 115 108
99 116 106
93 111 99
100 117 107
119 136 132
122 137 138
141 155 162
120 135 135
118 133 133
123 138 141
129 145 146
106 122 114
61 83 49
63 86 51
63 86 51
56 79 45
81 98 82
128 143 144
124 138 141
136 149 153
132 148 151
135 150 153
129 145 147
92 109 96
74 96 67
94 111 100
115 133 128
116 131 128
141 155 160
135 150 153
145 160 164
128 141 145
138 154 157
96 113 104
72 97 59
65 88 52
58 81 46
75 98 67
106 125 113
135 151 150
139 154 160
131 148 150
74 97 67
72 98 59
79 102 73
104 123 111
128 145 140
147 163 168
114 133 123
105 124 112
144 162 164
181 195 205
214 226 241
227 238 254
227 238 254
227 238 254
227 238 254
227 238 254
227 238 254
227 238 254
227 238 254
227 238 254
227 238 254
227 238 254
227 238 254
227 238 254
227 238 254
227 238 254
227 238 254
227 238 254
227 238 254
227 238 254
227 238 254
227 238 254
227 238 254
227 238 254
227 238 254
227 238 254
227 238 254
227 238 254
227 238 254
227 238 254
227 238 254
227 238 254
227 238 254
227 238 254
227 238 254
227 238 254
227 238 254
227 238 254
227 238 254
227 238 254
227 238 254
227 238 254
227 238 254
227 238 254
227 238 254
227 238 254
227 238 254
227 238 254
227 238 254
227 238 254
227 238 254
227 238 254
227 238 254
227 238 254
227 238 254
227 238 254
227 238 254
227 238 254
227 238 254
227 238 254
227 238 254
227 238 254
227 238 254
227 238 254
227 238 254
227 238 254
227 238 254
227 238 254
227 238 254
227 238 254
227 238 254
227 238 254
227 238 254
227 238 254
227 238 254
227 238 254
227 238 254
227 238 254
227 238 254
227 238 254
227 238 254
227 238 254
227 238 254
227 238 254
227 238 254
227 238 254
227 238 254
227 238 254
227 238 254
227 238 254
217 229 243
194 207 216
158 173 176
141 158 163
125 145 143
98 117 104
73 99 60
73 98 59
102 123 108
119 137 133
149 165 172
143 158 162
151 166 173
146 162 166
121 139 132
86 107 83
75 99 65
70 95 57
118 135 131
121 137 134
142 158 164
139 154 155
109 126 121
87 107 91
73 97 63
58 81 46
66 89 52
65 88 52
67 91 53
61 83 50
63 85 50
66 90 53
88 108 85
112 126 124
129 144 147
71 93 62
67 90 54
58 81 47
58 80 46
67 89 56
96 112 103
131 146 149
128 143 145
119 134 135
140 154 158
130 146 149
102 117 112
91 110 92
63 84 54
57 79 45
64 87 51
62 84 49
94 109 100
124 138 139
123 136 139
128 142 141
123 138 138
130 144 150
115 130 129
122 136 139
117 132 129
123 137 138
122 134 133
99 114 108
104 119 114
96 113 103
66 85 61
56 76 43
58 80 46
55 75 43
88 105 94
123 136 139
114 128 128
123 136 139
119 133 134
127 142 147
109 125 121
123 137 140
104 119 113
115 128 129
125 140 144
115 128 130
116 130 130
112 125 127
121 134 137
107 120 119
124 139 140
106 120 117
94 110 103
82 97 88
108 122 118
111 125 124
113 127 125
116 129 129
130 143 149
111 124 125
114 128 130
113 126 126
113 127 127
113 127 125
108 122 120
109 123 120
110 124 124
111 124 125
99 112 109
115 127 129
109 124 123
82 98 84
50 68 39
56 76 44
55 76 44
48 68 37
55 75 45
45 64 35
55 75 43
56 76 44
52 71 42
52 71 41
46 63 35
50 70 40
56 75 44
69 84 69
64 80 62
92 106 99
95 109 103
105 119 115
65 84 58
49 68 38
48 66 38
46 65 36
56 76 44
50 69 39
48 67 37
48 66 38
47 66 37
54 74 43
47 65 37
45 64 35
46 64 36
49 68 38
50 69 39
46 65 36
50 69 40
40 57 30
90 102 99
113 125 129
106 118 119
117 129 131
103 116 115
117 131 132
96 108 105
101 113 113
97 111 106
100 114 110
101 114 113
97 110 107
111 123 124
106 119 119
110 124 122
104 118 113
99 113 111
111 125 125
69 86 69
45 63 35
55 75 44
51 70 39
50 70 39
50 68 40
52 71 40
48 67 38
50 68 39
47 66 37
51 71 40
54 73 42
52 72 42
52 71 40
45 62 35
51 70 40
54 73 44
76 92 77
109 123 122
116 130 131
109 120 122
97 108 107
116 129 130
99 112 109
107 121 118
99 113 108
110 123 122
89 103 96
104 117 116
121 135 136
107 120 121
105 118 119
111 123 126
108 122 123
111 124 123
47 65 37
48 66 37
54 74 42
52 71 40
48 67 38
51 70 40
50 69 39
51 70 40
50 69 39
61 83 49
50 69 39
54 74 42
49 69 39
45 63 35
55 76 44
52 72 41
111 125 126
119 133 135
92 108 99
117 130 131
109 124 120
120 133 137
112 125 125
113 127 126
118 133 133
113 128 127
119 132 134
97 112 106
105 119 117
108 121 120
110 124 124
117 130 133
69 88 62
59 80 47
50 70 40
49 68 39
59 81 47
53 73 42
57 78 45
49 68 38
56 77 44
58 78 46
59 81 48
49 69 38
58 79 46
56 76 44
76 93 75
115 131 131
122 136 137
118 133 132
113 128 126
121 136 134
112 125 125
109 123 120
131 145 149
124 138 142
116 132 129
116 130 129
128 143 144
110 125 124
121 136 135
61 82 51
66 89 53
56 77 45
64 87 51
60 82 48
56 77 44
72 93 67
84 101 87
102 119 108
110 125 121
101 118 110
125 141 144
113 127 125
68 89 58
64 84 55
98 113 104
121 135 137
124 138 140
133 149 153
136 151 154
121 137 138
133 150 151
125 141 143
119 134 132
106 123 115
65 88 51
68 92 54
66 90 53
70 91 65
92 110 93
93 112 97
125 140 141
130 146 149
141 156 163
109 126 119
86 108 83
70 95 57
70 95 58
65 89 52
68 92 55
68 91 56
96 116 100
115 133 127
88 108 87
72 96 60
69 94 57
68 92 55
69 93 56
102 121 109
109 128 121
88 111 88
81 105 72
110 132 119
154 170 174
203 216 229
219 231 247
227 238 254
227 238 254
227 238 254
227 238 254
227 238 254
227 238 254
227 238 254
227 238 254
227 238 254
227 238 254
227 238 254
227 238 254
227 238 254
227 238 254
227 238 254
227 238 254
227 238 254
227 238 254
227 238 254
227 238 254
227 238 254
227 238 254
227 238 254
227 238 254
227 238 254
227 238 254
227 238 254
227 238 254
227 238 254
227 238 254
227 238 254
227 238 254
227 238 254
227 238 254
227 238 254
227 238 254
227 238 254
227 238 254
227 238 254
227 238 254
227 238 254
227 238 254
227 238 254
227 238 254
227 238 254
227 238 254
227 238 254
227 238 254
227 238 254
227 238 254
227 238 254
227 238 254
227 238 254
227 238 254
227 238 254
227 238 254
227 238 254
227 238 254
227 238 254
227 238 254
227 238 254
227 238 254
227 238 254
227 238 254
227 238 254
227 238 254
227 238 254
227 238 254
227 238 254
227 238 254
227 238 254
227 238 254
227 238 254
227 238 254
227 238 254
227 238 254
227 238 254
227 238 254
227 238 254
227 238 254
227 238 254
227 238 254
227 238 254
227 238 254
187 200 207
147 164 159
85 108 81
98 120 100
110 128 116
63 87 50
67 90 57
101 121 106
125 142 140
154 169 179
149 164 171
143 160 164
147 162 170
115 132 126
100 119 105
72 95 61
66 91 53
77 103 63
61 84 48
69 93 56
125 142 142
124 139 138
92 112 94
71 92 61
65 89 53
68 91 55
68 92 55
67 91 54
61 84 50
65 89 53
73 94 65
98 115 105
104 120 115
119 134 133
132 147 152
134 150 152
142 157 160
82 101 81
64 87 50
61 83 49
63 86 51
62 86 50
60 82 47
78 95 77
127 142 141
103 120 109
81 100 83
63 86 49
64 87 52
57 78 44
61 83 48
61 84 50
60 82 48
60 82 48
76 95 76
120 136 135
122 137 138
134 148 154
121 136 135
127 141 142
127 140 143
110 125 121
102 119 109
83 101 84
64 83 58
61 82 48
60 81 49
59 81 47
56 78 44
59 81 47
55 76 42
60 82 49
57 78 45
106 120 120
129 143 145
118 132 132
131 144 149
107 121 118
122 136 138
110 126 121
114 127 127
102 116 112
115 129 128
109 123 123
103 116 111
90 104 95
89 103 93
67 84 66
57 78 45
56 77 44
54 75 43
85 100 91
120 134 133
120 134 136
105 119 117
110 123 124
120 135 136
119 133 136
100 114 110
118 132 133
121 135 136
119 133 133
100 113 108
115 129 129
100 113 111
106 120 119
111 124 126
119 133 131
117 131 132
111 124 122
47 65 37
53 73 42
51 70 40
54 74 44
49 68 38
55 75 44
66 83 63
72 88 73
78 92 84
92 107 99
97 110 104
95 108 103
94 107 102
96 110 108
114 127 130
124 137 138
113 126 125
102 118 112
73 90 77
52 71 40
52 71 42
45 63 35
51 70 40
56 77 45
52 72 41
55 75 44
58 79 46
49 68 39
46 65 36
47 65 36
54 75 43
51 70 40
50 68 40
48 68 38
46 65 36
54 74 43
83 98 89
96 109 106
92 105 100
98 113 110
113 125 126
118 132 132
98 112 109
92 105 100
104 119 116
104 118 114
106 119 119
107 120 122
103 116 115
113 127 128
107 121 119
85 99 93
99 113 108
100 113 113
88 102 93
56 75 47
50 70 39
51 71 41
47 65 36
51 69 40
53 73 42
51 69 40
53 73 43
45 63 36
50 69 40
47 65 37
48 67 38
57 75 51
58 76 51
60 77 57
54 72 49
76 93 76
104 119 112
96 110 106
99 114 109
87 101 94
101 115 115
83 98 87
91 105 99
96 110 105
87 102 94
72 87 73
86 100 91
83 99 85
81 97 87
77 93 82
67 84 66
74 88 79
84 101 87
74 92 72
102 115 111
100 115 109
93 108 100
91 105 97
93 107 100
107 121 118
105 119 119
86 101 91
111 123 123
91 108 95
96 112 103
111 125 123
94 107 101
91 106 100
110 125 124
101 115 111
87 104 93
79 95 82
78 95 79
76 92 79
83 98 87
105 121 114
101 116 110
84 98 90
99 114 109
101 114 112
105 120 113
99 113 107
112 126 124
102 117 113
112 128 126
98 112 107
56 76 44
44 63 33
57 78 45
59 80 47
54 74 42
52 71 40
56 77 44
52 72 40
55 75 43
62 85 50
58 79 46
60 82 48
51 71 41
53 73 42
81 99 83
124 139 136
123 138 140
117 133 134
118 132 133
111 126 121
129 142 144
123 138 140
125 140 139
118 133 131
122 135 138
123 136 136
122 136 138
121 135 135
105 119 117
63 83 56
60 83 47
59 82 47
59 80 46
60 82 48
64 87 52
65 89 52
58 80 47
68 93 56
60 82 47
60 83 48
60 82 51
100 118 103
81 101 80
96 112 101
115 130 129
127 141 143
136 151 156
142 155 160
138 153 158
142 156 162
133 148 153
138 153 157
123 137 139
113 128 126
69 93 59
61 83 48
62 85 49
60 83 47
65 89 52
64 87 51
58 80 46
76 95 73
100 118 105
117 134 128
86 107 85
63 87 50
68 92 56
66 89 52
71 97 58
70 95 57
68 93 55
65 89 52
87 108 85
102 122 107
111 129 121
70 94 59
71 96 58
70 95 56
74 100 61
75 98 66
106 127 113
98 120 99
79 102 70
113 133 124
170 184 189
206 219 233
226 237 253
227 238 254
227 238 254
227 238 254
227 238 254
227 238 254
227 238 254
227 238 254
227 238 254
227 238 254
227 238 254
227 238 254
227 238 254
227 238 254
227 238 254
227 238 254
227 238 254
227 238 254
227 238 254
227 238 254
227 238 254
227 238 254
227 238 254
227 238 254
227 238 254
227 238 254
227 238 254
227 238 254
227 238 254
227 238 254
227 238 254
227 238 254
227 238 254
227 238 254
227 238 254
227 238 254
227 238 254
227 238 254
227 238 254
227 238 254
227 238 254
227 238 254
227 238 254
227 238 254
227 238 254
227 238 254
227 238 254
227 238 254
227 238 254
227 238 254
227 238 254
227 238 254
227 238 254
227 238 254
227 238 254
227 238 254
227 238 254
227 238 254
227 238 254
227 238 254
227 238 254
227 238 254
227 238 254
227 238 254
227 238 254
227 238 254
227 238 254
227 238 254
227 238 254
227 238 254
227 238 254
227 238 254
227 238 254
227 238 254
227 238 254
227 238 254
227 238 254
227 238 254
227 238 254
218 229 243
178 192 199
106 126 109
94 118 96
122 141 136
139 157 156
154 170 177
128 145 144
121 138 132
141 156 159
152 170 178
149 166 174
155 170 176
131 149 147
100 120 105
69 92 58
69 93 56
68 93 55
69 94 56
70 94 57
76 99 69
104 122 112
120 137 133
108 127 115
63 86 51
61 85 49
68 92 54
68 92 55
63 86 51
60 82 47
74 94 72
104 122 115
121 137 137
138 154 157
137 151 155
136 151 156
141 155 158
132 146 149
133 148 150
136 152 153
94 112 100
61 84 49
63 86 51
69 88 65
103 120 113
104 121 114
138 153 158
124 141 139
112 129 124
92 109 96
52 72 40
64 87 51
65 88 52
58 79 46
58 79 46
50 71 38
64 87 52
60 82 47
125 139 142
130 145 150
122 137 137
103 119 114
86 103 92
71 91 69
56 78 44
57 80 45
58 79 46
60 82 48
51 71 40
55 76 44
67 90 54
52 72 41
56 78 44
61 83 48
57 77 45
62 85 50
94 110 101
124 137 141
111 126 122
127 141 141
119 133 135
125 138 141
110 125 123
98 114 105
80 94 85
88 105 92
58 78 49
59 79 47
54 74 43
52 73 40
53 74 41
57 79 46
57 79 45
54 75 44
77 94 77
115 129 130
106 122 114
105 120 116
117 131 129
112 126 124
104 118 114
105 119 118
121 135 136
121 134 136
103 117 115
108 122 123
122 136 139
108 121 124
122 137 137
103 118 113
108 121 119
115 129 129
112 125 123
81 96 83
86 101 94
77 93 78
101 115 108
97 111 105
106 120 119
118 131 135
117 130 131
128 141 143
120 133 133
110 124 123
111 124 123
116 131 128
114 128 127
116 130 132
113 126 125
114 128 130
109 123 121
120 135 137
53 72 42
51 70 40
49 68 38
49 68 39
55 76 44
49 68 39
54 73 43
47 66 37
49 68 40
51 70 40
51 70 41
50 69 38
55 76 44
54 75 43
55 76 44
53 73 43
53 74 42
55 75 43
104 118 114
101 115 112
116 128 128
105 118 116
97 110 106
113 127 128
105 117 117
120 133 135
119 133 134
110 123 122
108 122 119
113 126 126
108 122 119
111 125 125
108 121 120
100 112 112
106 120 118
112 126 126
74 91 77
70 84 76
83 97 89
90 105 98
88 102 96
90 105 99
85 99 94
92 105 101
96 111 105
103 117 113
115 129 130
114 127 126
89 101 98
103 116 113
123 135 140
102 115 113
104 119 112
96 109 106
69 84 71
52 72 42
59 81 48
58 80 46
54 74 43
50 70 39
49 67 37
51 71 40
48 67 36
55 75 45
51 70 40
58 78 46
56 77 45
52 73 41
53 73 42
50 69 40
55 75 44
91 105 96
110 124 123
111 125 121
119 133 134
102 117 111
100 112 109
102 118 114
126 139 143
109 122 121
116 130 130
102 116 113
108 122 120
110 124 120
124 138 141
120 134 134
113 126 126
98 113 108
61 83 49
51 71 40
50 69 39
52 73 40
49 68 38
55 75 43
57 78 46
54 74 42
51 71 40
52 73 40
58 80 47
53 73 42
51 72 40
57 78 46
62 84 50
64 82 60
111 127 125
105 120 118
112 127 124
114 128 128
108 120 122
98 113 107
81 96 85
86 103 89
75 93 75
84 101 89
74 92 72
71 91 66
61 81 51
54 74 42
68 87 66
116 131 130
125 140 141
114 128 126
116 130 129
123 138 141
119 133 133
132 146 151
127 142 144
132 147 150
119 134 132
134 149 152
108 125 122
124 138 139
134 148 155
73 92 71
59 81 47
56 77 44
60 83 47
64 87 51
61 82 48
62 84 50
58 79 46
59 81 48
80 97 83
126 140 142
128 143 145
121 135 136
70 91 67
63 87 51
54 75 42
73 95 65
86 105 89
79 98 81
113 130 126
115 131 131
127 141 143
134 149 152
140 156 163
131 146 145
71 93 64
63 86 51
67 91 54
65 89 53
62 85 50
64 87 52
68 92 54
66 90 54
63 87 51
69 92 58
96 116 98
124 142 137
96 115 99
94 114 95
69 93 55
65 90 53
66 90 54
70 95 58
74 98 61
99 117 102
146 162 168
125 141 142
129 145 144
92 114 92
74 99 63
72 98 59
110 130 118
135 153 155
113 132 122
85 108 81
94 117 94
146 164 165
192 205 218
220 232 246
227 238 254
227 238 254
227 238 254
227 238 254
227 238 254
227 238 254
227 238 254
227 238 254
227 238 254
227 238 254
227 238 254
227 238 254
227 238 254
227 238 254
227 238 254
227 238 254
227 238 254
227 238 254
227 238 254
227 238 254
227 238 254
227 238 254
227 238 254
227 238 254
227 238 254
227 238 254
227 238 254
227 238 254
227 238 254
227 238 254
227 238 254
227 238 254
227 238 254
227 238 254
227 238 254
227 238 254
227 238 254
227 238 254
227 238 254
227 238 254
227 238 254
227 238 254
227 238 254
227 238 254
227 238 254
227 238 254
227 238 254
227 238 254
227 238 254
227 238 254
227 238 254
227 238 254
227 238 254
227 238 254
227 238 254
227 238 254
227 238 254
227 238 254
227 238 254
227 238 254
227 238 254
227 238 254
227 238 254
227 238 254
227 238 254
227 238 254
227 238 254
227 238 254
227 238 254
227 238 254
227 238 254
227 238 254
227 238 254
226 238 253
195 208 218
149 165 165
124 145 136
127 144 143
137 153 154
146 162 168
148 164 170
121 141 135
89 110 89
117 136 130
139 155 157
151 166 170
140 156 160
93 113 95
80 103 71
66 90 53
67 92 54
71 96 58
71 97 58
76 98 67
90 111 91
129 146 143
146 162 170
138 153 157
134 149 151
107 126 120
63 86 50
68 92 55
67 92 54
64 85 56
101 117 112
115 132 129
130 145 146
143 159 162
143 158 163
149 163 171
135 150 153
141 156 159
136 151 156
139 152 156
134 150 151
124 139 138
107 125 118
107 126 116
117 133 130
134 150 153
129 143 146
119 135 133
133 148 152
137 151 156
137 152 156
131 147 151
131 146 149
94 111 100
65 85 58
67 90 54
61 83 49
59 81 47
63 85 53
85 104 87
103 119 108
65 88 52
58 79 45
60 82 47
57 78 45
62 84 49
60 83 48
62 84 49
56 77 45
58 79 46
60 82 49
58 79 46
60 81 48
60 82 49
56 77 44
52 72 40
56 77 44
54 75 43
92 108 98
135 150 154
128 143 146
111 126 123
90 107 97
67 88 59
58 79 46
52 73 41
61 82 48
59 80 47
57 79 45
59 81 46
58 79 46
54 75 43
56 77 44
62 84 50
51 71 39
52 72 41
52 72 40
105 120 113
121 136 137
123 137 141
119 133 136
115 129 129
118 131 132
108 121 119
120 136 134
115 130 127
121 135 138
119 134 135
119 132 134
115 128 127
104 118 114
93 108 100
88 104 94
66 84 62
63 82 55
73 90 69
109 122 121
116 129 131
97 112 107
122 136 135
117 132 135
111 124 126
113 127 127
116 130 130
113 126 126
110 124 125
127 140 147
115 127 129
114 128 126
109 121 120
125 139 143
112 127 126
111 126 124
97 110 108
87 104 92
48 67 38
51 69 40
48 67 38
51 70 39
42 59 32
52 71 42
54 74 43
49 68 38
51 71 40
51 71 41
49 67 39
58 79 46
47 66 37
54 74 43
56 77 45
53 73 41
56 76 44
74 92 73
112 126 124
123 137 139
105 118 117
113 126 127
109 123 118
100 113 112
95 108 105
81 95 87
83 99 86
86 103 88
82 97 87
66 84 63
72 89 72
49 67 41
57 77 45
54 74 42
51 70 40
64 84 58
107 121 121
123 136 138
106 118 118
104 117 115
120 132 135
121 135 136
115 129 128
115 129 129
118 132 135
114 127 127
116 128 131
107 121 119
111 125 125
122 135 136
121 134 137
115 128 128
114 129 128
120 133 136
49 68 38
52 71 41
50 69 39
53 74 42
55 75 44
60 82 49
59 80 47
51 69 40
51 69 40
51 71 39
54 74 43
55 75 44
56 76 44
57 77 46
54 73 41
48 66 38
61 80 53
109 123 119
113 127 126
101 115 112
107 122 119
104 117 114
114 126 127
108 121 123
123 135 139
111 124 125
108 121 121
113 128 124
120 133 133
109 120 120
124 137 138
121 135 135
123 138 137
118 132 130
61 84 50
54 74 42
50 70 40
58 79 46
56 77 45
52 73 42
59 79 47
53 72 41
49 69 38
57 77 45
56 77 45
51 71 41
58 79 47
56 77 43
60 82 48
76 94 76
102 117 114
128 142 145
111 126 122
127 142 145
125 140 140
111 125 124
134 149 154
124 140 141
131 145 150
113 128 126
117 132 130
136 149 156
111 126 126
120 133 135
101 116 114
93 111 99
82 98 86
92 107 99
109 124 122
97 112 103
119 133 131
125 140 140
120 135 135
113 127 126
127 142 145
119 134 136
122 138 136
113 128 126
127 142 145
73 94 68
61 83 49
57 78 44
66 90 53
61 84 48
72 96 62
98 114 103
109 125 122
134 149 152
123 137 138
123 139 139
127 142 146
123 140 136
88 107 89
55 76 44
61 83 48
63 86 50
64 88 52
66 90 53
68 92 55
64 87 52
67 89 57
82 99 84
101 118 110
124 140 139
83 104 82
61 84 49
64 88 52
67 92 54
72 97 59
68 93 55
67 90 53
67 91 54
65 88 52
61 84 49
94 114 97
143 160 163
143 159 164
138 155 158
123 139 139
90 108 92
87 108 85
67 91 54
65 89 53
86 108 79
139 155 158
154 171 177
138 154 157
151 167 174
143 160 161
96 118 99
76 101 67
118 137 127
151 168 177
148 165 171
123 141 135
93 114 95
110 131 120
157 172 174
208 220 234
224 236 252
227 238 254
227 238 254
227 238 254
227 238 254
227 238 254
227 238 254
227 238 254
227 238 254
227 238 254
227 238 254
227 238 254
227 238 254
227 238 254
227 238 254
227 238 254
227 238 254
227 238 254
227 238 254
227 238 254
227 238 254
227 238 254
227 238 254
227 238 254
227 238 254
227 238 254
227 238 254
227 238 254
227 238 254
227 238 254
227 238 254
227 238 254
227 238 254
227 238 254
227 238 254
227 238 254
227 238 254
227 238 254
227 238 254
227 238 254
227 238 254
227 238 254
227 238 254
227 238 254
227 238 254
227 238 254
227 238 254
227 238 254
227 238 254
227 238 254
227 238 254
227 238 254
227 238 254
227 238 254
227 238 254
227 238 254
227 238 254
227 238 254
227 238 254
227 238 254
227 238 254
227 238 254
227 238 254
227 238 254
227 238 254
227 238 254
227 238 254
227 238 254
227 238 254
209 221 233
179 193 200
145 163 165
147 165 170
149 167 172
153 170 177
152 168 173
134 152 151
101 122 105
76 100 67
72 97 58
67 92 54
109 126 116
108 126 119
83 107 79
72 97 58
65 89 52
70 94 56
69 93 56
69 92 61
98 116 100
128 146 144
144 160 167
140 156 158
148 162 168
140 156 160
147 163 167
140 156 158
124 141 136
73 94 64
117 134 125
135 151 149
144 160 165
132 148 150
145 159 164
144 161 164
141 155 159
137 152 156
138 153 158
133 148 148
142 156 161
141 157 161
118 134 131
106 123 114
75 97 68
82 101 83
125 140 141
139 155 159
136 151 153
136 151 155
135 149 154
135 149 153
133 150 151
140 154 161
126 140 146
137 153 155
140 156 160
142 158 164
99 117 109
82 100 86
117 132 131
119 134 131
132 146 151
110 124 119
68 92 55
68 93 55
63 86 51
56 78 44
57 79 46
62 84 49
57 78 45
65 88 52
61 83 49
67 90 54
61 83 49
60 82 48
58 79 47
57 79 46
59 80 51
83 102 82
100 116 109
104 119 113
74 93 71
57 78 45
50 70 40
56 76 43
62 84 48
56 77 44
60 81 48
59 82 47
54 74 43
55 76 44
62 85 49
55 76 44
57 78 44
58 80 46
57 78 44
53 73 41
57 78 45
57 79 45
96 111 102
117 131 130
115 130 129
119 133 133
132 146 150
115 129 128
109 124 123
102 117 114
115 131 126
92 109 98
83 99 86
67 87 64
61 82 49
54 75 42
58 79 47
54 74 42
60 82 48
52 72 41
59 81 48
101 115 110
122 135 136
126 140 142
121 135 138
100 114 114
120 133 134
114 128 128
111 124 124
112 126 125
112 126 124
110 123 123
108 122 119
117 132 131
118 130 130
121 135 139
118 132 131
106 119 117
114 126 126
101 114 113
63 84 57
59 81 47
52 72 42
48 68 37
54 75 43
51 71 40
56 77 44
52 72 42
55 75 44
54 74 43
50 69 39
51 70 39
55 76 45
55 75 43
60 78 53
78 93 79
77 93 78
98 113 107
90 104 98
63 80 58
66 84 65
50 70 39
50 69 38
45 63 35
55 75 43
54 75 44
53 74 41
49 68 40
55 76 44
53 72 42
54 75 43
54 75 42
56 76 45
53 73 41
52 72 41
54 74 44
75 92 75
113 126 125
116 128 131
101 115 113
111 124 123
116 129 133
113 126 129
115 130 131
127 142 143
111 125 124
111 125 123
128 140 146
117 129 130
117 132 134
108 123 121
95 108 103
117 131 131
116 129 132
96 109 105
54 74 43
60 81 48
49 68 38
61 83 49
51 71 40
54 74 43
51 70 40
60 81 48
48 67 37
50 71 39
60 80 47
55 75 43
55 75 43
56 77 45
54 74 43
53 74 42
68 86 66
121 135 136
118 132 130
112 126 125
111 123 124
131 144 150
120 133 136
128 143 145
116 130 131
133 147 153
113 128 128
109 123 122
130 143 151
122 137 135
123 137 140
121 136 136
118 132 134
99 115 108
55 75 44
53 73 42
53 73 42
56 78 46
52 72 41
53 73 42
56 77 46
54 75 42
57 78 44
60 82 48
56 78 45
56 76 44
59 81 47
59 81 47
57 78 46
86 103 91
122 136 137
119 134 131
115 130 127
128 143 146
122 137 136
115 131 128
118 134 134
124 139 140
124 138 141
134 148 152
126 141 143
109 126 122
124 139 137
130 145 147
112 127 123
65 87 55
58 80 46
53 73 41
58 78 46
56 78 44
63 86 51
65 88 56
66 87 58
93 112 97
101 117 107
96 117 100
99 116 107
100 116 109
117 133 124
72 92 67
58 81 46
90 108 92
117 131 131
131 146 148
139 155 161
136 151 157
135 149 151
131 146 149
134 148 150
141 156 161
132 147 152
138 152 157
81 99 76
57 79 45
63 86 51
61 83 49
57 78 46
67 91 54
64 87 50
61 84 49
66 90 54
61 83 48
66 90 53
73 95 64
105 124 112
114 132 123
89 110 90
82 102 81
71 93 64
62 85 49
62 85 49
65 89 53
66 90 54
70 94 57
78 100 72
130 147 146
148 164 168
151 167 176
144 159 164
138 154 159
148 164 167
113 130 128
103 123 106
79 102 78
117 135 130
146 163 166
150 166 172
152 168 175
147 162 166
146 162 167
125 143 141
116 135 126
147 164 171
144 161 165
152 169 178
137 155 154
132 149 150
127 146 144
117 136 129
183 196 205
220 232 247
227 238 254
227 238 254
227 238 254
227 238 254
227 238 254
227 238 254
227 238 254
227 238 254
227 238 254
227 238 254
227 238 254
227 238 254
227 238 254
227 238 254
227 238 254
227 238 254
227 238 254
227 238 254
227 238 254
227 238 254
227 238 254
227 238 254
227 238 254
227 238 254
227 238 254
227 238 254
227 238 254
227 238 254
227 238 254
227 238 254
227 238 254
227 238 254
227 238 254
227 238 254
227 238 254
227 238 254
227 238 254
227 238 254
227 238 254
227 238 254
227 238 254
227 238 254
227 238 254
227 238 254
227 238 254
227 238 254
227 238 254
227 238 254
227 238 254
227 238 254
227 238 254
227 238 254
227 238 254
227 238 254
227 238 254
227 238 254
227 238 254
227 238 254
227 238 254
227 238 254
227 238 254
227 238 254
227 238 254
227 238 254
210 222 236
162 179 183
149 166 170
145 162 167
122 141 138
149 166 171
140 158 159
123 142 138
84 109 79
78 106 65
67 92 54
83 108 79
112 131 120
135 152 156
113 131 125
68 93 55
66 91 54
71 97 57
73 98 62
110 130 118
132 150 154
142 159 165
148 164 169
144 159 167
140 156 160
161 177 186
132 148 149
145 161 167
125 142 140
114 131 127
100 119 105
137 152 158
140 156 158
136 152 154
139 152 159
154 169 178
129 144 147
137 152 157
149 164 171
128 143 144
133 148 150
119 134 131
104 124 109
81 102 79
64 88 51
68 92 55
65 89 52
68 90 59
133 147 152
132 147 151
130 145 143
125 141 142
127 142 144
140 155 158
142 156 160
142 158 165
129 144 148
116 131 129
87 105 90
74 94 72
64 88 51
64 87 52
63 85 50
92 110 97
107 122 120
118 134 130
65 89 53
60 82 48
64 88 51
59 81 46
61 83 49
63 85 51
63 85 50
61 82 48
64 86 51
66 89 53
58 80 47
90 107 94
95 111 102
114 130 127
125 140 141
118 133 133
129 142 146
112 126 123
96 114 99
58 80 46
63 85 49
60 83 48
52 74 41
57 78 46
55 76 43
60 82 48
51 72 40
57 78 45
57 78 44
55 76 45
58 80 47
58 80 47
51 70 40
61 83 48
57 77 45
57 78 45
62 84 50
124 139 141
123 137 137
100 114 112
99 115 107
81 96 84
73 89 73
53 74 42
53 74 42
51 71 39
59 80 48
53 74 42
55 76 45
54 75 43
55 75 44
54 75 43
49 68 37
53 73 41
55 76 44
67 85 64
127 141 145
118 132 133
117 132 130
111 126 120
111 125 122
124 138 140
110 124 122
125 138 143
118 131 132
108 122 119
117 132 132
117 130 130
121 135 137
116 129 128
116 129 131
110 123 125
104 119 118
117 131 132
81 96 84
56 77 45
57 78 45
55 76 44
58 79 46
63 84 53
72 89 73
85 100 89
82 97 89
98 112 105
109 122 121
106 120 119
118 131 132
118 132 134
107 121 119
118 131 133
124 138 140
102 116 111
126 139 143
62 82 55
53 72 41
56 77 44
50 70 40
49 68 39
53 74 42
54 74 42
52 72 40
54 74 43
55 75 43
55 75 44
53 73 42
55 76 44
51 71 41
56 77 44
52 72 42
57 78 45
55 77 44
93 109 101
118 132 133
111 125 125
113 126 127
115 130 130
114 129 127
115 129 129
117 130 129
112 124 125
108 123 120
113 126 126
116 129 129
101 115 109
113 128 127
125 138 141
107 123 117
129 142 146
111 126 122
67 86 62
57 78 45
57 78 45
51 71 40
50 69 40
55 75 43
60 82 48
47 67 36
53 73 42
59 81 48
50 69 38
57 78 45
57 78 44
57 77 45
59 80 46
52 72 41
58 79 46
82 98 86
121 136 136
129 144 143
126 139 142
117 131 128
122 134 138
115 130 129
117 130 129
112 127 124
117 132 133
122 136 137
117 132 131
110 125 122
132 146 150
112 126 127
110 124 121
125 138 142
94 112 98
56 76 44
53 73 43
57 78 46
52 72 40
54 75 43
56 76 44
53 73 42
56 77 44
59 81 47
60 81 47
57 78 45
58 79 45
58 79 46
56 77 44
55 75 43
104 121 115
121 136 135
136 150 153
126 140 142
128 144 145
122 136 138
133 146 150
125 139 141
120 134 132
118 131 134
119 134 133
116 129 129
128 142 144
121 136 136
130 145 146
106 122 118
56 77 44
57 78 44
55 77 44
58 80 46
60 83 48
60 82 47
55 75 43
64 87 52
62 84 49
63 86 50
61 83 49
67 88 58
88 107 93
109 125 118
86 105 89
82 101 83
101 117 108
101 116 108
122 137 136
125 142 141
121 137 136
138 152 156
130 145 145
136 151 156
141 158 162
139 154 158
123 139 139
88 108 89
67 91 55
61 84 49
60 82 47
64 87 51
67 91 54
65 89 53
65 89 53
61 85 49
66 90 54
67 92 54
73 98 62
105 123 113
138 154 158
138 153 158
137 153 160
136 152 153
105 124 117
94 113 100
77 98 72
73 99 60
60 83 48
68 93 55
118 134 133
141 155 159
141 157 161
128 144 145
149 164 170
144 161 167
147 164 170
148 164 173
142 159 162
140 157 162
128 144 145
147 163 170
145 162 168
144 161 166
142 159 164
148 164 168
147 165 172
147 162 167
140 156 160
147 164 166
152 168 175
156 172 180
120 138 131
84 108 78
88 111 85
150 166 165
198 211 222
226 237 253
227 238 254
227 238 254
227 238 254
227 238 254
227 238 254
227 238 254
227 238 254
227 238 254
227 238 254
227 238 254
227 238 254
227 238 254
227 238 254
227 238 254
227 238 254
227 238 254
227 238 254
227 238 254
227 238 254
227 238 254
227 238 254
227 238 254
227 238 254
227 238 254
227 238 254
227 238 254
227 238 254
227 238 254
227 238 254
227 238 254
227 238 254
227 238 254
227 238 254
227 238 254
227 238 254
227 238 254
227 238 254
227 238 254
227 238 254
227 238 254
227 238 254
227 238 254
227 238 254
227 238 254
227 238 254
227 238 254
227 238 254
227 238 254
227 238 254
227 238 254
227 238 254
227 238 254
227 238 254
227 238 254
227 238 254
227 238 254
227 238 254
227 238 254
224 235 251
181 195 202
132 149 145
144 162 166
110 130 116
82 104 79
139 158 159
125 144 140
90 111 91
76 102 62
70 96 56
74 98 65
96 117 94
135 152 154
144 161 165
154 170 175
144 159 162
80 100 78
69 94 57
97 118 98
114 132 125
143 160 164
156 172 181
150 166 171
152 169 177
140 156 164
143 159 166
129 145 148
142 157 160
113 132 122
86 107 87
73 98 62
67 91 54
106 124 117
137 152 156
144 159 162
137 153 154
136 152 156
141 156 161
150 165 172
130 147 146
119 136 133
92 109 96
71 93 61
68 92 53
67 91 53
67 91 55
62 85 49
65 88 52
67 91 54
60 84 48
131 147 148
139 153 158
139 154 158
136 149 154
130 145 144
126 142 144
108 125 117
88 109 86
62 84 48
66 90 54
63 86 51
62 85 49
64 87 51
61 84 48
64 88 52
59 81 47
63 86 51
64 87 52
106 124 116
117 133 129
85 101 90
66 89 53
58 79 45
64 87 52
63 85 53
90 110 92
97 114 103
115 130 127
130 145 150
119 136 137
129 144 151
125 141 141
123 138 139
137 151 158
133 147 148
137 153 156
98 115 103
64 86 51
58 79 46
59 81 47
60 82 48
63 86 51
53 74 43
59 80 47
58 79 46
59 81 47
62 84 48
55 77 44
55 77 44
59 81 47
51 71 40
67 86 63
75 92 73
111 127 122
105 120 117
92 109 97
58 79 45
59 80 47
57 78 45
50 69 39
60 83 49
53 73 42
56 77 44
62 83 49
57 77 45
55 75 43
57 78 45
55 75 43
59 80 46
58 79 46
58 79 47
62 84 50
56 78 45
56 76 45
116 130 130
116 130 130
120 134 135
119 134 132
111 124 124
109 124 123
131 145 148
114 127 127
117 131 134
116 131 128
126 139 140
122 137 140
118 131 135
116 130 131
112 127 124
115 129 128
121 135 136
106 121 116
88 103 92
96 112 103
93 107 100
112 126 127
121 134 138
113 127 125
133 148 152
118 131 131
108 121 120
114 127 129
114 128 127
125 139 141
126 139 142
120 134 133
123 137 139
106 120 119
128 142 142
120 133 136
100 114 109
98 113 107
58 79 46
51 70 40
54 73 43
54 74 43
53 74 42
54 74 42
51 71 40
48 68 37
53 73 41
51 72 39
57 78 45
56 77 45
55 75 43
55 76 45
60 81 48
51 71 40
55 75 44
75 93 75
125 140 143
117 131 131
111 126 123
117 131 131
129 143 147
123 135 139
99 113 109
109 123 121
125 139 140
117 130 132
126 140 143
125 140 143
124 138 139
120 134 135
125 139 145
117 131 131
106 120 118
92 108 102
63 85 50
56 76 44
53 73 42
56 77 45
52 73 41
56 76 44
54 74 42
56 76 45
55 76 44
55 75 43
57 78 45
51 71 41
58 80 47
55 75 44
55 76 43
56 76 44
50 70 39
117 131 132
106 119 115
120 134 135
119 133 133
128 142 147
120 134 134
110 124 122
116 131 130
117 133 131
115 129 131
120 134 137
121 136 135
127 142 145
134 149 154
104 119 112
116 129 133
117 133 132
63 84 56
58 80 46
62 85 50
56 77 45
54 74 43
52 73 41
59 81 47
59 80 47
56 77 44
58 80 46
64 86 51
51 71 40
58 80 46
56 78 45
61 83 49
62 84 50
113 128 123
119 134 137
124 138 140
129 143 145
124 139 139
123 138 141
126 141 143
126 141 142
137 152 159
121 136 136
111 127 122
128 143 145
125 140 141
120 134 133
127 141 144
102 119 109
63 86 50
65 88 52
62 84 49
59 80 47
63 85 50
64 87 51
62 84 52
81 99 81
102 118 110
106 123 117
125 140 144
140 156 161
133 148 152
134 148 153
75 95 68
63 86 51
62 85 49
65 88 52
60 82 47
59 82 47
63 85 54
100 117 109
84 102 84
120 137 135
116 133 127
119 135 131
139 154 157
91 109 95
63 86 51
64 87 51
66 91 53
68 92 55
71 95 57
57 78 46
65 88 53
61 84 48
63 86 50
71 95 57
66 90 54
101 119 110
148 164 169
144 160 166
132 150 151
129 145 146
139 156 160
144 159 167
132 148 150
122 138 137
111 129 121
91 110 92
105 124 113
131 148 148
151 165 171
144 160 166
153 170 178
157 173 185
150 165 172
154 168 176
145 160 163
149 166 171
116 135 130
97 117 102
118 136 131
133 151 155
146 164 168
155 170 176
154 171 177
150 166 174
112 131 122
98 120 97
129 148 143
139 156 160
131 150 148
101 123 105
101 123 102
110 131 115
119 137 125
169 184 185
214 226 239
227 238 254
227 238 254
227 238 254
227 238 254
227 238 254
227 238 254
227 238 254
227 238 254
227 238 254
227 238 254
227 238 254
227 238 254
227 238 254
227 238 254
227 238 254
227 238 254
227 238 254
227 238 254
227 238 254
227 238 254
227 238 254
227 238 254
227 238 254
227 238 254
227 238 254
227 238 254
227 238 254
227 238 254
227 238 254
227 238 254
227 238 254
227 238 254
227 238 254
227 238 254
227 238 254
227 238 254
227 238 254
227 238 254
227 238 254
227 238 254
227 238 254
227 238 254
227 238 254
227 238 254
227 238 254
227 238 254
227 238 254
227 238 254
227 238 254
227 238 254
227 238 254
227 238 254
227 238 254
227 238 254
218 230 245
176 191 199
107 127 111
114 134 125
117 136 124
74 100 61
72 97 58
98 119 104
77 101 69
72 97 58
70 96 57
79 103 73
115 133 124
147 164 169
159 175 184
148 165 173
146 162 168
147 164 172
145 162 167
114 133 122
143 159 164
141 156 160
150 167 174
152 167 174
138 154 158
141 157 161
146 162 167
143 159 163
131 146 145
99 119 107
64 88 52
70 95 56
70 95 57
67 91 53
74 100 60
85 107 82
145 161 167
147 163 171
143 159 163
149 164 171
112 127 122
96 117 98
70 93 58
66 90 53
68 92 55
71 95 57
60 84 48
64 87 51
63 87 51
64 88 52
65 89 52
64 87 52
62 85 50
116 132 128
138 154 158
113 130 122
99 119 104
66 87 59
63 85 50
61 84 47
67 91 54
64 87 51
64 87 51
61 83 48
61 84 48
61 83 49
64 87 52
62 85 48
63 86 49
59 82 47
62 85 50
110 127 121
133 148 149
124 139 138
140 155 163
82 102 81
91 111 93
129 146 146
127 142 142
142 156 161
134 149 150
119 134 132
129 145 144
129 144 148
122 137 138
132 147 152
136 150 153
143 158 165
128 143 146
126 142 141
63 85 52
61 83 48
63 85 50
59 81 47
59 82 47
64 86 51
55 76 44
56 78 45
53 74 42
55 75 43
74 92 71
100 116 107
101 116 112
121 135 136
121 136 134
136 151 155
117 132 130
121 135 137
112 126 124
61 82 49
60 82 48
56 76 44
56 77 44
61 82 49
59 81 46
57 78 45
59 81 47
62 83 49
56 76 44
57 78 46
60 81 48
58 79 45
57 78 46
53 73 42
51 71 40
60 82 47
53 74 42
96 112 104
130 144 148
126 140 141
122 136 137
125 139 141
119 133 135
102 117 109
116 130 129
137 151 157
100 115 110
112 126 123
106 121 114
94 108 102
57 76 47
78 95 81
63 82 58
53 74 42
53 74 42
52 71 41
98 112 107
120 134 136
112 125 125
121 135 135
115 129 131
115 129 130
111 127 122
114 129 127
125 139 144
111 127 125
125 140 141
132 145 149
111 125 124
129 143 144
115 128 126
125 139 141
120 134 135
125 138 140
122 136 137
70 88 69
54 74 42
60 83 48
52 72 41
49 69 39
54 74 43
54 74 43
51 70 40
54 74 43
54 74 42
54 74 41
52 72 41
56 77 44
54 74 43
53 74 43
57 78 46
55 76 44
57 79 45
100 117 111
117 131 132
108 124 123
119 134 135
103 117 114
119 133 135
110 125 123
110 125 123
130 144 147
126 140 143
124 137 138
114 129 122
113 128 127
113 127 129
115 130 129
122 136 136
117 131 129
108 123 117
93 107 100
58 80 46
57 79 46
63 85 50
56 76 45
52 73 41
57 78 45
55 76 43
59 81 48
58 79 46
65 88 52
63 85 50
59 81 47
58 79 47
56 77 45
51 71 41
57 79 45
59 78 52
103 118 111
127 141 144
109 123 123
116 130 129
126 139 142
116 130 131
130 145 148
116 128 132
132 148 154
125 139 141
130 144 146
127 142 144
127 142 143
136 151 153
137 152 157
112 125 125
117 131 129
66 87 58
62 85 50
54 74 42
57 78 45
58 80 46
61 84 50
57 78 45
60 82 48
61 84 49
62 85 49
54 76 43
59 80 46
60 82 48
64 85 51
62 84 50
65 85 57
129 144 147
115 131 128
137 153 157
125 140 144
119 134 134
135 149 154
123 139 140
135 150 154
125 140 138
120 136 135
118 133 133
115 131 128
130 144 145
137 151 156
126 142 143
92 108 99
61 84 49
66 86 57
86 103 89
98 114 105
116 132 129
135 148 154
122 137 138
122 136 138
131 148 149
123 139 139
132 146 149
138 152 157
141 157 162
126 140 143
68 89 62
64 88 51
62 85 49
63 86 50
58 79 46
63 86 50
63 86 50
73 98 59
57 80 45
63 85 50
68 93 56
68 91 59
89 109 88
88 109 87
111 128 121
96 114 102
80 100 78
67 90 58
61 85 50
64 88 51
65 88 52
66 89 53
66 90 53
63 86 50
64 87 52
86 104 92
136 153 155
148 164 170
147 163 170
146 161 167
148 165 171
145 161 166
147 164 166
144 159 163
150 167 174
147 163 169
145 161 167
127 143 139
122 140 139
146 162 170
143 159 162
155 171 180
153 169 177
153 169 178
150 166 173
159 175 182
135 151 152
77 100 71
72 98 59
86 108 83
113 131 125
142 159 163
148 164 168
156 172 181
122 141 135
75 100 63
76 101 64
97 119 94
99 119 104
82 109 70
103 123 107
132 150 152
122 140 135
97 118 99
154 171 168
204 216 227
227 238 254
227 238 254
227 238 254
227 238 254
227 238 254
227 238 254
227 238 254
227 238 254
227 238 254
227 238 254
227 238 254
227 238 254
227 238 254
227 238 254
227 238 254
227 238 254
227 238 254
227 238 254
227 238 254
227 238 254
227 238 254
227 238 254
227 238 254
227 238 254
227 238 254
227 238 254
227 238 254
227 238 254
227 238 254
227 238 254
227 238 254
227 238 254
227 238 254
227 238 254
227 238 254
227 238 254
227 238 254
227 238 254
227 238 254
227 239 254
227 239 254
227 239 254
227 239 254
227 239 254
227 239 254
227 239 254
227 239 254
227 239 254
227 239 254
226 237 253
212 224 239
137 155 148
101 123 106
135 154 149
158 175 183
156 173 184
128 146 145
138 156 157
91 114 87
68 92 55
77 103 66
103 124 109
138 154 156
151 168 177
151 166 174
150 165 174
148 164 169
148 164 166
135 152 154
101 122 106
68 93 55
134 152 153
136 152 155
149 165 171
154 169 176
145 161 165
135 149 153
135 153 154
106 127 114
74 97 68
68 93 56
68 92 54
67 91 54
71 96 58
68 92 55
66 91 54
69 94 56
84 104 82
138 153 155
128 145 142
91 111 94
62 84 49
67 91 53
65 89 53
64 88 53
67 91 53
67 92 55
63 86 51
67 91 54
70 95 57
60 83 48
64 88 51
61 84 49
76 98 71
109 126 120
111 128 122
67 91 54
60 82 47
68 92 54
67 90 54
65 90 53
63 87 51
63 86 51
65 88 52
68 92 54
61 84 49
72 96 58
69 93 56
67 91 54
63 86 50
69 94 57
66 89 52
65 87 55
111 127 125
103 119 111
78 100 72
62 85 51
61 83 49
58 80 46
68 91 55
74 96 66
95 115 98
101 117 110
107 123 118
134 149 152
135 150 154
132 146 148
140 154 158
129 144 146
137 151 156
130 144 151
129 145 147
76 94 76
56 77 45
59 80 47
59 81 47
61 84 48
61 82 55
83 102 82
93 111 98
108 122 119
126 141 143
133 147 153
120 135 136
133 147 152
127 140 145
122 136 138
119 134 134
125 140 140
127 142 144
132 148 151
61 80 58
52 73 40
60 82 48
63 86 51
59 81 47
60 83 48
52 73 41
59 80 47
57 78 45
57 79 46
58 80 46
58 79 46
58 80 47
58 80 46
61 84 49
52 72 41
59 81 47
53 74 42
64 85 54
126 139 142
117 131 132
112 126 126
123 138 140
99 113 108
102 116 112
89 106 93
72 90 71
57 78 46
57 78 46
60 82 47
62 84 49
52 72 41
59 80 47
57 78 46
59 81 47
59 80 47
56 77 44
70 91 64
124 139 141
118 132 130
136 150 156
117 132 134
129 142 143
131 144 148
116 130 130
132 146 150
108 124 121
121 135 136
126 141 143
119 134 135
116 130 128
129 143 147
117 131 132
123 137 139
118 132 133
114 128 127
99 115 109
58 79 47
56 77 44
55 76 43
59 81 47
58 80 47
55 77 43
56 78 44
65 89 53
54 75 43
54 74 43
52 71 40
64 86 52
57 79 45
57 78 46
52 71 40
56 78 44
62 85 50
57 80 45
104 119 115
114 128 127
116 129 131
122 137 137
119 133 133
124 138 138
122 136 136
112 126 123
123 137 141
120 134 134
127 141 144
117 131 133
111 124 124
115 130 128
102 117 112
108 122 120
123 136 138
110 124 122
75 95 71
88 104 91
82 100 82
90 107 92
79 96 82
85 101 93
101 116 109
100 115 110
103 119 113
92 108 97
102 117 110
90 106 95
105 120 115
92 109 97
106 121 114
108 122 119
107 123 117
122 136 133
72 91 68
89 106 94
73 92 71
62 81 54
84 101 87
81 100 79
77 95 76
69 88 61
77 94 81
73 92 73
84 103 83
73 93 67
82 100 84
73 91 71
75 94 71
89 108 93
74 92 71
101 117 111
119 133 134
90 106 96
103 118 113
101 119 109
99 115 104
93 108 99
88 104 93
99 116 107
84 103 86
86 103 90
86 104 90
79 101 75
71 92 64
63 84 55
92 110 96
123 138 140
126 141 140
129 143 144
126 140 141
128 143 144
124 138 141
123 140 138
132 147 152
129 145 144
120 135 136
121 137 135
137 152 158
118 133 134
120 135 132
102 118 110
102 118 108
126 141 144
144 159 165
123 138 137
130 146 148
140 156 160
127 143 143
130 145 149
133 149 152
129 144 145
135 149 155
148 163 169
123 139 137
126 142 141
129 146 143
70 92 61
60 83 48
61 84 49
61 84 50
64 88 52
68 92 55
66 89 53
64 87 51
60 83 47
62 85 50
68 92 55
59 81 47
62 85 49
106 123 115
137 151 156
136 151 152
139 155 159
124 141 139
118 134 131
105 122 110
75 96 68
84 104 80
60 82 47
63 86 50
70 95 57
81 103 81
135 149 153
149 165 173
150 166 170
146 162 170
141 157 161
144 160 164
151 167 175
141 157 161
134 150 154
147 163 167
147 165 168
85 106 84
72 98 60
87 109 84
108 126 116
136 153 154
140 156 160
135 152 155
150 166 172
142 158 163
142 158 161
89 111 88
72 98 59
70 95 57
70 96 58
80 103 73
101 122 105
125 144 141
149 166 173
109 129 117
75 101 64
70 95 56
86 110 85
130 149 148
117 138 128
117 137 127
148 164 168
148 166 170
120 140 131
157 174 174
195 209 220
222 234 249
227 239 254
227 239 254
227 239 254
227 239 254
227 239 254
227 239 254
227 239 254
227 239 254
227 239 254
227 239 254
227 238 254
227 238 254
227 238 254
227 238 254
227 238 254
227 238 254
227 238 254
227 238 254
227 238 254
227 238 254
227 238 254
227 238 254
227 238 254
227 239 254
227 239 254
227 239 254
227 239 254
227 239 254
227 239 254
227 239 254
227 239 254
227 239 254
227 239 254
227 239 254
227 239 254
227 239 254
227 239 254
227 239 254
227 239 254
227 239 254
227 239 254
227 239 254
227 239 254
227 239 254
222 233 249
183 196 205
116 136 125
102 123 107
148 166 170
163 180 193
138 156 159
130 148 142
92 114 89
145 162 166
100 121 103
85 108 78
113 132 121
156 172 180
152 168 174
148 165 170
157 173 181
140 157 158
135 153 150
106 127 110
73 98 62
72 97 58
75 101 61
73 98 58
129 146 147
141 157 163
136 152 157
137 154 154
96 116 100
77 100 69
69 94 56
72 98 59
69 93 56
66 90 53
67 91 53
71 95 58
69 94 56
69 94 56
85 106 80
110 128 116
141 156 159
70 95 60
72 98 59
72 97 58
68 92 54
65 89 52
71 96 58
67 91 55
67 91 53
63 87 51
67 91 54
67 91 53
63 87 52
86 107 85
100 117 105
134 150 153
130 145 146
140 155 161
122 139 137
66 90 53
64 88 51
71 96 57
65 88 52
65 88 52
64 87 52
63 86 50
63 86 51
61 84 49
57 78 45
60 82 48
70 94 57
70 93 62
85 103 87
116 132 128
131 146 146
132 146 149
135 150 151
65 89 52
70 94 56
60 82 48
66 90 54
67 90 55
69 93 56
56 77 44
65 88 52
62 85 50
66 90 53
63 86 51
68 90 61
84 102 83
93 111 96
113 129 124
117 133 130
132 147 149
128 142 145
115 130 126
74 93 72
100 115 106
108 123 119
122 137 138
137 153 154
125 139 142
139 153 157
126 139 140
128 143 143
133 147 152
134 148 151
135 149 153
124 138 138
121 135 132
135 149 156
112 127 122
115 129 131
112 125 125
87 103 92
59 82 47
64 86 51
60 82 48
62 85 49
63 85 51
54 74 42
64 86 51
63 85 51
53 74 42
61 83 48
60 81 47
58 79 46
62 84 49
61 84 49
60 82 48
85 103 88
84 101 86
96 112 103
90 107 93
68 87 64
61 82 52
63 86 51
60 82 48
56 76 44
58 78 47
59 81 47
54 75 43
57 78 45
61 83 48
50 70 39
60 82 47
57 78 46
56 78 44
52 73 41
57 78 45
53 73 42
55 75 43
92 109 96
117 131 130
131 145 149
118 134 130
118 133 130
118 132 132
120 135 135
111 127 124
127 141 146
112 126 124
119 134 134
131 145 149
126 141 143
122 136 136
124 138 138
120 134 136
121 134 137
131 146 149
117 131 134
76 95 74
59 81 47
57 78 45
58 79 46
62 85 50
61 83 49
54 75 43
55 76 41
59 81 48
59 81 47
55 75 43
49 70 38
53 73 41
59 80 46
52 73 42
62 84 50
65 88 52
64 86 54
87 102 91
114 129 126
106 123 119
98 113 107
93 106 99
116 130 129
86 104 90
84 101 85
70 87 71
67 84 65
85 100 90
67 88 60
65 83 62
56 77 45
57 79 45
59 81 47
50 70 40
49 69 38
87 103 93
133 148 150
121 135 139
111 125 126
105 120 116
126 140 142
117 131 133
125 139 140
116 130 130
119 134 133
128 142 144
121 136 135
133 148 153
124 139 140
142 157 164
123 137 135
129 145 145
122 139 139
87 105 90
61 83 48
60 81 48
58 80 47
62 85 50
57 79 46
53 73 42
62 85 49
55 75 43
59 81 47
58 80 46
59 81 48
58 80 46
54 75 41
63 86 51
64 87 51
64 86 54
94 109 102
117 131 131
122 137 135
111 126 125
122 135 136
132 146 149
132 147 151
128 142 144
121 137 136
137 152 158
129 145 145
128 142 144
135 149 155
123 138 137
138 153 159
131 146 150
111 127 122
67 88 60
76 95 73
73 94 68
79 98 77
80 100 76
97 113 102
100 116 108
111 127 121
134 150 152
117 133 127
86 104 87
81 99 85
70 91 65
66 88 59
68 89 60
118 134 131
137 151 157
130 145 145
131 146 147
137 154 155
137 152 155
119 135 131
131 147 149
127 143 141
114 130 125
134 150 153
136 152 157
121 137 140
149 163 171
125 141 141
71 94 62
63 86 51
60 83 47
62 85 48
64 88 52
62 84 49
61 84 49
62 85 50
67 90 54
61 84 48
64 87 51
61 83 48
61 84 49
116 134 128
135 151 154
134 150 152
127 143 143
146 162 167
142 158 164
142 158 166
137 152 156
130 146 149
124 140 138
110 127 121
94 115 95
81 102 78
135 150 153
138 153 158
136 154 156
147 162 169
135 150 148
137 152 156
145 161 169
142 159 162
153 168 173
134 150 148
135 152 151
102 122 105
67 91 54
68 93 55
66 91 52
70 94 57
86 106 86
122 139 136
142 158 162
138 154 158
152 167 172
108 129 115
70 96 57
70 95 56
69 94 56
71 96 58
69 94 56
75 99 67
106 125 116
107 128 115
78 104 66
77 103 62
98 120 101
155 171 178
152 168 175
146 163 167
143 160 165
150 168 177
154 171 177
138 157 155
139 157 156
193 206 219
218 229 243
227 239 254
227 239 254
227 239 254
227 239 254
227 239 254
227 239 254
227 239 254
227 239 254
227 239 254
227 239 254
227 239 254
227 239 254
227 239 254
227 239 254
227 239 254
227 239 254
227 239 254
227 239 254
227 239 254
227 239 254
227 239 254
227 239 254
227 239 254
227 239 254
227 239 254
227 239 254
227 239 254
227 239 254
227 239 254
227 239 254
227 239 254
227 239 254
227 239 254
227 239 254
227 239 254
227 239 254
227 239 254
227 239 254
227 239 254
227 239 254
216 228 242
163 178 182
114 136 123
118 139 130
147 164 166
159 175 182
141 159 164
108 130 118
74 101 62
73 99 59
99 121 99
142 160 165
130 149 147
157 174 182
146 163 168
152 169 175
145 163 168
139 158 159
114 133 122
90 112 90
73 99 60
73 99 60
71 97 58
67 92 55
68 92 55
72 98 59
131 148 147
104 124 112
78 102 75
72 97 58
64 88 52
71 96 57
67 92 55
74 100 61
65 89 52
67 92 55
70 95 57
81 104 76
114 131 124
133 151 152
139 155 161
152 166 174
132 149 148
67 91 54
68 91 54
68 92 54
68 92 55
67 91 54
64 87 52
67 91 53
62 84 49
73 97 61
85 106 83
114 133 126
130 146 147
125 143 139
144 159 163
155 169 175
138 152 160
133 149 149
124 140 139
60 83 48
65 88 52
61 84 49
65 88 53
71 96 57
66 90 53
60 83 49
58 79 47
69 94 56
83 105 76
106 123 116
116 132 129
137 151 157
136 151 154
141 157 161
125 139 139
133 149 150
122 138 139
64 87 50
59 80 46
60 82 48
66 90 53
60 82 47
65 89 53
62 85 49
60 82 47
66 89 52
61 83 48
60 83 48
65 89 53
59 81 46
59 81 47
64 87 54
82 102 78
103 119 112
126 140 143
117 134 133
104 120 113
112 129 127
110 125 120
120 135 134
119 135 133
123 139 141
124 139 138
110 126 123
127 141 143
133 148 151
132 146 151
129 144 145
129 144 147
129 144 146
135 150 154
135 150 156
123 139 138
115 131 130
116 131 132
55 76 42
59 81 47
54 76 43
65 88 52
61 83 49
58 80 46
60 83 48
52 72 40
57 78 45
60 82 48
80 98 77
85 102 85
98 114 104
110 125 122
128 142 147
131 146 149
136 151 154
125 140 143
134 148 150
56 76 43
60 83 48
60 82 47
57 79 45
61 83 48
55 76 43
64 87 51
58 79 46
57 78 45
56 78 44
61 82 49
60 82 48
65 88 53
55 76 43
55 76 43
57 78 46
62 83 50
52 72 41
83 100 83
124 138 139
139 153 160
135 148 154
125 140 143
116 131 129
121 136 134
118 132 136
130 143 150
115 130 130
117 132 129
131 146 149
121 135 136
115 130 130
123 137 138
125 139 141
131 146 150
115 130 131
125 139 140
113 127 125
57 78 45
56 77 45
61 83 49
55 76 43
57 78 44
55 77 44
74 94 69
79 96 81
74 92 77
93 108 97
103 117 111
103 119 113
115 130 129
116 132 130
120 133 136
128 143 144
120 134 135
123 136 137
78 95 78
65 88 52
57 78 46
58 81 46
59 80 47
51 72 40
58 79 46
56 77 44
57 78 46
58 79 46
58 80 46
57 78 45
59 82 47
53 73 43
54 75 42
53 73 41
57 78 45
56 77 44
106 121 115
124 138 136
104 118 116
128 142 146
123 137 139
116 131 132
124 139 140
126 141 144
127 140 142
124 139 138
126 140 143
114 129 128
128 141 143
124 140 143
115 129 129
130 144 146
138 152 158
120 135 132
67 88 60
59 80 46
57 78 45
57 78 45
61 83 49
62 85 50
54 74 43
57 79 46
56 77 44
59 81 48
61 83 49
57 79 44
62 84 50
60 81 47
58 80 46
65 89 51
71 92 64
103 118 116
126 140 138
132 145 149
129 144 148
134 149 152
131 146 150
136 150 153
136 150 156
123 137 139
132 147 151
127 141 143
126 141 144
132 147 151
118 133 132
129 145 147
118 134 135
90 107 95
89 105 93
90 106 96
108 124 117
134 149 152
121 136 138
135 151 155
127 141 142
126 141 141
130 145 148
128 144 145
141 157 162
131 146 150
125 140 143
136 150 155
122 138 137
81 102 80
91 111 93
107 125 114
103 119 109
112 127 125
117 133 130
129 145 146
137 152 155
132 147 150
124 141 141
137 153 155
137 153 154
145 159 168
137 153 156
114 130 125
66 88 58
62 85 50
62 85 49
66 90 53
70 94 57
67 90 53
65 88 52
65 89 53
68 93 55
61 84 49
66 91 53
67 90 54
69 94 56
111 128 123
135 150 151
145 160 166
120 137 136
139 154 159
133 150 150
140 155 160
151 168 175
129 145 146
133 149 151
143 159 160
138 153 158
134 151 152
121 139 133
113 130 123
131 148 147
135 149 155
137 153 157
155 171 180
140 156 158
145 162 168
147 164 170
150 168 175
140 157 160
119 137 134
72 97 58
71 97 58
68 93 56
74 100 61
69 94 56
68 93 55
70 93 65
106 128 111
110 129 117
117 136 129
83 107 77
73 99 60
68 93 55
70 95 57
72 98 59
72 98 59
73 99 59
78 101 71
113 133 119
118 138 130
122 141 136
145 162 167
161 178 187
163 180 194
153 169 176
141 159 161
148 165 172
172 188 199
156 173 181
159 176 185
189 204 216
212 224 238
227 239 254
227 239 254
227 239 254
227 239 254
227 239 254
227 239 254
227 239 254
227 239 254
227 239 254
227 239 254
227 239 254
227 239 254
227 239 254
227 239 254
227 239 254
227 239 254
227 239 254
227 239 254
227 239 254
227 239 254
227 239 254
227 239 254
227 239 254
227 239 254
227 239 254
227 239 254
227 239 254
227 239 254
227 239 254
227 239 254
227 239 254
227 239 254
227 239 254
227 239 254
227 239 254
227 239 254
215 227 241
166 182 186
96 118 94
122 141 134
153 171 180
156 173 182
121 140 130
93 115 94
80 107 66
71 96 57
90 113 86
119 138 131
125 143 137
153 169 175
156 172 179
162 177 187
151 168 175
138 155 158
107 126 116
76 101 67
69 94 56
70 95 57
73 99 60
77 103 63
71 96 57
72 96 60
108 125 115
146 162 165
84 107 78
68 93 55
68 93 56
69 94 56
73 98 59
69 94 56
71 96 57
65 88 51
75 99 65
106 124 114
122 141 134
147 163 169
147 163 171
139 156 159
148 164 168
137 153 155
148 163 170
80 102 73
65 89 53
67 91 54
65 89 52
65 89 53
72 96 61
94 114 95
121 138 136
135 151 153
144 160 164
141 156 160
148 163 170
146 161 164
142 158 162
144 160 167
147 162 171
131 147 147
146 161 166
68 92 54
65 88 52
70 95 57
58 80 46
64 87 51
64 88 51
89 108 90
117 133 130
117 134 131
132 148 151
130 146 148
142 157 164
128 143 146
144 160 165
132 147 147
134 149 151
135 150 154
129 144 144
93 112 99
60 82 48
61 84 48
67 92 54
64 86 51
58 80 45
60 82 47
68 93 55
63 86 51
64 87 51
62 85 50
75 94 75
108 125 116
106 121 118
115 131 128
119 134 134
140 154 162
125 140 140
128 143 145
74 94 70
60 82 48
59 82 47
58 80 45
83 102 83
83 101 87
100 119 108
92 108 98
133 148 153
112 128 126
137 151 155
134 149 152
137 150 153
133 147 151
135 150 154
143 157 163
117 132 131
118 133 132
124 138 139
78 96 80
63 86 50
67 91 54
59 80 47
65 87 55
76 96 74
93 111 98
126 142 140
130 145 145
118 133 131
129 144 147
117 132 133
126 138 142
127 141 144
120 135 135
117 130 134
126 141 143
127 142 145
136 150 154
77 94 79
62 84 50
56 78 45
61 83 49
62 85 50
58 79 46
58 80 46
56 77 44
54 75 42
59 81 47
60 81 48
63 87 51
64 87 52
61 83 49
59 81 48
55 76 44
60 83 48
52 73 40
59 81 47
104 120 113
126 141 142
114 128 130
129 143 148
128 143 144
120 133 134
125 140 143
121 136 136
134 149 150
111 126 122
124 138 143
111 126 122
119 133 133
128 144 148
132 146 151
127 142 143
126 142 140
130 144 146
106 123 114
84 102 87
80 98 82
116 132 129
109 124 120
112 126 125
129 143 146
121 137 135
129 144 148
116 129 130
122 136 135
135 150 154
125 139 142
122 136 137
139 154 158
117 129 130
123 137 136
123 137 140
113 127 124
105 121 115
59 81 47
60 82 49
60 82 48
64 87 51
58 80 47
58 80 47
51 70 40
60 82 48
63 86 51
58 79 47
57 78 46
68 91 54
54 75 42
54 75 42
58 80 46
53 73 41
61 83 48
60 80 49
132 148 152
122 137 137
145 160 166
138 151 156
134 148 153
117 131 133
121 136 139
132 147 149
130 144 145
130 144 149
129 145 144
124 138 138
127 140 145
122 137 136
117 131 132
137 151 157
128 142 143
108 123 120
54 75 42
59 81 47
58 80 46
54 75 43
61 83 49
61 84 49
61 83 49
57 79 45
56 78 45
60 82 48
58 80 46
60 83 48
56 78 45
59 81 47
56 77 44
59 82 47
75 95 72
140 155 159
140 154 161
136 152 158
125 140 142
133 147 152
143 157 162
135 150 155
134 149 152
131 147 148
111 127 123
102 119 111
90 107 94
101 117 108
77 97 73
65 87 55
61 83 49
128 144 144
122 137 137
125 140 142
117 133 132
141 156 162
123 136 137
139 154 159
129 145 146
134 148 155
133 149 151
138 154 158
128 143 143
133 148 150
128 144 147
115 132 128
145 159 165
72 93 64
63 86 50
62 83 50
67 91 54
56 78 44
69 93 55
63 87 51
63 86 54
78 97 76
87 106 90
102 119 109
101 120 108
98 117 105
116 134 126
101 117 108
64 87 52
67 92 54
57 79 45
67 92 56
60 83 48
62 86 50
64 88 52
66 89 53
61 84 48
64 88 52
64 87 51
69 94 55
67 91 53
111 129 120
146 162 168
144 159 164
138 154 156
143 158 163
146 163 169
148 164 170
140 156 163
150 166 172
146 162 169
143 160 165
126 145 144
148 163 169
101 120 107
67 91 54
68 92 54
81 104 76
109 127 118
107 126 113
125 144 143
140 156 158
152 168 175
143 159 162
142 158 163
123 139 137
74 97 64
72 96 57
70 95 57
68 94 56
74 101 61
72 98 59
66 91 53
68 93 55
72 97 59
71 95 60
117 136 127
92 113 92
82 106 77
70 95 57
67 92 55
70 95 57
71 97 58
74 100 64
115 134 127
150 168 175
111 131 118
138 156 157
149 164 169
168 185 196
160 177 188
120 139 131
98 120 102
125 145 139
148 167 174
164 181 189
164 180 188
164 180 188
207 219 232
227 239 254
227 239 254
227 239 254
227 239 254
227 239 254
227 239 254
227 239 254
227 239 254
227 239 254
227 239 254
227 239 254
227 239 254
227 239 254
227 239 254
227 239 254
227 239 254
227 239 254
227 239 254
227 239 254
227 239 254
227 239 254
227 239 254
227 239 254
227 239 254
227 239 254
227 239 254
227 239 254
227 239 254
227 239 254
227 239 254
227 239 254
225 237 252
197 211 221
126 144 134
116 136 123
146 164 167
161 179 188
153 170 173
126 147 143
80 105 72
71 97 58
78 104 68
107 129 112
134 153 154
159 176 186
168 184 196
151 168 176
158 175 185
158 173 181
118 136 129
92 113 93
73 100 61
76 103 63
75 101 61
70 96 57
73 99 60
72 96 61
94 113 95
126 144 145
155 170 178
154 170 179
157 171 180
90 113 88
70 95 56
75 101 61
67 92 54
69 93 55
65 89 52
105 124 111
126 142 140
144 160 163
143 160 163
143 159 161
146 161 168
146 162 166
154 170 179
137 153 157
142 157 167
145 162 168
71 94 62
71 96 58
68 91 57
87 108 82
123 140 138
143 158 161
137 152 155
159 174 185
134 149 153
144 160 165
150 164 173
134 151 155
152 169 177
142 158 161
144 159 167
138 154 158
144 160 166
137 153 154
62 86 50
68 92 54
74 95 67
106 124 117
116 132 129
128 142 141
151 166 175
144 159 162
131 147 150
132 148 150
140 156 160
135 151 153
140 154 159
134 151 152
131 146 147
146 162 167
137 152 155
137 153 158
92 111 98
66 90 53
67 91 54
64 88 51
63 87 50
68 92 56
63 86 51
72 93 66
105 122 115
115 132 128
136 151 155
130 144 147
136 150 154
131 147 150
138 154 155
135 150 154
147 162 167
136 150 152
134 148 151
95 112 101
65 88 52
62 85 50
64 87 51
60 82 48
64 88 52
61 83 48
57 79 45
67 91 54
62 83 49
66 88 55
72 91 69
95 112 98
94 111 99
104 120 113
121 138 136
114 129 127
139 153 157
123 139 138
96 114 101
86 104 91
109 125 120
117 133 130
137 152 156
127 141 142
127 141 143
135 150 153
123 137 141
123 138 135
122 136 137
125 139 142
126 141 143
136 152 153
128 143 143
145 158 166
133 146 150
124 138 138
117 133 129
101 118 109
61 82 49
61 83 47
61 82 48
63 86 52
64 87 52
61 83 49
66 89 53
55 77 44
64 87 52
56 78 45
59 81 47
63 85 50
57 79 44
57 78 45
62 85 50
61 84 49
58 80 46
59 82 47
83 99 86
129 143 145
125 139 143
120 134 137
124 138 139
136 150 156
114 130 126
131 147 151
123 138 138
119 134 131
107 123 116
87 105 87
83 101 85
81 100 79
68 90 57
56 78 44
61 83 49
60 82 49
66 89 53
81 99 87
131 146 148
128 143 145
139 154 156
126 140 138
118 133 131
118 133 131
128 142 146
130 145 149
109 124 121
122 136 137
123 136 139
138 154 157
124 139 139
112 126 121
121 137 139
128 142 148
113 129 128
118 132 128
88 106 92
61 84 49
61 84 48
60 82 48
58 79 46
63 86 51
60 81 47
60 82 48
61 84 50
55 76 43
57 79 46
51 71 39
57 79 46
60 82 47
63 87 51
60 83 47
62 85 51
58 81 46
94 110 100
125 140 142
109 125 118
139 153 157
122 136 138
125 139 142
127 143 142
136 151 154
136 152 154
126 139 139
127 141 145
129 143 146
113 128 124
128 142 144
130 144 146
126 140 143
126 141 142
127 143 143
93 111 97
58 79 46
58 80 47
59 82 46
56 78 45
61 84 48
60 81 48
59 81 48
62 85 50
56 76 44
60 83 48
59 81 47
59 81 47
63 86 51
56 77 44
65 88 52
63 85 51
111 127 119
115 130 127
114 130 125
96 113 102
97 114 99
86 105 85
77 97 74
64 87 54
58 81 47
66 90 54
53 74 42
59 80 47
63 86 50
56 77 43
58 78 45
60 82 47
74 95 65
120 136 137
135 149 151
126 142 142
142 157 160
128 144 143
123 138 138
133 148 149
136 151 153
134 150 155
139 153 157
120 134 135
127 142 144
140 157 157
128 142 145
116 133 127
111 127 125
66 89 56
66 90 53
71 95 57
58 80 46
65 89 52
58 80 45
66 90 52
59 82 47
65 89 53
65 88 52
60 83 49
62 84 50
66 90 54
64 87 51
100 117 105
143 160 163
127 144 142
122 139 136
113 130 123
105 123 110
80 100 76
82 103 78
64 88 51
71 96 57
69 93 55
66 90 52
72 97 59
63 85 50
120 136 134
146 163 168
141 157 162
146 161 165
139 156 158
149 164 171
145 162 167
157 171 177
142 158 163
134 150 155
146 162 167
141 158 163
142 159 160
83 105 82
68 93 56
66 89 52
65 90 53
69 94 56
72 97 58
76 101 64
93 114 95
116 134 126
131 149 147
154 169 175
132 148 146
81 104 76
72 98 59
70 95 57
65 90 53
70 95 56
69 94 56
72 98 59
70 95 58
75 101 61
76 100 68
133 151 149
149 164 171
130 149 146
118 136 130
94 116 88
67 91 54
75 101 61
72 98 59
91 112 91
116 136 128
68 92 56
77 104 64
113 132 119
133 152 150
157 171 179
152 169 175
89 113 81
78 105 65
110 132 116
144 161 165
148 167 170
116 138 129
143 160 156
197 211 224
224 235 250
227 239 254
227 239 254
227 239 254
227 239 254
227 239 254
227 239 254
227 239 254
227 239 254
227 239 254
227 239 254
227 239 254
227 239 254
227 239 254
227 239 254
227 239 254
227 239 254
227 239 254
227 239 254
227 239 254
227 239 254
227 239 254
227 239 254
227 239 254
227 239 254
227 239 254
227 239 254
222 233 247
192 206 216
159 174 182
146 162 166
147 165 171
170 187 200
134 153 155
118 140 130
75 102 61
77 105 63
82 107 72
121 140 132
156 172 179
150 168 176
152 169 177
155 170 179
153 168 175
130 147 145
109 130 118
71 98 58
70 96 57
69 94 56
71 97 58
69 94 55
69 94 56
75 100 66
122 141 134
146 163 167
153 169 177
146 161 167
146 163 168
161 176 185
148 164 171
68 92 54
67 92 54
69 95 56
81 104 78
107 124 117
145 162 167
153 168 175
150 166 172
128 145 145
148 164 169
145 161 168
147 163 169
146 163 170
138 154 157
151 167 173
140 155 159
142 158 162
114 131 124
115 133 127
147 163 170
145 161 165
135 151 153
134 151 155
149 165 172
138 155 159
133 149 151
140 156 161
140 156 160
144 160 165
150 165 172
132 148 152
141 156 161
146 162 169
139 154 156
134 150 150
115 134 125
127 143 142
144 161 165
142 158 166
143 159 163
140 155 159
135 151 156
144 160 163
144 160 168
142 159 161
138 153 156
142 157 162
133 150 156
145 160 165
140 155 161
137 152 155
140 156 160
145 161 166
108 125 119
58 80 45
62 84 49
69 91 61
98 116 104
109 125 119
116 131 131
133 149 150
134 150 151
132 148 152
137 152 157
152 167 172
146 161 167
126 140 141
132 148 152
127 142 143
134 149 153
127 142 145
137 152 157
102 118 112
61 84 49
55 77 43
65 89 53
62 84 49
64 87 52
64 87 52
63 85 50
60 82 47
53 75 42
61 83 48
66 90 53
58 80 46
59 81 47
75 95 72
89 107 94
116 131 128
116 132 131
136 151 154
116 131 131
85 104 85
79 98 76
95 110 102
116 132 128
115 130 127
117 132 128
118 134 132
124 140 141
136 152 156
130 144 147
128 143 144
134 148 151
134 149 151
132 146 153
116 132 129
128 142 145
138 152 154
131 146 150
116 129 130
67 91 54
64 86 51
58 80 46
67 91 53
64 87 51
57 78 45
63 86 50
63 85 50
65 89 52
57 78 45
57 78 46
64 87 52
63 86 51
62 85 51
59 81 47
60 82 48
61 82 49
59 81 48
58 80 46
129 144 146
115 130 128
86 103 88
84 103 84
83 104 83
74 94 68
60 80 51
61 83 48
57 79 45
58 81 46
59 80 47
56 77 45
59 81 47
58 79 46
62 85 49
61 85 50
60 82 48
58 80 46
60 82 48
120 136 136
125 140 143
132 147 149
112 127 127
126 141 142
132 146 147
125 140 141
133 149 153
127 141 141
122 137 138
119 133 133
130 145 146
137 152 157
115 131 130
128 142 146
126 139 138
129 144 144
128 143 144
124 139 139
65 85 57
62 85 50
54 75 43
57 80 47
56 77 44
57 78 45
62 85 50
57 79 45
59 81 47
57 80 45
57 78 45
59 81 47
66 90 53
61 84 49
54 75 43
58 80 46
63 86 50
60 83 48
122 136 134
136 150 155
119 134 135
128 143 145
140 155 159
136 151 153
130 144 148
124 141 141
132 146 148
135 149 151
126 140 142
127 142 143
119 134 132
111 126 126
133 148 153
133 148 152
136 149 152
127 142 142
76 95 75
61 84 49
61 84 49
58 79 46
59 80 47
64 87 52
76 96 74
88 106 91
83 101 85
104 120 115
109 125 117
115 132 127
105 122 117
124 139 141
123 138 136
121 135 135
135 151 156
85 105 83
59 80 47
66 89 54
60 82 48
65 88 52
58 80 46
59 81 46
64 87 50
58 80 46
61 84 49
57 79 46
62 84 50
59 82 47
56 78 45
64 87 51
63 85 50
78 97 77
135 151 154
134 149 153
133 148 151
108 125 118
124 140 140
125 139 142
134 150 152
130 147 147
128 143 142
137 152 155
143 157 162
123 138 138
132 147 149
140 155 158
129 145 147
107 124 117
64 88 52
62 84 49
64 88 51
61 84 48
61 83 49
67 91 54
63 87 50
65 89 52
65 90 52
62 85 50
61 84 49
62 84 50
69 94 56
65 89 52
110 127 121
136 151 157
144 159 163
150 165 173
139 155 160
139 153 157
142 156 162
135 150 156
129 145 143
114 130 127
109 126 119
91 111 92
84 105 81
79 104 67
130 149 148
137 154 157
130 147 148
144 160 166
146 162 171
144 160 167
143 161 165
135 152 155
142 159 160
154 169 178
144 160 163
145 162 167
151 167 176
89 110 91
65 90 53
71 97 58
70 95 56
71 96 57
71 96 57
67 92 55
66 92 53
71 97 58
71 96 58
81 100 81
92 114 93
100 120 103
86 108 83
76 101 64
76 102 63
72 98 59
70 95 57
75 100 61
73 98 60
68 93 55
66 91 54
125 141 137
149 166 170
155 171 181
145 161 165
135 153 151
139 156 159
99 120 102
72 97 58
85 108 83
117 137 130
73 99 60
74 100 60
77 104 63
82 107 76
112 132 119
130 147 148
141 159 158
88 112 83
79 107 65
94 117 94
112 132 122
137 155 153
113 133 120
132 151 147
189 203 212
223 234 249
227 239 254
227 239 254
227 239 254
227 239 254
227 239 254
227 239 254
227 239 254
227 239 254
227 239 254
227 239 254
227 239 254
227 239 254
227 239 254
227 239 254
227 239 254
227 239 254
228 239 254
227 239 254
228 239 254
228 239 254
228 239 254
228 239 254
215 227 240
182 196 204
150 167 173
130 150 145
92 115 89
162 179 190
135 155 153
97 120 98
78 105 65
74 101 61
84 108 81
135 152 153
152 169 175
151 168 174
150 167 173
160 177 186
146 163 168
124 141 138
88 110 89
77 104 64
75 102 62
72 97 57
73 99 60
73 98 60
72 98 59
97 118 100
127 146 144
150 166 171
153 168 174
151 168 177
149 165 172
148 164 170
140 156 160
149 166 172
147 164 170
90 113 85
109 128 119
139 155 157
154 171 182
133 150 152
148 165 172
150 167 175
157 173 182
153 169 178
148 164 173
156 173 181
148 165 170
146 162 169
151 168 176
121 139 134
105 123 113
76 99 71
120 138 134
149 164 167
136 153 154
134 150 152
143 158 164
148 164 172
138 154 157
148 164 168
144 159 163
143 158 160
146 161 167
152 166 175
147 162 167
151 167 170
116 134 127
111 127 124
97 116 97
68 92 54
123 140 139
137 152 154
148 165 172
143 159 165
143 159 163
141 157 161
141 158 160
143 159 164
139 154 161
151 165 172
131 146 148
139 153 158
141 156 160
143 159 165
148 163 172
133 149 151
136 152 156
139 155 158
121 137 131
106 123 114
123 139 138
133 149 155
139 153 157
142 158 161
142 157 162
131 146 149
130 146 148
140 156 162
134 149 155
136 150 155
133 147 148
134 147 151
135 150 152
130 146 150
146 160 166
129 146 144
132 147 149
134 150 152
62 84 50
62 85 50
54 76 43
66 90 54
65 88 52
73 98 59
70 94 56
64 87 51
73 95 62
84 103 85
107 125 118
110 127 119
128 143 145
119 134 131
140 154 157
135 149 153
136 152 157
130 146 148
135 149 154
70 91 60
59 81 46
65 88 52
68 92 55
61 84 48
64 88 51
64 86 51
55 76 44
60 82 47
61 84 48
83 104 79
74 95 71
80 98 81
92 109 97
102 119 109
99 114 107
112 129 123
112 128 123
108 124 118
96 113 103
68 89 63
65 86 54
67 88 60
64 86 51
66 89 54
60 82 47
56 76 45
62 84 50
57 78 45
59 81 46
54 74 42
75 96 69
77 96 78
88 106 88
94 112 99
113 128 126
133 149 149
124 139 141
85 102 92
60 82 47
64 87 52
59 81 47
59 80 47
62 84 49
63 86 50
60 82 47
59 81 47
59 81 48
55 76 44
65 87 52
62 85 49
58 80 47
58 79 45
55 75 43
56 77 44
64 87 50
60 82 48
86 105 86
121 135 137
123 138 141
128 142 144
132 146 150
122 137 138
119 135 130
130 145 149
130 145 148
123 138 138
135 150 153
136 150 153
132 146 147
122 135 136
126 141 143
133 148 151
124 139 142
112 127 125
146 159 165
100 117 111
63 86 51
60 83 49
63 86 51
65 88 53
62 84 49
58 80 47
64 88 51
56 77 44
60 82 47
65 87 52
56 78 45
60 83 48
65 88 53
60 82 48
56 78 44
62 84 49
60 83 48
82 103 83
135 150 153
129 144 146
132 147 148
132 147 149
137 152 157
147 162 170
130 145 147
113 128 125
137 153 159
115 130 126
128 143 144
117 131 130
112 129 127
114 130 125
109 126 120
97 113 108
94 111 100
83 101 83
122 137 135
120 134 133
128 144 144
119 135 134
142 159 164
135 151 154
135 151 155
138 154 161
135 149 148
112 126 125
123 136 140
122 138 138
140 155 158
124 139 136
134 148 151
134 149 153
124 139 135
69 88 64
62 85 50
63 86 51
61 83 49
63 86 50
67 91 53
61 84 49
62 85 49
58 80 47
56 78 45
59 81 47
64 88 53
61 84 48
65 89 53
69 93 56
64 87 51
89 108 92
146 161 167
141 156 162
132 147 149
146 161 168
134 149 150
130 146 147
129 144 146
122 138 139
143 158 163
134 149 151
145 160 166
138 153 160
131 146 151
139 154 159
133 149 151
101 119 105
63 87 51
67 91 53
63 86 50
63 87 52
63 87 51
64 88 51
63 86 50
63 86 50
63 86 50
70 94 57
66 90 53
60 82 48
63 87 50
61 84 49
117 135 128
143 159 165
148 164 171
141 155 158
144 160 169
146 161 166
145 160 165
145 160 164
138 154 157
135 150 154
142 158 162
140 156 160
147 161 166
143 159 162
135 153 150
107 124 115
118 134 129
132 148 149
137 153 160
142 159 164
143 158 165
141 157 162
148 164 172
146 161 170
140 156 158
148 165 169
150 166 174
91 112 96
68 92 55
66 90 53
72 97 59
69 93 56
64 89 52
72 97 58
69 94 56
69 94 56
67 92 54
73 98 59
79 104 69
142 158 161
145 162 165
128 146 143
108 128 114
87 108 85
68 93 56
73 100 61
74 100 60
70 96 56
69 95 57
110 130 120
163 178 188
149 164 171
149 166 171
158 174 185
151 167 177
155 172 180
130 148 145
135 153 154
125 143 139
74 99 63
75 102 62
76 103 63
79 107 65
74 100 60
73 96 63
99 120 103
84 110 75
75 101 62
76 103 62
74 102 61
109 131 113
90 114 89
82 108 75
113 134 117
178 192 200
220 232 247
228 239 254
228 239 254
228 239 254
228 239 254
228 239 254
228 239 254
227 239 254
227 239 254
227 239 254
227 239 254
228 239 254
228 239 254
228 239 254
228 239 254
228 239 254
228 239 254
228 239 254
228 239 254
217 229 243
176 192 200
159 176 183
128 148 143
83 108 77
91 116 87
108 128 113
81 107 71
71 98 57
78 105 70
107 129 117
154 170 178
160 178 189
165 181 193
155 172 180
153 170 179
149 166 172
113 134 122
76 102 68
76 103 62
90 113 86
72 98 59
69 93 55
71 96 58
85 110 80
119 135 131
154 170 175
155 172 181
149 165 172
151 167 173
155 171 178
152 168 175
154 170 179
157 174 181
135 153 154
121 138 133
95 115 98
147 163 168
143 157 163
145 162 168
142 158 165
145 161 166
149 166 174
149 164 169
149 164 172
149 164 167
145 161 167
139 155 158
133 150 150
119 137 128
83 106 78
68 93 55
77 103 62
66 90 53
138 155 157
154 172 181
138 155 161
139 155 157
155 170 178
139 157 162
146 163 171
132 148 149
137 153 156
142 158 162
130 145 144
125 143 141
101 120 106
73 94 67
69 94 56
69 94 55
71 96 58
62 85 49
108 126 117
135 152 157
154 170 176
149 165 172
147 163 172
142 157 162
134 148 150
144 159 163
143 157 162
136 152 158
139 155 160
146 161 169
135 151 157
134 148 151
137 152 156
120 137 132
94 112 94
65 89 53
65 88 52
132 147 148
148 163 168
134 151 154
147 163 167
132 147 150
133 149 153
140 155 160
125 140 139
140 155 157
141 156 161
135 150 152
134 149 152
135 150 153
131 147 148
137 152 157
134 150 152
146 160 167
142 156 161
132 146 148
83 103 82
66 90 53
68 92 54
69 93 56
67 89 59
87 107 87
108 127 118
121 137 133
125 142 138
132 147 150
133 149 152
131 145 150
138 153 156
138 152 157
125 139 140
142 157 163
139 154 161
125 141 142
122 137 135
87 105 91
65 89 53
64 86 51
68 92 54
65 89 53
62 84 50
60 82 47
56 77 44
58 80 45
59 81 47
63 86 50
58 80 46
60 82 48
64 87 52
69 93 55
65 89 54
62 85 49
62 84 50
58 79 46
81 99 81
128 141 144
140 155 159
142 157 163
138 152 158
131 146 151
116 133 130
94 111 102
82 103 77
70 92 61
79 98 76
105 122 115
109 125 120
93 110 98
117 134 132
114 130 126
101 117 110
109 126 119
122 139 137
120 135 131
74 95 69
69 88 63
73 93 67
66 88 55
71 93 64
59 81 47
61 83 48
59 81 46
65 89 52
56 77 44
68 91 55
65 89 53
61 82 47
59 81 48
63 85 50
63 86 50
58 81 47
65 88 53
65 87 56
126 142 143
118 134 131
130 145 147
142 157 161
126 142 138
134 150 153
129 145 147
127 143 139
109 125 118
125 140 140
141 156 160
123 137 139
123 138 140
130 144 148
128 144 147
127 141 140
131 146 148
130 145 146
119 135 136
59 79 53
61 83 49
65 89 52
63 85 53
62 85 50
59 81 47
76 98 71
62 82 55
81 99 83
77 98 73
79 99 76
66 84 64
73 92 72
101 118 108
89 105 92
98 115 103
98 117 101
103 122 109
111 128 120
79 96 80
88 105 92
93 112 98
93 111 97
81 100 82
68 89 60
70 91 65
59 81 47
66 89 52
61 84 48
59 81 47
54 76 42
59 81 48
61 83 49
60 83 48
62 85 50
64 87 51
105 120 115
130 146 148
135 149 154
137 152 156
144 159 162
121 136 136
133 148 153
136 151 156
146 161 166
132 147 150
132 147 150
139 154 157
134 150 153
135 150 153
123 138 137
140 156 162
129 144 146
116 132 129
62 85 49
67 91 54
60 83 48
60 82 48
65 89 52
63 86 51
56 77 45
64 88 52
66 89 53
64 88 52
65 89 52
62 85 50
62 85 50
62 86 50
63 87 51
56 78 46
130 146 144
134 149 154
128 144 146
117 134 129
136 151 156
136 152 154
135 150 154
145 159 165
130 146 150
141 156 162
143 158 166
138 154 157
140 155 157
140 155 158
129 145 144
139 154 156
100 119 105
64 87 51
63 85 51
61 84 48
63 86 50
64 87 51
70 95 57
63 86 51
65 88 52
63 86 51
66 89 52
69 93 56
66 91 54
63 86 50
77 100 72
121 138 137
132 148 148
144 159 164
143 158 162
140 156 159
134 150 153
150 166 173
127 143 141
135 152 151
135 152 157
151 167 177
144 159 162
145 161 170
147 162 170
85 104 86
66 91 54
71 96 58
70 94 59
83 105 78
114 131 124
109 127 118
124 142 139
129 146 144
138 154 158
147 161 167
141 156 161
148 164 173
102 122 108
69 94 56
68 93 55
71 96 58
69 94 55
69 94 56
75 102 62
71 96 57
66 91 54
76 102 62
71 96 58
73 98 62
137 153 156
159 175 184
153 169 177
144 161 167
153 170 177
124 143 138
118 138 131
94 116 92
70 94 56
74 100 61
97 118 102
135 152 152
148 165 174
165 182 194
150 166 172
157 173 180
149 166 176
71 96 58
83 108 76
89 111 90
88 112 83
79 102 69
74 101 62
73 100 61
73 99 59
80 108 67
76 102 64
101 123 106
130 149 145
98 120 98
74 101 61
71 96 58
79 106 70
104 126 105
93 117 86
100 123 103
165 180 181
216 227 241
228 239 254
228 239 254
228 239 254
228 239 254
228 239 254
228 239 254
228 239 254
228 239 254
228 239 254
228 239 254
228 239 254
228 239 254
228 239 254
228 239 254
212 224 236
185 199 210
145 164 166
118 138 129
86 114 76
99 121 100
129 148 142
156 174 181
102 125 106
86 111 78
119 138 131
154 173 180
165 182 194
161 179 189
156 173 182
159 175 184
121 141 135
84 109 82
74 101 61
75 100 61
74 99 60
68 93 55
110 130 122
92 113 95
93 116 94
142 158 160
152 168 175
150 168 174
159 176 186
158 173 182
146 162 169
159 175 184
151 167 174
154 170 175
151 166 172
106 125 113
80 101 73
75 101 60
74 100 63
158 175 184
159 174 182
149 165 173
147 163 167
153 168 176
142 159 162
146 162 168
151 167 174
133 150 151
121 139 130
75 98 70
70 95 56
67 91 54
63 86 51
67 91 55
73 98 60
67 92 54
116 134 130
145 160 168
143 159 164
144 159 164
130 144 146
151 167 173
147 163 169
158 174 185
143 160 163
99 116 105
62 85 50
70 94 57
67 92 54
65 89 53
65 90 54
70 94 56
69 94 56
63 85 50
108 126 116
143 159 164
138 153 158
145 159 166
137 153 155
142 159 162
135 151 152
140 157 162
140 156 161
147 162 171
141 156 158
117 135 127
106 123 113
89 108 89
63 86 52
69 93 55
68 92 55
62 85 50
63 85 49
114 131 125
132 147 150
145 161 165
140 156 159
136 152 156
141 156 162
140 156 161
144 158 164
124 140 140
142 157 161
139 154 161
126 141 141
136 150 153
136 153 155
147 161 168
141 157 162
140 156 159
141 156 159
149 163 172
107 124 114
99 118 107
121 138 137
139 155 158
129 145 148
132 147 149
129 144 143
135 149 150
128 142 145
138 154 160
129 145 145
123 138 140
129 145 145
133 148 152
133 149 153
144 159 165
128 143 146
126 142 143
135 150 153
113 129 125
58 81 47
62 85 50
64 87 50
66 89 52
63 86 50
62 86 49
65 88 52
62 84 49
72 97 59
64 87 52
58 80 46
64 88 51
64 87 50
63 87 51
68 93 56
65 88 52
60 82 46
65 87 52
62 84 53
121 138 137
106 124 115
96 113 104
93 110 98
73 96 67
61 84 49
63 86 51
63 86 50
61 83 48
60 82 47
61 83 49
60 82 47
64 87 52
58 80 47
59 82 47
63 86 51
66 90 53
58 81 47
58 79 46
98 116 102
126 141 142
131 146 147
145 159 168
134 148 151
140 154 158
134 148 152
118 133 132
130 144 147
122 136 136
127 141 142
124 140 142
139 153 156
131 145 148
123 138 140
129 145 144
113 128 128
122 136 137
121 136 136
119 134 130
79 100 77
92 110 96
87 107 89
80 99 82
80 99 77
91 107 98
81 101 79
69 88 63
90 108 90
82 101 78
76 94 72
76 98 73
74 92 74
80 97 80
78 97 75
76 96 75
71 91 66
69 91 60
122 137 136
131 146 149
127 143 143
123 138 137
129 144 144
131 146 149
133 148 151
139 153 158
128 142 144
129 145 146
135 150 153
129 144 146
131 144 148
139 154 159
136 151 153
136 151 155
135 150 153
130 145 149
120 135 133
80 98 78
87 105 89
87 103 90
89 108 89
99 118 109
97 115 101
105 123 112
105 120 114
104 122 113
125 139 138
120 135 133
112 128 122
114 128 125
113 129 125
118 134 132
118 134 133
126 141 140
121 136 134
91 110 94
77 98 74
72 93 63
78 96 77
78 98 75
85 104 85
77 99 71
80 100 79
85 104 84
73 94 67
79 99 78
94 115 97
76 96 74
92 113 93
71 91 64
91 109 98
82 100 84
100 118 107
123 138 137
115 132 127
108 124 118
122 139 135
115 132 127
115 132 129
104 121 113
100 117 109
112 129 126
98 117 103
102 120 109
95 112 101
91 111 95
88 109 91
80 101 77
89 108 90
127 143 143
143 159 164
132 148 151
134 149 152
143 159 167
134 149 151
147 162 168
129 145 147
129 144 145
134 149 151
133 149 149
138 155 157
135 151 152
143 160 167
140 155 158
124 140 139
76 98 69
68 93 55
67 92 55
66 90 53
62 85 48
62 86 49
61 83 48
70 95 56
70 95 57
67 91 54
66 90 53
70 95 58
67 91 54
60 83 47
72 97 60
132 149 150
148 164 171
153 169 176
139 154 159
155 171 178
142 158 165
139 154 160
162 178 189
142 158 163
142 158 162
142 158 165
152 168 175
138 155 156
136 152 152
102 121 108
65 89 52
64 87 51
66 91 54
65 90 52
69 94 57
70 94 55
67 92 55
74 96 67
101 121 105
106 124 113
131 147 147
135 153 154
100 121 103
69 94 56
66 90 54
71 97 58
70 94 56
73 99 60
69 93 55
70 95 56
72 97 58
73 99 60
66 90 53
80 104 74
131 148 148
148 164 169
140 157 161
137 153 157
151 169 173
166 182 195
148 165 170
147 163 166
123 142 137
101 121 106
88 111 79
148 165 170
161 176 183
155 172 178
145 162 166
149 166 171
68 93 55
77 105 64
74 101 61
77 103 68
118 137 132
130 148 149
108 128 114
79 104 71
79 106 66
77 104 64
78 105 64
91 115 92
153 169 173
140 158 157
104 125 111
82 108 75
73 100 60
113 133 120
129 149 146
100 122 101
86 112 78
159 176 173
213 225 238
228 239 254
228 239 254
228 239 254
228 239 254
228 239 254
228 239 254
228 239 254
228 239 254
228 239 254
228 239 254
213 225 239
188 203 217
140 158 158
113 135 119
76 103 61
103 124 108
137 154 154
164 181 192
156 172 179
150 168 174
120 139 134
163 180 191
157 175 183
159 175 184
152 169 176
165 183 194
120 139 132
89 114 82
77 104 64
72 98 60
69 95 57
75 101 61
74 101 61
85 110 77
103 124 107
120 139 134
157 174 183
154 170 176
159 175 186
158 175 184
153 169 177
158 175 186
150 165 172
153 168 173
117 136 127
90 112 90
75 101 61
72 99 59
71 96 58
73 99 60
81 105 71
144 160 164
147 163 168
152 167 177
142 159 162
147 163 169
144 162 162
124 142 139
94 116 94
69 94 55
73 98 58
71 97 58
73 98 59
73 99 59
75 100 60
67 91 54
71 97 58
67 92 55
106 123 114
139 156 160
150 167 176
147 163 169
156 171 180
138 155 158
99 118 106
73 95 66
71 95 57
69 95 56
70 94 56
61 83 48
68 92 55
64 88 52
68 93 55
69 92 55
72 97 58
72 97 57
108 127 120
137 154 156
145 160 167
145 161 166
134 150 153
147 163 168
139 156 161
141 158 161
116 133 130
93 112 98
69 92 57
67 91 54
67 92 54
67 92 55
67 90 53
69 94 56
69 94 57
65 90 53
67 91 53
95 114 101
145 162 167
126 141 140
147 161 168
154 170 178
140 154 159
137 153 153
137 153 157
136 151 156
143 159 163
129 144 145
142 157 161
145 160 165
141 157 165
136 152 154
128 144 144
112 128 123
97 115 103
80 102 72
90 109 93
147 161 168
138 152 155
134 148 152
139 154 158
146 160 167
139 154 158
145 160 163
139 154 155
137 151 155
120 135 134
144 160 167
131 147 151
133 148 148
146 162 169
129 144 146
138 154 159
132 148 150
145 161 166
126 141 144
71 92 63
63 86 50
61 84 49
62 85 50
60 84 49
60 82 48
59 81 47
58 80 46
63 86 52
58 80 45
59 82 48
67 91 53
60 82 48
87 107 84
82 102 84
111 129 119
122 138 138
138 153 157
134 149 151
114 130 123
65 88 53
64 87 51
64 87 51
62 84 49
58 80 47
61 83 48
66 89 53
62 85 49
61 84 49
66 88 52
59 82 48
65 88 53
64 88 52
59 82 46
63 85 50
63 86 51
64 87 52
62 86 50
70 90 67
122 137 136
139 154 159
130 146 147
117 131 130
135 150 155
125 140 139
119 133 137
144 159 163
136 151 154
122 137 136
128 144 145
128 143 142
128 143 146
122 137 135
122 137 140
124 140 139
150 164 171
130 146 148
133 147 151
78 96 74
56 77 43
61 84 49
68 92 55
66 90 54
63 85 50
60 83 48
60 82 48
64 87 51
56 77 45
66 89 52
63 85 50
61 84 49
61 83 48
67 91 55
63 86 51
59 80 46
58 79 47
64 85 57
119 136 132
130 147 147
126 142 140
119 136 130
106 124 119
104 119 114
108 124 118
95 111 100
94 111 100
81 99 82
88 105 91
79 98 78
72 93 67
72 95 62
58 80 47
62 85 49
60 82 47
64 87 51
87 104 90
127 140 143
132 147 151
145 161 168
132 147 148
143 158 165
140 154 158
133 148 150
121 137 136
124 139 137
129 144 145
123 138 138
140 155 161
133 148 152
138 153 158
128 143 145
126 142 143
139 155 158
120 136 135
60 82 48
68 92 54
56 78 44
60 83 48
56 78 45
62 86 50
60 83 48
68 92 55
57 79 46
71 95 57
63 87 52
59 82 48
68 92 55
66 90 53
62 85 50
69 93 56
69 90 63
129 145 145
143 158 162
142 156 161
149 164 173
137 152 158
137 151 156
133 148 147
139 155 158
127 142 145
141 156 157
128 144 147
138 153 156
125 141 141
130 147 149
141 155 160
145 159 165
126 142 140
68 89 58
61 84 49
75 99 66
79 100 74
71 94 65
81 99 80
87 106 87
103 120 110
85 102 88
104 122 110
110 125 119
125 142 139
113 128 124
136 151 153
140 156 161
134 150 151
70 93 61
70 94 56
65 89 53
68 93 56
61 84 48
66 91 54
65 89 52
66 90 54
70 94 58
61 85 50
64 88 51
69 93 55
64 87 51
67 91 55
78 99 73
137 152 156
147 161 167
146 162 166
129 144 146
138 154 155
146 162 169
144 160 165
148 164 168
149 164 171
142 158 162
144 160 167
144 160 164
146 162 167
138 155 157
97 117 100
68 93 55
67 91 54
71 96 58
65 88 52
69 93 55
70 95 58
65 89 51
73 99 61
64 88 51
68 93 54
75 101 61
79 102 73
105 125 112
119 137 128
108 128 118
83 105 81
71 96 58
73 98 59
72 97 59
74 100 61
69 94 56
71 97 58
70 95 57
75 101 66
126 144 141
153 169 175
157 172 182
146 162 167
147 163 166
153 169 179
159 174 183
155 171 179
149 165 169
149 164 166
144 160 164
142 160 164
140 157 159
149 166 171
122 141 137
74 100 61
71 97 58
76 102 62
73 99 60
76 103 63
135 153 151
154 170 179
160 176 184
131 151 149
111 131 118
86 111 80
75 102 62
77 103 69
125 145 140
159 176 187
156 175 182
130 150 145
109 131 114
84 109 77
126 146 141
144 162 164
117 140 131
94 119 90
168 184 189
212 225 239
228 239 254
228 239 254
228 239 254
228 239 254
228 239 254
228 239 254
216 228 243
179 195 206
146 165 168
112 134 117
77 103 65
109 130 118
156 174 182
174 190 204
159 177 188
149 166 170
122 142 134
142 161 162
163 181 193
155 172 180
165 181 192
145 163 165
112 132 118
74 101 61
74 101 61
71 97 58
77 103 63
77 104 62
77 103 62
107 128 114
136 154 155
150 167 172
115 135 123
87 109 86
155 171 180
157 174 181
154 171 181
161 176 186
154 170 179
129 146 143
102 123 105
81 105 72
68 93 57
76 102 62
67 93 55
66 91 54
73 98 60
75 101 62
79 103 71
150 167 172
152 167 172
135 152 152
130 148 148
90 113 90
73 96 66
74 100 60
73 99 59
71 96 57
69 93 55
70 95 56
71 96 58
72 97 58
67 91 54
65 89 52
70 95 57
71 96 58
123 141 138
138 153 154
124 142 141
106 124 114
75 99 68
71 96 57
71 95 56
67 92 54
68 93 55
64 88 52
63 86 50
69 93 56
72 97 59
68 92 55
68 92 54
71 96 58
61 85 50
68 93 56
90 110 91
154 168 177
152 168 176
143 158 162
135 151 152
116 134 128
80 102 75
62 85 49
70 94 55
70 94 57
64 87 51
70 95 57
67 91 53
65 89 52
69 94 56
70 94 56
64 88 52
67 92 55
68 92 54
93 114 94
144 159 166
132 148 151
148 162 170
133 149 152
153 168 175
156 172 182
139 154 156
146 161 170
139 155 158
145 159 165
135 150 154
117 135 132
97 116 102
72 96 61
62 86 50
63 86 50
68 93 54
71 97 58
70 92 61
133 149 150
137 151 155
143 158 163
153 168 177
136 153 155
140 155 161
154 169 177
132 147 150
127 141 143
142 157 159
143 158 164
128 144 142
153 168 176
146 162 169
130 145 148
123 138 139
143 158 165
138 153 160
145 160 166
100 116 106
63 85 51
63 85 50
64 88 52
66 89 53
66 91 54
62 85 49
69 92 58
80 99 77
99 115 108
119 135 132
120 136 134
130 144 148
139 154 156
145 160 167
121 137 135
146 161 166
131 145 147
129 144 148
130 145 148
68 91 57
66 89 53
62 85 50
61 84 49
64 87 52
60 82 48
64 87 51
58 80 46
64 89 52
61 84 49
61 84 49
61 84 49
62 84 50
68 92 54
69 93 55
63 87 52
63 86 51
59 82 48
66 90 53
115 132 128
132 147 153
136 152 158
128 145 143
135 149 153
119 134 134
133 148 153
126 142 142
133 147 150
137 151 156
141 156 159
133 149 149
141 156 158
137 153 158
138 152 156
133 149 154
131 146 148
132 148 149
133 148 149
106 123 114
62 84 49
64 88 52
61 84 49
61 84 50
63 85 51
63 85 50
66 90 53
58 80 46
80 101 76
73 92 72
92 110 95
105 121 111
108 125 116
116 132 130
109 125 118
131 146 149
132 147 151
134 150 153
117 133 131
62 85 50
62 86 49
64 86 52
59 82 47
66 90 53
64 87 51
63 86 51
58 80 46
66 89 53
62 84 49
59 81 47
63 86 50
64 87 52
58 81 46
65 88 53
66 90 54
65 89 52
68 92 55
133 147 149
138 155 159
137 152 157
133 148 150
138 154 160
141 156 160
139 153 156
131 146 147
121 136 137
137 152 154
143 159 164
134 150 155
138 153 155
142 156 160
133 149 152
131 146 150
118 134 129
137 151 156
83 102 81
65 89 52
62 85 50
60 83 48
62 85 50
65 88 52
64 87 52
70 94 56
65 89 52
62 85 49
66 90 53
60 82 48
60 82 48
61 84 48
64 87 52
64 88 51
67 90 54
83 101 86
147 162 167
126 141 142
130 145 148
141 156 163
137 153 156
141 156 161
137 152 156
126 141 140
132 148 149
144 160 166
141 157 164
141 157 162
143 158 164
153 167 173
136 152 154
131 148 150
118 136 134
66 90 53
69 94 57
65 89 52
65 89 53
71 96 57
64 87 51
64 87 51
67 91 54
65 89 53
65 89 53
68 92 54
64 88 52
61 84 49
64 87 51
69 93 59
99 117 106
146 162 168
125 141 140
122 139 136
112 129 124
116 134 128
101 119 108
91 112 92
89 109 90
66 90 56
69 94 56
68 92 55
67 91 54
70 95 57
72 97 59
94 116 98
142 157 163
151 168 176
142 157 163
147 163 167
138 155 159
134 152 152
146 162 164
154 168 176
131 147 145
136 151 154
147 162 169
135 152 152
136 152 154
139 155 155
81 103 75
68 93 54
68 91 54
71 97 57
67 91 54
67 91 55
67 91 54
72 98 59
72 97 58
67 93 54
66 91 54
71 96 58
68 92 54
120 137 135
140 155 160
155 172 179
141 157 162
128 146 145
120 138 134
100 121 102
76 98 71
74 100 61
68 93 55
70 95 57
73 99 60
116 134 124
147 164 173
159 175 184
163 178 189
153 171 178
152 169 176
153 170 176
147 164 169
157 173 181
147 164 174
158 174 184
82 105 79
89 112 89
137 155 154
97 120 100
82 107 77
70 96 58
69 94 56
73 99 59
73 99 59
105 126 112
151 168 173
156 173 184
147 164 168
153 170 177
145 163 167
108 130 117
76 101 63
113 134 123
156 173 183
160 177 187
156 173 180
154 171 180
127 146 145
119 141 130
152 171 175
161 178 189
137 157 154
114 136 126
169 183 188
219 231 244
228 239 254
228 239 254
206 219 230
162 179 182
134 154 150
95 120 95
86 111 76
123 142 133
156 173 179
163 180 190
156 173 182
133 152 149
116 139 124
75 102 63
76 103 63
151 168 177
158 175 186
132 150 146
91 115 88
79 106 65
74 101 62
70 96 57
78 104 63
73 99 60
89 112 87
114 135 124
139 156 159
159 176 184
162 178 188
157 173 182
106 126 108
74 100 60
114 133 125
153 169 175
153 171 179
124 143 135
91 114 89
71 97 58
73 100 60
72 97 59
73 98 58
74 100 60
64 89 52
74 100 61
70 94 55
75 101 61
84 108 78
133 149 148
111 131 118
79 104 70
74 100 61
71 96 58
71 96 58
76 103 62
69 93 56
70 95 57
67 92 54
69 95 56
70 95 57
71 97 59
73 99 60
70 96 58
75 101 64
87 108 83
111 128 117
76 97 74
69 94 55
71 95 56
66 90 53
70 95 56
71 97 58
72 98 59
73 98 59
63 86 51
75 100 61
70 94 57
70 95 57
72 98 58
70 95 56
73 99 59
70 96 57
67 92 55
69 93 60
127 143 143
113 132 123
77 99 71
71 96 57
70 95 57
64 87 51
62 86 50
68 93 55
66 89 52
68 93 55
66 90 54
71 96 58
69 94 56
71 97 58
70 95 57
68 92 55
61 84 48
63 87 52
79 101 72
144 160 164
133 149 152
140 155 157
135 150 155
131 147 149
139 155 159
145 161 169
105 122 115
104 122 110
80 101 75
66 90 53
65 89 53
69 94 56
62 85 50
61 84 49
69 93 56
68 92 55
62 85 49
63 86 50
132 147 148
137 153 156
152 167 175
153 168 174
146 162 168
137 152 157
132 148 149
142 157 163
138 153 156
147 161 166
139 154 158
146 161 166
122 140 134
142 157 160
139 154 160
144 159 164
135 151 154
131 147 150
139 154 157
121 136 136
68 92 55
64 87 51
73 93 70
103 120 111
95 114 99
121 138 137
141 156 161
139 155 158
125 140 140
145 160 164
140 156 161
136 152 156
119 135 132
142 157 161
137 153 157
134 149 152
139 154 157
131 146 150
145 159 164
89 108 92
64 86 51
62 85 50
63 86 51
65 88 52
59 81 47
60 83 48
61 85 49
68 91 54
60 83 48
65 88 52
63 86 50
63 87 51
65 89 53
64 88 51
62 85 50
65 88 52
68 93 56
60 82 48
76 96 69
133 147 149
130 145 147
130 146 149
133 150 150
135 149 153
131 146 145
131 146 149
135 151 156
140 155 160
133 148 152
128 143 144
140 155 159
139 155 158
128 143 146
143 159 162
134 149 151
120 135 134
137 152 156
119 135 133
81 101 77
98 114 103
107 125 117
114 130 123
115 131 129
116 132 131
113 129 126
131 147 150
137 152 155
128 144 147
131 146 147
142 157 163
129 145 146
122 135 134
125 142 141
125 140 139
137 153 156
136 152 157
128 142 144
72 92 67
63 86 49
54 75 41
66 90 54
65 89 52
64 86 51
57 79 45
62 85 48
57 78 44
59 82 47
63 86 50
64 88 52
61 84 48
61 84 48
62 85 49
66 90 53
64 87 51
60 83 48
89 109 90
141 157 161
125 142 141
135 150 155
140 155 163
138 154 156
142 158 162
138 152 157
131 147 146
141 156 164
141 155 161
148 162 170
155 170 180
135 150 150
141 156 161
136 151 157
146 162 169
129 144 145
133 149 149
68 89 63
64 87 51
60 82 49
59 82 48
61 84 48
64 87 51
64 87 52
64 87 51
60 83 48
66 89 54
67 91 54
65 89 52
64 88 51
68 92 54
68 92 55
67 91 54
62 85 49
106 123 114
146 162 170
134 149 153
143 159 165
135 151 151
130 145 146
149 164 173
151 166 173
141 156 162
127 142 143
143 159 164
147 163 170
129 145 147
148 163 168
136 152 154
150 166 173
136 151 155
91 112 89
67 91 54
64 88 51
67 91 54
68 93 55
64 88 52
65 88 52
63 86 50
65 89 52
69 93 56
67 91 54
61 85 49
69 94 56
68 94 56
67 90 54
68 92 55
107 126 120
125 142 139
143 157 164
153 169 176
150 166 174
138 153 156
139 156 160
140 156 159
146 162 170
141 157 162
118 135 131
122 137 133
130 147 148
109 127 116
93 112 94
122 139 136
137 153 156
146 161 167
145 162 167
152 169 178
144 160 165
146 162 169
140 156 162
147 162 165
142 158 163
155 171 181
149 164 170
145 161 165
133 150 152
141 158 158
78 98 73
73 99 59
65 90 53
72 97 58
67 92 55
68 92 55
68 93 56
70 95 57
72 98 59
68 94 56
69 94 56
71 96 57
69 93 59
133 151 151
136 153 159
153 169 177
156 172 178
147 162 169
142 158 163
143 159 166
135 152 154
129 148 145
114 134 121
83 107 79
72 97 62
124 143 139
161 177 185
152 168 176
157 174 182
157 174 184
154 169 176
147 163 170
154 171 177
152 169 177
150 167 176
150 166 174
121 140 134
153 169 178
154 171 179
155 172 177
131 150 148
115 133 126
92 116 94
75 101 61
76 102 62
98 122 99
156 173 181
154 171 180
162 178 188
163 179 189
162 178 187
163 180 190
131 150 148
114 134 122
147 164 173
166 182 191
157 174 184
162 179 189
162 179 189
144 163 168
150 168 174
167 184 196
161 178 187
149 169 175
126 147 141
143 161 157
213 225 237
127 148 145
96 121 96
88 113 81
127 146 140
155 173 181
164 181 191
150 168 176
135 152 150
96 119 98
75 102 61
78 105 65
77 105 64
85 109 79
122 142 138
80 104 75
77 103 63
73 99 61
78 106 65
75 102 62
74 101 62
96 116 101
140 158 160
145 162 170
163 180 192
152 168 174
149 167 171
169 185 198
158 175 186
94 115 97
74 101 61
105 124 110
118 137 133
79 103 68
73 99 60
70 95 57
71 98 59
75 101 62
73 100 60
75 101 61
69 94 56
75 101 61
72 97 59
87 110 84
124 142 137
138 155 157
68 93 55
71 96 57
74 100 60
72 98 59
77 104 64
70 96 58
71 97 59
73 98 59
78 104 63
66 91 55
71 96 58
71 96 58
73 97 63
100 121 106
126 144 141
135 151 153
156 173 181
125 142 139
75 101 61
71 95 57
74 101 61
69 94 56
72 97 59
71 96 58
66 90 53
67 91 54
64 86 50
68 93 55
62 86 49
71 96 58
65 89 53
69 93 56
76 99 68
100 120 105
132 149 147
155 172 180
81 103 79
70 96 57
73 98 59
68 93 55
66 91 54
71 96 58
70 95 56
69 94 57
64 87 52
73 99 60
66 90 52
65 89 53
69 93 56
72 98 59
67 91 55
65 89 53
63 86 51
70 96 57
68 92 55
134 150 155
131 148 151
139 156 158
125 141 139
108 126 116
71 93 63
69 93 55
69 93 55
66 89 52
68 91 55
68 92 55
69 93 55
64 86 52
62 85 49
68 93 55
71 96 57
68 91 54
66 90 53
65 89 52
113 129 122
140 155 158
137 154 159
131 147 148
137 151 155
141 157 163
142 156 161
145 159 167
143 158 161
142 157 162
145 162 169
137 153 156
137 152 160
144 159 168
133 149 151
126 142 140
126 142 140
132 148 150
122 137 137
107 124 114
130 147 146
139 155 160
133 149 149
134 150 152
131 146 146
132 148 147
136 152 153
131 147 151
135 150 154
138 154 156
127 143 142
121 137 138
132 148 150
150 164 172
136 151 155
147 161 168
130 146 148
139 152 157
138 155 159
113 129 121
65 88 51
62 85 49
62 84 48
66 91 52
65 88 53
65 90 53
64 88 51
62 85 50
67 90 54
67 91 54
70 94 57
65 87 51
70 94 57
63 86 51
67 91 54
56 78 45
60 82 47
65 89 52
65 87 51
133 148 150
135 150 153
144 158 162
133 148 150
125 142 140
140 154 158
124 140 140
132 147 147
138 153 156
120 134 134
125 142 141
128 144 142
114 130 129
116 133 128
92 110 94
78 97 76
74 95 68
64 87 52
65 89 53
96 114 103
145 160 166
147 161 170
138 153 159
135 151 156
138 154 158
133 149 152
127 143 144
133 149 153
144 160 168
132 147 152
135 149 154
138 153 156
138 151 158
132 148 151
123 137 140
124 139 137
130 145 148
126 143 143
122 137 133
66 89 53
62 85 50
62 85 50
62 84 49
71 96 58
67 91 54
62 85 50
66 89 52
61 84 49
66 90 53
66 90 53
66 90 54
64 87 52
62 86 49
62 86 49
61 85 49
56 78 44
60 83 48
120 136 136
132 147 149
141 155 157
136 150 155
138 154 157
144 159 163
146 161 170
132 148 149
136 152 151
136 151 154
147 162 170
128 145 146
137 152 156
136 150 150
130 146 148
142 157 162
136 151 155
137 152 158
103 119 110
67 91 54
59 81 46
66 91 53
65 89 53
60 84 48
62 85 50
61 84 49
60 83 47
58 81 46
65 89 52
68 92 55
64 87 51
65 89 52
63 86 50
63 87 50
64 87 50
78 100 68
125 141 142
151 166 172
130 146 147
133 149 151
137 151 156
146 161 166
143 160 164
135 150 152
131 146 149
144 158 164
138 154 159
150 166 173
138 153 158
139 155 157
149 166 172
142 157 160
133 149 152
78 100 72
64 87 51
70 94 56
63 86 51
60 84 49
63 86 51
62 85 49
71 97 59
62 86 50
67 91 54
68 92 55
61 84 48
75 100 61
67 91 54
70 96 57
69 93 55
121 138 136
133 149 150
141 157 158
138 154 158
153 168 175
146 161 168
139 155 161
156 171 181
139 155 160
146 161 163
155 171 181
146 162 166
146 162 167
146 162 169
145 161 166
109 126 115
77 100 70
84 105 80
111 128 117
107 127 114
135 152 150
134 150 150
131 147 148
126 142 144
140 156 157
145 161 166
147 163 166
143 158 163
154 171 179
141 157 161
78 100 74
67 91 53
61 83 48
64 88 51
72 97 58
69 94 56
68 92 54
70 95 57
67 92 55
69 95 56
70 95 57
67 92 54
76 100 69
129 146 140
142 158 165
154 170 177
147 163 168
147 165 169
139 154 152
148 164 169
142 160 162
148 163 166
148 165 171
151 168 175
130 148 148
134 152 153
133 150 148
164 180 189
164 180 192
157 173 183
163 179 190
157 174 179
155 171 179
152 169 176
154 171 180
78 103 68
123 142 139
149 165 170
161 178 186
148 165 169
151 167 172
152 168 175
144 161 164
119 139 132
96 116 99
87 110 79
144 161 165
171 188 200
156 172 178
162 178 186
167 183 195
164 180 191
148 166 172
161 178 190
154 171 180
149 166 172
157 174 182
160 177 187
165 182 193
163 179 187
154 171 178
145 164 167
161 178 185
163 179 189
160 178 187
115 136 122
88 113 84
130 150 148
163 181 195
164 180 190
165 182 193
124 144 133
88 114 83
79 107 66
73 99 61
81 108 66
91 116 91
139 158 159
124 144 139
71 97 58
74 101 61
75 102 63
76 102 62
78 105 65
106 127 113
150 167 174
161 178 188
155 172 180
162 180 192
153 171 176
164 182 192
158 175 185
165 181 192
150 167 175
123 143 135
136 155 152
149 166 174
146 164 168
87 109 85
68 93 54
72 98 60
72 98 59
72 98 59
77 104 63
72 97 58
74 100 63
100 121 106
139 156 158
149 166 173
162 178 187
142 159 165
69 94 56
69 94 56
73 98 59
70 96 56
69 94 56
71 97 58
76 102 62
70 94 56
68 94 56
71 96 61
83 103 83
124 142 141
155 171 177
158 175 185
153 169 177
152 166 172
147 164 170
136 153 155
74 100 62
69 94 57
74 100 61
73 99 59
63 87 50
69 94 56
72 98 59
73 98 59
72 97 59
72 97 59
72 98 60
83 106 77
110 129 116
136 153 153
147 163 168
148 164 170
150 166 174
145 161 166
91 110 89
72 98 59
69 95 56
68 92 54
66 90 54
65 89 52
71 96 59
69 93 55
61 85 50
69 94 56
68 92 54
66 91 55
65 89 53
67 92 55
76 102 62
73 99 60
69 95 56
69 94 56
86 107 87
118 135 131
97 116 104
73 97 65
71 96 59
69 94 57
66 90 52
65 89 52
66 90 54
68 93 55
68 92 57
64 88 53
68 93 55
68 92 54
71 96 57
69 94 56
64 88 51
64 88 51
67 91 55
66 89 53
80 100 81
151 165 172
140 156 160
148 163 171
141 156 161
139 155 157
150 166 175
142 156 157
130 146 148
136 151 150
138 152 156
128 143 143
148 163 169
125 142 143
114 131 126
97 115 99
86 108 85
64 87 51
61 84 48
63 86 50
121 136 133
145 161 165
149 165 172
137 151 158
139 155 161
144 161 166
137 152 155
131 147 147
139 153 157
138 153 156
141 156 161
143 157 164
146 160 168
148 164 171
122 138 136
141 154 161
141 158 163
134 150 151
133 149 151
138 154 156
70 94 59
62 85 49
67 90 55
65 88 51
65 88 52
67 90 54
65 89 52
68 92 54
68 93 55
65 88 52
64 87 52
61 84 49
67 91 54
61 83 49
60 83 48
63 85 50
64 87 51
66 89 53
62 85 49
96 114 102
130 145 148
134 149 150
124 139 137
109 126 118
112 129 123
105 121 112
98 115 106
69 90 64
68 91 55
71 95 58
66 90 53
71 96 57
62 85 50
66 90 54
64 87 51
66 90 54
62 85 50
65 89 52
63 86 51
134 150 153
133 148 151
137 151 156
139 154 155
147 162 172
138 153 156
126 142 140
139 154 156
139 155 162
138 152 158
139 155 160
130 145 145
132 147 149
128 142 145
135 151 154
130 146 149
139 156 159
132 148 151
138 153 158
78 98 76
63 86 50
63 86 51
67 91 54
67 91 54
64 88 51
59 81 47
68 93 55
69 93 56
67 92 55
62 85 49
66 90 53
60 83 48
63 85 51
64 88 52
62 85 50
57 79 45
68 93 55
85 106 82
138 153 155
124 140 141
140 155 160
148 163 168
141 157 161
135 151 151
131 145 149
136 152 155
141 155 163
144 160 167
135 150 151
140 154 158
131 146 149
146 161 167
137 152 157
146 161 166
136 154 157
137 153 158
82 103 81
68 92 55
65 89 53
64 87 52
64 86 50
67 91 55
64 88 52
70 94 56
69 93 56
66 90 52
66 91 54
65 88 52
58 81 46
65 89 52
71 97 59
67 91 54
64 87 51
95 114 102
143 159 162
141 157 162
142 157 160
133 148 147
143 158 163
151 166 175
131 147 150
140 156 159
140 156 163
135 151 155
144 160 168
137 153 155
140 155 158
135 151 153
143 157 163
130 145 148
130 147 148
72 96 64
66 90 53
64 88 52
69 94 55
64 88 52
65 88 52
67 92 53
67 91 56
67 92 54
68 92 54
69 94 56
68 92 55
68 92 55
68 92 55
66 91 54
80 103 75
150 164 171
147 162 169
141 157 159
141 157 161
149 164 170
150 166 174
139 154 159
136 153 156
140 156 159
143 159 165
138 154 156
152 167 173
132 148 152
145 161 167
149 166 173
98 117 105
67 91 54
71 96 57
71 95 57
69 95 56
67 92 54
74 100 60
69 93 58
82 105 77
89 112 90
104 123 114
126 143 141
125 142 139
136 152 154
142 158 161
78 102 71
67 92 54
70 96 58
72 98 58
70 94 56
69 94 56
70 95 56
73 99 59
70 96 57
67 91 55
75 100 61
70 96 57
67 91 58
129 147 144
150 166 172
146 163 169
152 168 176
150 166 173
148 164 172
154 170 180
158 175 185
144 161 165
152 169 176
161 177 186
144 162 166
113 132 123
81 105 77
97 119 95
122 141 138
144 159 163
153 169 177
152 169 176
141 160 164
88 113 85
74 101 61
70 96 57
109 129 115
155 171 178
149 166 173
162 178 188
160 177 188
152 169 179
155 172 176
158 174 183
152 169 174
129 146 143
156 172 181
160 176 183
159 176 183
167 183 195
160 176 185
167 185 199
168 185 197
161 178 189
139 157 159
98 120 101
125 145 140
157 175 184
157 174 181
169 186 201
158 175 184
131 150 143
116 139 126
150 169 175
170 188 202
169 186 200
167 184 196
158 176 185
121 141 134
92 115 87
79 107 65
79 107 66
74 100 60
101 125 107
144 162 164
145 162 168
166 183 194
104 126 111
77 105 65
72 99 59
84 108 81
110 132 119
158 174 180
150 167 176
159 177 186
162 178 189
170 186 198
153 170 179
148 166 170
157 173 182
138 156 159
107 127 114
81 105 76
153 169 177
149 165 172
160 175 186
165 182 193
139 157 158
83 106 80
75 102 63
74 100 61
73 99 60
100 121 101
132 149 146
157 173 183
143 160 167
155 170 174
154 170 175
160 176 185
132 149 149
75 101 60
70 95 57
73 98 60
73 98 59
75 101 61
72 98 60
71 97 58
94 117 96
119 138 133
149 164 167
142 159 161
149 165 170
158 175 184
158 173 181
153 169 178
155 171 181
141 157 159
132 149 151
72 98 58
67 91 54
75 102 62
69 94 56
69 94 56
64 89 52
71 96 58
68 92 55
76 98 70
102 120 109
135 152 152
147 162 166
140 157 160
144 160 165
128 144 144
153 168 175
152 167 175
147 160 165
118 136 133
69 94 56
68 93 56
67 91 53
68 91 53
66 90 54
72 97 58
64 88 51
64 88 51
70 96 58
70 94 57
67 90 53
68 93 55
65 89 53
77 100 70
104 123 114
112 130 123
145 160 164
138 153 155
117 135 129
70 95 57
66 90 54
64 88 51
70 94 57
62 85 51
64 87 52
71 96 57
68 92 55
67 91 55
66 90 53
65 89 52
67 91 54
65 88 52
70 95 57
63 87 51
67 90 53
68 92 55
64 87 51
72 96 64
145 161 166
145 160 167
144 159 164
142 156 161
143 159 166
145 162 168
131 147 147
132 148 150
117 132 127
108 128 119
89 110 92
64 86 54
68 92 55
68 92 54
65 88 52
68 93 56
72 96 57
62 85 51
62 86 51
105 123 112
124 140 139
134 150 154
133 148 150
141 157 161
135 150 153
138 154 158
145 160 166
131 146 151
142 158 163
137 152 158
140 156 161
138 152 158
145 162 168
147 162 168
146 162 167
138 154 158
137 151 155
132 147 151
139 154 159
95 113 101
70 95 57
66 90 53
71 95 57
69 93 55
69 93 56
63 86 51
65 89 53
62 85 49
65 88 52
62 85 50
62 85 50
63 86 51
69 93 55
67 91 54
79 100 77
91 111 90
115 132 125
113 129 123
121 138 138
71 92 66
61 83 52
67 92 54
68 92 54
67 91 54
65 88 52
65 88 52
69 93 54
67 92 55
63 86 51
60 84 49
66 89 53
63 87 51
68 92 55
61 84 50
65 89 52
63 87 50
66 89 53
62 85 50
104 121 114
135 150 154
141 155 161
140 156 161
142 156 160
138 153 155
142 158 164
142 159 165
131 146 147
141 154 160
137 152 157
133 148 149
126 142 143
128 143 146
140 155 162
144 158 163
140 155 162
131 147 149
139 154 162
127 142 143
71 96 58
64 87 52
66 89 53
66 91 53
65 89 53
65 88 52
65 89 52
67 92 54
64 87 51
63 87 52
71 96 57
65 89 53
72 96 58
61 84 50
69 94 57
67 92 54
69 94 56
63 86 51
105 122 112
146 162 167
139 155 156
143 159 164
131 147 148
135 151 152
128 143 145
145 160 166
132 147 147
139 155 159
138 152 156
145 160 165
140 155 159
137 151 155
153 169 177
137 153 158
139 154 160
137 153 156
132 146 149
66 89 53
68 93 55
66 90 54
68 93 55
67 92 54
65 88 52
69 93 57
70 95 57
66 89 51
66 90 54
63 85 50
64 87 51
66 89 52
68 92 55
64 87 50
66 90 53
68 92 55
127 145 142
140 156 159
145 161 166
132 148 152
138 154 157
143 158 163
134 150 152
147 163 170
150 164 171
143 158 165
142 157 163
148 163 170
142 158 161
145 160 167
129 145 145
138 153 155
150 165 171
108 124 118
69 94 56
67 92 54
66 90 53
64 87 51
66 90 54
66 91 53
65 89 53
69 93 55
66 91 54
65 89 52
68 93 55
69 93 56
70 94 57
68 93 56
72 97 59
98 116 103
140 156 161
147 162 169
143 159 163
154 170 178
143 159 164
149 164 171
161 176 187
152 168 175
142 158 164
141 157 161
138 153 157
144 161 163
144 160 162
147 163 170
150 166 174
97 118 102
68 92 55
75 102 62
67 92 54
75 100 61
72 97 58
73 98 59
70 96 57
73 99 60
65 89 52
66 90 54
68 92 55
72 98 59
77 100 68
92 114 94
140 157 159
116 133 128
89 110 90
87 109 84
73 98 58
69 94 56
72 98 60
70 95 56
68 93 55
72 97 58
71 98 58
69 94 56
84 108 79
134 150 150
143 160 164
153 169 176
156 172 182
147 163 169
153 170 177
155 172 180
147 162 169
153 169 177
145 162 165
154 170 181
146 163 165
123 140 134
72 98 59
72 97 57
78 105 63
80 106 71
127 145 142
118 137 129
92 113 90
67 93 54
70 96 57
73 99 59
107 127 113
156 172 179
159 176 186
157 175 182
158 175 183
168 183 196
156 173 180
152 169 178
162 179 192
163 180 192
135 154 153
128 148 144
144 161 163
161 178 186
165 181 190
166 183 192
164 181 191
162 180 191
150 166 172
94 118 92
79 105 67
110 132 115
144 161 165
165 183 195
160 178 189
130 147 142
93 118 88
108 130 113
156 175 182
118 138 133
80 107 68
77 105 64
79 107 65
76 103 65
114 135 123
151 168 174
158 175 183
155 172 177
159 177 190
167 183 194
85 110 77
106 127 111
135 155 155
161 177 186
164 180 187
153 170 180
165 182 193
156 174 182
159 176 184
151 166 172
156 173 181
121 140 135
103 124 109
78 105 64
78 105 64
94 118 94
157 173 181
159 175 187
162 178 189
162 177 185
158 174 181
157 174 184
103 123 108
108 125 115
151 168 172
157 174 183
142 157 160
150 167 174
155 172 181
151 167 172
150 167 175
162 177 187
147 163 168
71 97 59
75 101 60
69 94 56
74 100 60
78 103 68
105 124 114
136 154 156
147 163 170
147 164 168
151 167 173
151 168 174
138 156 158
145 162 167
155 172 181
150 166 177
150 165 170
158 174 181
148 163 167
69 94 55
76 102 62
69 95 56
74 100 60
73 99 60
95 117 95
115 134 124
140 157 159
146 162 165
149 165 172
154 170 179
154 170 178
147 163 170
142 159 163
146 162 169
145 161 166
147 163 170
156 171 181
115 133 127
69 94 58
71 96 58
68 93 55
65 88 52
71 96 58
68 92 54
65 89 52
65 89 52
72 97 58
66 90 53
80 102 74
112 130 121
135 152 156
141 157 164
150 166 172
154 169 177
140 156 159
142 158 163
132 149 148
69 94 55
73 98 58
69 93 55
68 92 54
63 87 51
60 83 48
71 96 57
69 94 57
65 89 53
73 98 59
71 96 58
70 95 57
61 85 49
67 92 54
67 92 54
63 86 49
68 92 55
65 89 53
70 95 57
126 143 140
149 166 173
137 152 155
137 153 156
120 137 131
102 120 108
74 93 73
70 94 59
66 89 52
64 87 52
66 90 53
64 88 52
71 96 58
70 95 57
63 87 51
66 90 53
66 90 53
63 87 51
66 90 53
85 106 81
142 157 163
142 157 165
139 155 159
143 159 164
134 149 150
136 153 157
130 144 148
138 153 159
137 152 156
132 147 148
135 150 153
142 157 163
137 153 155
144 160 165
153 169 177
136 152 154
139 153 155
129 146 147
139 155 159
120 136 134
70 95 57
63 86 51
66 91 52
67 90 54
63 86 51
66 89 52
64 87 51
67 90 57
70 91 62
75 96 69
109 126 118
119 135 133
128 143 143
132 149 149
143 158 165
142 157 162
130 146 147
133 149 152
134 151 152
106 123 116
65 89 52
64 88 52
58 80 46
64 88 52
64 87 51
68 92 55
65 88 53
60 82 48
68 92 55
67 90 53
69 94 56
65 88 52
67 91 53
60 83 48
57 79 45
64 87 51
68 93 56
58 79 45
70 91 61
146 162 169
143 159 165
142 157 163
141 156 160
144 160 167
125 141 137
148 163 167
145 160 164
145 162 167
145 160 168
138 153 156
144 160 166
131 145 147
141 157 164
139 154 159
145 160 165
135 150 152
140 155 160
133 148 150
91 111 90
65 88 53
65 89 53
67 91 55
65 89 53
62 86 50
64 87 51
67 91 54
61 84 49
62 85 50
61 84 50
62 85 50
66 90 53
65 89 52
63 85 51
67 91 54
69 93 55
66 89 53
74 95 68
138 154 157
133 148 148
149 165 173
130 146 146
141 157 160
145 160 165
141 157 161
137 153 156
141 157 164
139 155 156
136 152 155
142 158 165
148 164 167
135 151 151
135 151 155
130 146 147
126 142 144
140 156 158
90 110 88
67 91 55
69 93 56
67 91 54
64 88 52
63 86 50
67 91 54
69 94 56
68 92 55
60 82 47
70 95 56
67 91 54
68 93 55
65 89 52
65 88 52
70 95 56
67 91 54
65 89 53
140 156 156
136 151 151
140 155 161
140 156 159
143 159 164
135 152 152
141 157 161
151 166 173
143 160 164
130 146 146
136 152 154
145 161 166
142 155 159
151 167 175
139 154 158
131 147 150
143 160 164
91 110 88
71 96 58
69 94 56
67 91 53
67 92 54
65 88 52
69 94 56
72 98 58
67 91 53
65 89 53
63 86 50
71 96 58
68 93 55
70 96 58
70 95 57
68 92 55
113 131 126
146 162 170
153 168 176
147 163 172
145 161 164
145 162 165
151 167 171
135 151 150
147 163 166
146 163 171
132 148 148
148 163 168
149 165 172
141 156 161
154 170 176
139 155 159
83 106 77
70 95 57
66 91 54
70 95 56
72 98 59
76 102 62
68 92 55
68 92 55
69 94 57
66 90 54
68 93 56
68 92 55
71 96 58
74 100 61
106 125 114
147 162 168
152 167 170
138 155 157
147 162 169
134 151 148
125 142 141
106 126 115
93 114 99
79 102 73
75 101 61
71 96 58
67 92 54
85 109 79
134 153 153
158 174 185
151 169 175
154 171 181
149 164 169
149 164 170
153 170 177
163 180 190
162 178 192
154 169 176
156 173 179
150 168 175
119 139 129
74 101 61
72 99 60
116 135 126
157 173 183
167 184 194
163 179 190
163 180 191
124 143 139
110 130 117
98 119 100
100 121 104
150 168 174
155 170 178
158 175 185
159 176 185
145 162 167
147 165 169
132 150 152
151 168 175
153 171 178
150 167 171
85 110 77
87 112 80
111 132 120
131 150 148
157 174 182
162 179 190
165 182 194
164 182 194
104 126 107
78 105 64
73 100 61
92 115 89
135 155 152
160 178 187
149 168 173
104 126 107
83 109 72
77 104 64
82 109 67
78 105 65
123 144 137
172 188 199
165 181 190
166 182 196
169 185 198
154 171 179
163 179 188
142 159 165
133 152 149
163 179 187
163 180 191
154 171 176
149 165 171
152 169 177
166 181 191
158 175 185
149 166 172
120 141 134
88 112 85
73 100 60
77 104 63
74 101 60
76 103 63
90 112 91
158 174 183
157 173 183
149 166 170
149 166 172
141 157 161
115 134 128
88 111 81
121 140 131
156 174 182
161 177 187
143 159 164
159 175 184
155 171 180
157 173 179
146 162 166
156 173 181
149 165 171
77 103 63
72 97 57
106 127 113
130 147 149
152 169 179
155 171 178
145 162 167
158 174 182
152 169 177
138 154 157
155 172 181
153 169 175
157 172 183
154 171 176
160 178 190
132 150 152
145 162 168
143 159 162
70 95 57
70 95 57
87 109 86
107 125 114
141 157 163
148 164 171
148 163 167
153 169 174
140 157 158
157 173 181
155 171 180
154 170 178
137 154 154
141 157 163
139 154 156
158 175 184
155 172 179
138 154 158
116 134 125
71 96 59
65 89 53
69 94 57
69 94 56
74 100 61
67 91 54
70 94 62
105 125 112
122 142 139
145 160 167
153 169 176
139 156 158
150 165 171
133 150 153
154 170 177
151 167 173
144 160 164
146 163 169
139 155 157
61 84 49
68 92 53
65 89 53
69 94 56
67 91 54
70 95 57
68 92 55
68 93 55
67 91 54
72 98 59
68 92 55
69 93 55
71 97 58
68 92 54
70 94 56
70 95 57
64 88 52
68 93 56
77 98 71
111 129 121
103 122 110
78 99 74
68 92 54
64 88 52
66 90 54
69 93 56
66 91 53
64 87 51
70 95 57
65 88 52
64 87 51
68 92 54
66 89 52
60 84 49
67 91 54
64 87 51
71 95 57
67 92 54
68 92 55
134 150 151
140 156 161
130 146 148
136 153 157
145 160 167
139 155 158
138 154 159
150 165 173
151 164 170
128 145 147
135 151 153
133 149 151
137 153 154
143 159 164
148 164 174
150 166 173
138 152 154
151 167 174
140 156 158
142 157 159
78 103 68
70 95 57
78 98 76
95 114 96
110 128 119
123 139 133
136 151 151
136 152 156
149 164 172
144 160 165
142 157 162
150 165 173
145 160 164
129 145 146
144 160 164
147 162 170
141 156 163
134 150 152
143 159 168
119 135 133
65 88 52
63 85 50
69 93 56
65 89 52
65 88 51
64 86 51
70 95 57
61 84 49
61 84 49
64 87 52
65 88 52
66 90 53
62 85 50
63 86 51
66 90 53
62 86 51
64 87 51
66 89 53
73 99 60
112 129 125
135 151 154
147 162 169
134 149 151
134 149 151
136 151 153
151 168 173
138 155 159
139 154 158
139 154 160
140 156 160
140 155 161
142 157 163
138 153 157
140 155 157
139 154 155
147 163 168
148 162 168
138 152 156
109 126 116
61 84 49
67 91 53
60 83 49
64 88 52
65 89 52
62 85 51
68 93 54
63 86 51
67 92 54
65 89 53
66 90 53
64 87 52
63 87 52
62 86 50
63 86 51
60 82 48
67 92 54
70 95 57
113 132 121
140 156 161
141 155 156
143 159 162
133 148 150
129 146 148
131 147 147
147 162 167
145 161 168
143 159 164
141 156 160
141 156 159
130 146 149
129 144 146
146 162 169
141 157 161
144 158 164
148 163 170
135 152 153
70 92 60
63 86 50
66 90 53
65 89 52
64 88 52
62 86 49
67 91 54
67 91 54
65 89 53
68 92 54
63 87 51
59 83 48
72 97 59
67 92 54
65 89 52
66 90 53
69 95 56
87 106 89
145 160 165
142 157 162
139 155 158
141 156 161
146 161 166
138 154 159
150 165 169
143 159 165
135 152 154
140 156 157
151 167 174
144 160 167
137 152 156
146 162 168
145 161 166
149 165 170
130 145 147
71 94 59
68 92 54
64 87 50
68 92 54
69 94 56
71 96 58
68 93 56
70 95 56
65 89 53
66 90 54
73 99 60
68 92 55
68 92 55
64 88 52
69 94 55
69 92 60
128 145 143
135 153 155
144 160 164
142 158 164
151 166 173
147 162 168
147 163 170
142 160 168
149 165 171
150 166 172
150 165 172
145 160 166
149 164 171
152 168 175
153 168 175
143 158 160
70 94 61
66 90 53
72 99 59
65 89 52
68 93 55
73 98 60
69 94 55
71 96 57
73 98 60
71 96 58
71 96 58
70 94 57
72 98 59
65 89 52
129 146 142
150 167 174
146 163 169
155 171 180
151 168 177
151 167 173
143 159 163
151 166 175
150 166 173
145 161 165
138 154 157
109 128 119
92 111 93
98 119 100
152 169 175
155 173 181
161 177 188
162 179 190
157 173 181
148 164 170
152 167 175
159 177 186
160 177 187
150 167 173
146 162 167
152 169 176
117 137 131
118 137 129
148 165 170
150 167 171
156 173 181
158 175 185
156 173 181
152 169 176
149 166 171
147 164 170
151 169 176
142 160 161
144 162 167
160 177 187
157 173 181
168 186 199
151 168 172
159 177 188
149 165 174
155 171 177
155 173 181
145 163 169
89 113 86
75 102 61
73 99 59
80 105 70
123 143 135
142 161 163
156 174 184
164 181 192
134 152 152
81 108 69
77 105 64
78 104 64
84 111 71
112 135 117
146 164 166
77 104 64
87 111 78
127 147 143
155 172 177
162 179 187
160 176 186
165 183 195
166 183 194
155 173 179
130 147 144
93 115 96
113 135 121
163 181 193
155 171 177
164 180 191
162 179 187
160 176 186
155 171 180
146 164 169
98 120 102
72 97 59
76 103 62
72 98 59
77 104 63
76 103 63
71 97 58
71 97 58
123 144 135
151 168 175
151 168 176
144 162 163
84 108 79
69 94 56
76 102 62
70 96 57
72 98 58
92 115 92
143 161 165
146 162 167
156 173 180
154 170 177
144 161 165
151 168 174
154 171 178
135 153 153
129 146 143
152 169 175
153 169 177
164 179 191
151 168 176
148 164 171
146 163 165
157 172 182
144 160 164
159 176 184
146 163 167
146 162 170
160 176 186
160 177 188
160 176 189
146 162 167
146 162 167
137 153 157
100 120 107
127 144 141
150 165 173
142 158 161
154 171 179
137 154 158
151 165 171
145 162 166
153 169 176
157 173 182
152 167 176
157 173 179
153 170 176
140 157 162
161 177 186
149 165 171
150 166 176
152 168 177
153 169 173
72 98 59
69 94 57
68 93 56
77 100 72
104 122 112
135 152 152
144 160 164
148 164 169
142 157 164
154 170 177
150 166 171
142 159 164
146 162 168
148 164 170
154 169 176
143 160 165
144 159 163
150 166 174
149 165 170
78 99 75
71 97 58
71 96 58
69 94 56
66 90 53
67 91 54
70 94 57
64 88 52
72 97 59
69 94 56
70 95 57
68 92 56
68 93 55
67 92 55
83 106 78
103 121 110
124 141 137
129 146 149
137 154 156
136 152 153
67 92 55
66 90 54
69 94 57
64 88 52
69 94 56
67 91 54
73 99 59
67 91 54
67 90 54
68 92 55
72 97 58
71 95 58
71 95 58
63 86 51
63 87 51
70 95 58
65 89 52
68 94 55
64 89 52
111 129 122
146 161 168
149 164 173
150 166 173
131 147 149
135 150 156
147 161 168
143 159 163
148 163 169
142 157 160
137 152 157
135 151 153
139 155 156
142 156 162
153 169 178
144 160 166
143 158 164
128 147 143
124 140 136
110 128 121
112 129 123
121 137 135
140 155 162
133 148 151
150 166 171
132 148 148
145 160 166
144 160 165
143 159 163
136 152 153
134 149 151
135 151 153
150 164 171
134 149 152
137 152 158
141 157 160
135 149 150
145 160 165
144 160 167
137 153 157
88 108 86
63 85 51
63 87 49
74 100 60
69 93 56
65 89 53
65 89 51
64 87 52
60 83 48
65 89 51
64 87 51
64 87 52
64 87 51
70 94 56
65 88 52
65 89 53
63 86 50
66 90 53
65 89 51
73 96 66
130 145 149
142 157 164
140 157 160
136 151 154
132 147 148
153 167 175
130 146 148
135 151 153
138 154 158
142 158 162
141 157 162
138 154 156
144 160 166
144 159 163
154 169 177
142 157 161
140 155 161
144 159 164
137 152 155
86 107 86
63 87 50
69 94 56
63 86 50
67 91 54
68 93 55
68 92 55
65 89 51
64 88 52
63 86 50
66 90 53
64 87 52
67 92 55
67 91 54
67 91 54
62 84 49
63 86 50
68 92 55
68 92 55
130 146 146
143 158 162
137 155 157
137 154 155
120 136 131
128 145 145
124 141 141
113 130 124
109 126 120
110 127 119
110 128 120
106 125 119
95 114 99
102 123 109
102 120 107
111 130 121
103 122 112
100 118 105
105 124 108
126 142 137
124 140 141
127 143 143
134 150 152
114 129 127
137 154 158
119 136 132
134 149 149
134 151 152
128 143 147
126 143 141
129 145 146
143 159 163
133 149 147
126 143 144
139 156 159
119 136 133
129 146 145
93 112 96
89 109 87
105 124 115
100 118 105
104 122 113
99 118 107
112 131 120
109 129 116
116 134 127
114 132 125
108 126 118
120 139 133
120 136 134
127 144 141
119 138 131
139 153 158
112 131 125
77 100 71
78 102 70
65 89 53
69 95 56
71 95 57
65 89 52
72 98 58
66 91 54
62 86 50
75 100 61
65 89 52
75 102 62
75 101 60
67 91 54
65 89 52
77 102 70
144 161 165
149 165 169
146 163 167
132 147 151
149 165 169
150 166 171
151 166 170
148 163 170
145 161 168
148 163 169
143 159 165
145 160 165
143 160 166
147 163 168
144 160 165
116 133 126
68 92 55
69 94 56
69 94 56
68 93 55
70 95 57
68 93 55
68 93 55
68 92 54
66 90 53
65 89 52
72 97 58
70 96 58
75 100 61
78 103 66
130 148 143
151 166 174
152 167 175
145 161 167
156 173 181
152 169 177
156 172 180
153 169 178
160 176 186
149 165 171
154 171 179
147 162 168
150 167 175
143 159 161
116 135 123
117 136 125
135 154 153
144 161 165
151 167 176
146 163 172
146 164 168
162 178 189
154 172 179
152 169 176
138 156 158
97 119 99
120 140 129
152 169 175
148 165 172
152 169 174
153 169 176
143 160 162
155 172 180
152 169 177
153 170 177
152 168 174
162 178 188
158 174 181
80 105 75
102 123 105
126 145 140
146 162 167
157 173 179
154 172 178
157 174 185
147 164 169
154 171 178
143 162 166
102 125 104
75 102 62
76 103 64
77 104 63
78 105 64
91 116 90
125 143 139
151 168 174
152 171 178
87 111 81
76 103 62
74 101 61
80 108 66
79 106 65
127 147 142
161 180 191
157 173 181
166 183 193
159 176 182
165 183 195
153 170 178
127 148 142
89 114 84
74 101 61
79 106 65
125 144 138
168 184 196
161 177 184
159 175 183
154 170 177
136 155 155
87 111 83
79 107 65
74 101 61
75 102 62
76 102 62
74 100 61
73 100 60
72 98 59
76 103 62
72 98 58
111 132 118
120 140 133
75 99 65
71 96 57
73 99 59
74 100 61
72 98 59
73 99 59
73 99 59
73 100 60
75 102 63
99 121 103
149 167 173
152 170 177
142 159 161
132 149 152
89 112 88
88 110 87
159 176 184
140 156 159
156 173 181
159 174 184
166 182 194
162 178 188
145 162 169
151 168 176
148 164 170
149 166 174
158 174 183
154 168 177
151 167 173
149 165 170
151 167 172
133 150 148
110 129 115
67 92 54
152 169 178
153 168 176
142 159 163
152 168 173
158 174 183
149 165 172
157 174 184
145 160 166
149 165 172
150 165 175
154 170 179
149 165 172
146 163 169
150 166 172
146 162 168
144 159 164
150 167 172
152 168 175
146 162 164
86 109 84
113 131 121
132 148 148
150 167 174
151 168 173
154 169 177
150 166 172
148 164 173
144 159 165
149 166 170
141 158 160
158 174 184
142 158 161
148 164 171
152 168 175
152 168 175
142 156 160
153 168 176
154 170 178
103 123 109
71 97 59
68 93 56
71 96 58
68 91 55
73 98 59
71 96 58
68 92 54
61 84 49
75 101 61
77 102 70
102 123 104
111 129 120
127 143 140
136 151 154
155 170 176
145 161 164
144 159 165
154 169 174
137 153 157
68 92 54
65 89 53
67 91 54
76 103 63
65 89 53
71 96 57
68 92 55
69 93 56
67 92 54
69 93 56
67 92 53
70 96 57
64 88 52
70 94 56
67 91 53
68 91 54
66 89 53
70 95 56
64 87 51
89 110 88
140 156 160
153 168 174
140 155 158
136 152 156
150 166 173
135 150 154
140 157 159
126 143 141
135 150 152
143 159 165
148 164 169
137 153 157
125 143 140
111 129 122
97 117 103
69 91 60
68 92 55
64 87 51
65 89 53
93 110 95
154 169 177
147 162 166
139 154 156
137 154 158
146 162 170
139 155 161
145 161 170
145 162 168
132 148 151
131 146 148
134 150 155
136 151 154
140 157 162
137 153 154
142 156 160
137 151 155
143 158 164
138 153 158
150 165 172
128 146 143
65 88 52
63 86 51
63 86 51
66 91 54
67 91 55
60 83 46
68 92 55
66 89 53
63 87 50
67 91 53
69 95 56
65 88 51
65 88 53
68 92 56
68 92 54
64 88 52
68 92 55
68 92 54
68 92 55
119 138 130
142 157 165
140 156 160
138 153 157
138 154 158
140 156 162
139 155 156
138 153 158
140 156 159
144 159 164
129 145 145
136 153 156
149 165 172
149 165 174
137 151 159
144 160 166
140 155 161
133 148 151
139 156 161
119 136 133
66 90 53
65 89 53
75 99 63
66 87 60
83 102 83
85 103 85
91 111 91
107 124 116
116 133 130
115 132 127
114 131 124
110 128 120
129 146 146
130 146 148
135 150 153
129 146 146
128 144 145
143 158 161
126 140 138
71 96 57
70 94 56
71 97 59
65 88 52
68 92 55
70 95 57
64 87 51
65 89 52
63 86 50
65 88 52
68 93 56
65 89 52
65 89 53
63 87 51
66 90 53
71 96 57
70 96 57
67 90 57
136 152 155
136 151 156
135 151 155
142 158 162
150 165 173
143 158 163
153 170 177
140 156 157
141 156 160
141 157 161
142 159 164
140 155 159
143 160 165
142 159 162
148 163 172
142 158 163
144 160 166
136 152 153
72 95 63
66 90 52
72 97 58
71 96 57
69 93 56
69 94 56
70 96 58
62 86 49
66 89 53
73 99 59
67 91 53
71 96 58
68 92 54
72 97 58
69 95 57
68 93 56
68 92 58
128 145 141
142 157 159
145 161 166
141 156 161
141 157 162
130 146 145
123 139 134
135 152 152
124 140 137
130 146 147
110 130 116
107 126 116
104 124 112
91 110 96
87 109 86
85 106 80
101 120 108
142 158 162
156 171 178
142 159 164
149 165 172
153 170 176
147 161 168
143 158 165
148 165 171
143 159 161
150 165 174
143 159 162
160 175 184
148 164 168
149 165 172
146 163 168
99 120 98
71 96 58
68 93 55
75 101 62
71 96 57
67 92 54
69 93 55
65 90 53
73 100 59
64 88 51
71 96 57
73 98 58
73 99 60
71 96 57
82 107 73
132 150 148
152 170 180
153 169 176
146 161 168
156 172 181
156 173 181
147 162 166
152 170 180
155 171 178
151 167 175
153 169 177
150 166 177
151 167 173
139 156 155
77 103 68
74 100 60
70 96 58
86 108 85
100 120 106
115 134 125
139 157 160
138 156 155
110 131 121
73 98 63
72 98 59
73 100 60
119 139 133
149 166 172
166 183 194
153 169 176
163 178 186
158 175 185
151 167 174
157 174 182
152 169 178
157 174 183
154 171 179
141 159 163
84 108 83
71 97 58
76 104 64
104 127 111
122 141 131
144 162 167
164 181 191
157 175 184
151 169 175
153 170 178
99 120 101
81 109 68
76 103 62
76 103 63
72 98 60
82 111 68
79 106 65
97 119 99
111 132 119
88 113 81
81 109 66
79 106 65
80 108 67
170 187 199
160 178 186
164 182 192
163 178 190
154 171 180
124 144 134
83 110 73
77 104 63
75 102 63
70 96 58
75 102 62
141 158 161
155 171 178
160 176 184
123 142 136
95 119 92
74 99 61
78 105 64
75 102 62
79 107 65
80 108 66
72 98 59
75 101 61
80 109 67
73 100 60
106 128 113
152 169 172
121 141 129
75 101 61
72 97 58
75 101 60
69 95 57
75 101 62
72 98 59
74 100 60
70 95 56
72 98 59
75 102 62
79 106 68
100 122 100
141 158 163
92 113 89
76 102 62
71 97 58
96 118 98
147 163 169
151 168 176
150 166 172
151 167 173
156 172 180
157 175 185
145 160 163
156 172 182
156 174 182
157 173 182
154 170 178
143 159 164
146 162 169
104 124 106
75 100 66
71 96 57
70 95 57
73 100 61
137 154 156
161 178 188
162 177 186
152 168 177
149 165 174
158 172 180
156 172 180
155 171 180
162 179 190
156 172 179
142 160 162
144 160 165
147 163 168
160 176 185
155 171 177
157 172 182
141 158 161
114 134 126
83 105 80
154 170 180
147 163 171
151 167 174
150 168 176
147 164 170
147 163 171
141 156 162
152 169 176
162 177 187
159 175 186
151 166 175
148 164 170
144 160 165
145 162 165
152 168 177
145 161 165
153 168 174
149 164 171
159 174 184
110 129 123
70 94 56
75 101 62
72 97 58
71 96 58
64 87 51
73 99 59
104 124 111
123 142 138
134 151 155
144 160 164
141 157 160
139 156 161
141 155 157
159 175 185
143 159 163
141 156 161
143 159 165
152 167 175
148 164 168
87 109 86
66 89 53
73 99 60
68 92 55
70 95 56
67 92 54
69 93 55
73 98 58
66 90 54
65 88 52
69 93 55
69 94 56
69 94 55
70 94 56
65 88 51
66 91 53
70 94 57
61 84 49
69 93 56
63 86 51
132 147 147
152 168 175
150 166 174
150 167 175
148 163 172
137 152 158
128 144 146
132 150 149
100 119 103
91 111 92
61 85 50
65 89 53
63 87 50
66 91 53
70 95 57
65 89 52
67 92 55
68 92 56
66 90 53
68 92 55
140 156 161
141 156 160
149 165 173
147 162 166
151 166 174
144 160 166
138 153 156
140 156 159
142 157 162
132 148 153
156 172 181
147 163 169
149 164 171
138 155 159
135 152 155
155 170 180
144 160 164
141 158 164
137 152 155
140 156 158
68 90 60
72 97 59
61 83 48
69 94 56
64 87 51
69 94 56
69 93 56
68 92 54
69 93 55
64 87 51
66 90 54
64 88 52
63 86 51
68 93 56
64 88 52
67 91 55
69 93 55
64 88 52
68 92 54
89 108 90
133 148 151
139 154 157
130 145 147
142 157 160
137 153 154
147 161 169
134 150 151
144 159 164
143 159 165
143 159 164
136 153 155
128 144 144
138 154 159
117 135 130
120 138 136
114 132 124
103 121 110
104 122 110
98 116 104
121 138 135
142 157 161
144 160 166
152 169 177
143 159 162
142 158 163
140 156 158
131 147 151
136 152 156
130 145 147
145 161 167
145 160 164
154 169 178
134 150 152
142 158 163
152 167 177
137 152 158
141 156 162
137 153 156
85 105 84
67 92 54
69 94 56
65 88 53
68 92 54
66 89 53
65 89 52
64 88 52
66 90 53
68 92 55
66 90 53
69 93 55
67 91 54
67 92 54
64 87 51
68 93 55
73 97 58
67 92 54
88 109 88
134 149 150
142 158 166
147 162 168
142 159 163
135 151 155
134 151 156
147 163 168
137 154 158
146 162 167
152 168 176
154 170 175
141 157 163
140 156 159
136 154 157
138 153 157
149 166 175
145 161 168
122 139 137
68 92 55
66 90 52
68 92 54
73 98 59
64 88 51
63 87 50
67 92 54
65 89 53
74 99 60
70 95 58
70 95 56
67 92 54
70 94 56
73 99 60
71 97 57
68 92 55
85 107 86
152 168 176
142 157 160
153 168 176
148 164 169
147 163 170
138 154 157
146 164 170
145 160 165
142 158 163
133 149 150
151 166 175
151 167 173
134 151 150
147 163 169
158 174 184
141 157 158
122 139 138
96 118 97
98 118 104
110 128 120
108 127 116
109 129 118
115 134 126
132 150 150
147 163 167
136 153 155
149 165 172
149 164 170
148 164 171
145 161 169
155 170 176
137 154 156
87 109 87
69 94 56
70 95 57
70 96 57
72 98 58
69 93 56
72 98 59
65 90 53
65 89 52
71 97 58
77 104 63
72 98 59
71 97 58
73 99 59
87 109 80
151 168 175
150 167 175
149 167 173
155 170 176
149 165 172
164 178 190
161 176 187
150 166 173
148 164 174
151 167 174
150 166 171
157 174 184
150 167 173
144 160 163
75 102 62
76 102 62
74 100 61
77 105 64
83 107 76
127 145 143
147 165 169
140 158 156
120 138 135
117 138 126
86 110 79
69 95 56
124 142 140
152 168 172
153 171 180
155 172 180
156 173 181
161 178 186
163 180 188
156 173 182
165 182 194
151 167 172
147 164 169
156 173 182
88 110 89
76 103 64
77 104 63
73 99 60
74 101 61
82 107 76
110 130 119
143 160 160
158 175 184
152 168 172
112 132 118
80 107 65
76 102 61
71 96 58
79 107 65
76 104 63
74 101 61
76 104 63
87 112 85
119 138 131
113 133 118
85 112 80
154 171 181
145 164 169
157 174 183
123 144 136
77 103 66
77 105 65
76 102 62
78 106 65
75 101 61
78 106 64
89 116 84
152 170 177
124 144 136
79 104 68
78 105 64
74 100 60
68 94 56
76 102 62
77 103 63
72 98 59
76 103 63
81 109 67
77 101 70
128 147 145
158 176 186
161 178 188
162 178 189
99 122 101
70 96 57
77 105 65
76 104 64
77 104 63
74 100 60
74 100 60
76 103 63
75 102 62
85 109 81
118 138 128
146 163 168
151 169 175
152 168 174
146 162 168
131 148 145
89 112 86
90 112 90
155 172 181
158 173 185
151 168 173
152 168 176
152 169 180
155 171 177
139 155 158
153 170 178
144 160 165
144 162 163
110 128 115
77 100 70
73 98 59
73 99 60
76 102 62
71 96 57
70 96 59
68 93 55
133 150 153
156 171 179
153 168 176
155 172 179
151 166 173
144 161 165
155 171 181
136 152 155
144 159 162
157 171 180
155 171 177
153 170 178
149 165 173
135 153 154
115 134 122
84 107 79
69 94 56
72 97 59
71 96 57
156 171 178
153 169 176
156 171 179
146 162 166
150 166 171
152 167 173
151 168 172
151 168 175
153 170 176
132 150 149
151 167 174
148 163 169
137 153 158
155 171 178
155 170 178
149 165 170
157 174 184
147 163 170
144 160 163
120 138 133
73 100 60
72 96 61
89 110 89
124 140 136
136 152 154
139 156 157
156 172 181
145 160 164
160 176 184
136 152 154
142 159 166
155 171 179
145 161 168
144 160 165
149 166 171
151 166 172
136 152 155
140 156 157
152 169 178
108 125 115
69 95 57
66 91 53
68 92 55
65 89 52
70 95 56
68 93 56
64 88 51
69 93 56
68 94 56
70 95 56
68 92 54
69 94 56
65 90 53
73 99 60
68 92 54
62 86 51
66 90 52
68 93 56
68 93 55
120 137 132
138 155 155
132 148 147
110 127 117
93 113 95
73 98 61
68 93 55
65 89 53
67 90 54
68 92 55
68 94 55
68 92 54
72 97 59
70 94 57
66 91 53
72 98 59
66 90 54
69 93 56
70 95 57
68 92 55
109 128 121
147 163 171
155 171 180
130 145 146
147 163 169
146 162 169
148 164 170
142 158 163
137 153 157
134 150 150
144 160 167
155 171 180
146 162 170
144 159 167
142 157 160
152 167 175
133 149 149
150 165 171
140 156 160
149 163 171
100 118 106
71 97 59
64 87 52
69 94 56
70 94 56
65 89 53
71 96 58
62 85 49
63 87 50
64 88 51
72 97 58
69 94 57
62 85 50
62 85 49
65 88 52
65 88 51
65 88 52
68 92 54
68 92 56
68 92 55
142 159 165
136 151 154
135 151 154
130 147 148
115 132 127
119 139 132
97 115 101
98 116 104
101 121 104
81 101 80
73 97 61
67 91 54
66 90 53
65 90 53
68 93 56
71 96 57
66 91 54
70 95 57
66 90 53
101 119 110
147 164 170
154 171 178
152 168 175
146 162 170
145 161 168
151 166 172
143 159 163
146 160 167
146 161 166
151 167 175
144 160 163
145 160 165
143 159 164
136 151 155
134 150 151
148 164 169
144 159 164
142 157 161
129 146 144
67 92 55
68 93 55
64 88 51
69 93 55
66 90 52
68 92 55
64 88 52
61 84 48
67 91 54
60 83 47
68 93 54
68 93 54
70 95 56
69 93 55
73 98 59
72 97 58
73 98 59
70 94 56
115 133 126
144 160 167
156 171 177
135 152 153
139 157 160
137 154 155
144 159 164
146 163 167
140 156 162
157 172 180
147 164 169
145 162 165
151 167 174
142 159 166
139 155 158
141 157 160
149 165 171
149 165 173
93 115 95
66 91 53
66 90 53
65 88 52
68 92 54
67 91 54
69 93 56
66 90 53
71 96 58
70 95 57
70 95 57
73 99 60
72 98 59
69 94 56
68 93 56
73 99 60
67 91 54
110 130 122
149 165 172
146 162 171
151 166 172
136 153 157
137 153 157
142 157 162
144 161 167
147 163 171
144 160 165
133 149 152
142 158 164
156 172 179
154 168 176
158 173 184
148 164 169
143 159 165
93 112 97
69 93 57
68 93 54
74 100 60
71 95 58
69 95 57
66 91 54
71 96 58
69 94 56
83 108 76
89 111 87
110 131 117
112 133 121
127 142 138
124 142 142
123 141 137
86 108 82
76 101 67
71 96 57
71 97 58
75 102 62
72 98 58
69 93 55
69 94 56
74 100 61
74 100 61
63 86 50
73 99 60
68 94 55
71 96 58
90 112 92
150 166 173
156 172 180
160 176 187
158 175 183
145 161 165
162 178 187
161 177 188
150 168 176
156 172 180
153 169 177
155 171 177
164 181 192
152 169 177
125 144 139
77 104 64
80 103 76
109 128 117
155 170 176
154 170 175
153 169 174
159 176 188
164 181 191
155 173 181
161 178 185
143 160 165
130 149 148
141 158 160
148 166 171
154 169 175
150 168 172
156 174 181
166 182 191
159 176 185
161 179 188
146 163 170
164 179 190
161 178 188
153 171 179
90 114 82
72 98 59
76 104 63
78 105 64
76 103 63
74 101 61
76 104 63
86 111 81
111 131 117
137 155 156
103 124 108
81 109 67
75 102 63
77 104 64
80 108 67
77 104 64
78 105 64
78 106 65
78 104 66
143 163 164
160 177 188
163 179 187
112 133 121
78 104 66
83 111 68
73 99 59
73 100 59
78 106 65
79 106 64
78 106 65
107 130 114
133 152 149
77 105 64
76 102 61
78 105 64
73 100 60
77 105 64
74 101 61
78 105 63
78 106 65
70 95 57
102 123 106
147 163 169
155 172 178
153 169 175
157 174 183
160 177 187
159 175 182
83 108 81
75 102 63
74 101 61
76 102 62
71 97 57
74 100 61
74 100 60
104 126 108
132 151 149
151 167 173
150 167 175
158 175 183
153 170 177
154 170 176
163 178 186
158 175 186
153 169 177
148 164 172
144 163 169
152 168 178
145 163 171
165 180 189
158 175 186
155 172 180
145 162 167
122 141 135
91 114 87
70 96 57
68 93 54
70 95 57
71 96 57
72 97 58
75 101 61
75 100 60
75 102 61
68 93 54
138 155 156
149 166 174
152 169 175
151 165 174
151 168 175
148 164 170
161 176 185
146 163 168
165 183 194
148 165 171
135 152 152
123 141 135
80 104 71
72 98 59
69 95 57
66 90 53
70 95 56
70 94 56
69 94 56
134 152 153
152 169 178
155 170 178
157 173 181
141 157 158
161 176 186
155 171 180
153 169 176
146 161 167
156 171 181
152 168 174
154 171 176
153 170 179
156 171 179
159 175 181
158 175 185
135 152 156
135 150 151
151 167 172
132 148 147
128 145 141
141 159 163
146 162 167
150 166 174
149 164 172
140 154 158
148 165 172
148 164 170
147 163 168
145 161 168
147 163 169
142 158 161
152 167 173
152 168 174
149 165 172
147 163 170
149 166 173
139 153 155
141 158 163
132 149 149
66 90 54
73 98 59
71 96 56
74 99 60
69 94 56
62 86 49
70 95 56
69 94 56
67 91 54
68 93 55
66 91 54
60 83 48
71 97 58
66 90 53
68 92 55
83 105 78
90 110 93
124 142 138
129 147 143
120 137 134
70 95 57
65 89 52
69 93 56
69 93 55
69 94 56
70 95 58
67 92 55
69 93 56
68 94 56
74 99 59
68 92 55
68 92 55
63 87 51
72 97 59
67 92 54
69 94 55
69 93 55
68 94 56
66 91 54
92 111 94
145 162 166
144 161 164
153 169 177
135 151 152
145 161 164
146 162 166
141 157 162
151 166 170
141 157 162
144 160 166
141 157 160
154 169 178
144 159 165
139 154 156
141 157 163
144 160 164
139 154 157
141 158 164
146 162 166
124 141 138
65 89 52
69 94 57
68 93 55
67 92 54
72 97 58
69 93 56
65 89 51
66 91 54
68 92 55
69 94 57
65 89 52
67 91 55
66 91 54
68 90 59
88 108 90
105 123 111
108 126 117
122 139 136
125 142 140
116 132 127
67 92 54
66 91 54
69 94 57
65 90 53
70 95 58
65 88 52
65 89 52
64 88 52
67 91 54
68 93 56
70 95 57
65 89 52
68 93 56
68 92 55
63 86 51
70 94 56
73 99 59
65 89 52
69 93 55
141 157 162
141 157 160
134 149 155
155 171 179
144 160 166
148 164 168
149 165 169
148 163 172
145 161 167
141 156 161
140 156 161
147 163 171
142 157 163
130 147 150
142 158 162
132 147 150
140 156 160
142 159 164
138 155 157
89 111 92
67 91 54
69 94 56
64 88 52
69 93 55
71 96 58
66 90 53
73 99 60
69 94 57
67 92 54
61 84 49
71 96 58
62 87 50
62 85 49
73 98 59
71 96 57
67 91 54
69 94 56
79 103 74
143 160 166
143 160 165
138 155 158
147 161 166
156 174 182
152 166 173
147 162 169
156 171 178
146 162 167
150 165 169
147 163 171
139 155 157
143 159 165
147 163 169
151 167 174
147 163 167
144 159 165
144 160 164
71 97 58
69 94 56
66 90 54
71 96 58
68 92 54
65 89 53
73 99 59
73 99 60
69 94 56
67 92 55
67 91 54
66 90 53
69 94 56
67 92 55
62 87 50
70 95 57
75 102 61
120 137 132
144 161 166
157 173 183
151 166 173
154 170 178
138 154 157
154 170 180
145 162 168
144 160 163
154 171 179
145 162 168
147 163 170
143 159 166
138 155 160
148 164 169
147 163 169
141 157 160
81 104 74
69 94 56
65 89 52
73 99 59
72 97 59
67 92 54
69 95 56
68 92 54
70 95 56
69 95 57
72 98 59
75 101 60
64 87 51
72 98 59
70 95 57
97 117 99
158 175 185
146 161 165
135 151 152
140 157 156
118 137 126
103 125 110
88 110 86
81 104 77
71 96 57
71 96 57
76 103 63
74 100 60
74 100 60
73 99 59
110 129 118
150 166 168
161 176 186
153 168 175
156 172 180
147 164 171
144 161 166
160 177 185
155 171 179
153 170 176
152 168 176
150 167 173
155 172 178
138 156 158
112 131 122
153 170 177
150 166 174
158 174 184
157 174 183
157 174 184
158 175 185
154 172 180
153 169 177
156 173 183
160 177 185
157 173 181
161 178 191
115 135 127
82 108 72
107 128 112
132 151 149
153 170 177
157 174 182
156 172 179
164 181 193
166 183 194
159 178 188
160 178 188
156 174 183
100 122 105
73 99 60
72 98 58
72 98 60
75 102 63
76 104 63
76 103 62
76 103 63
78 106 65
76 104 63
108 131 118
120 140 133
86 110 79
76 103 63
77 104 64
74 101 61
76 103 62
75 102 62
76 103 63
136 154 151
81 109 68
77 105 65
74 100 61
79 107 65
78 105 64
74 101 61
82 109 72
123 143 131
155 172 176
167 185 198
140 159 157
78 105 64
78 106 64
75 102 61
74 100 59
77 104 64
74 101 60
75 101 64
116 136 123
154 170 175
153 170 174
161 177 185
164 181 194
170 187 200
163 180 192
162 179 188
151 168 176
95 117 97
70 95 57
71 96 58
68 92 55
84 109 76
120 139 132
148 165 168
152 169 178
154 171 178
156 173 182
157 173 180
178 194 209
159 175 187
162 178 189
150 167 172
157 174 184
168 183 192
142 161 165
70 95 56
94 116 95
123 142 138
160 176 186
134 152 150
95 118 95
75 100 61
74 100 61
71 97 58
72 98 59
69 94 56
74 100 59
70 94 57
74 100 60
70 95 57
73 100 60
74 100 60
75 100 61
138 155 160
154 169 178
160 176 187
144 160 165
157 173 184
158 175 182
151 168 175
135 152 153
116 134 126
83 106 79
71 96 58
75 101 61
74 100 61
75 101 62
75 101 61
74 99 60
74 100 60
67 92 54
75 101 60
126 144 138
145 162 168
153 169 176
155 171 182
157 173 183
147 165 170
151 166 177
151 168 176
149 165 171
153 169 175
154 171 178
154 172 179
140 156 163
148 164 172
143 159 164
129 147 147
108 127 116
100 121 102
76 101 64
79 104 68
154 169 177
159 176 186
143 158 162
154 170 177
149 166 171
152 167 175
156 171 181
150 166 170
152 168 174
157 171 177
153 169 177
149 166 173
144 160 166
140 157 160
135 149 153
146 162 166
157 173 183
144 160 165
145 162 167
152 167 175
68 92 55
68 93 55
77 103 63
70 94 56
69 94 56
65 90 53
69 92 54
64 89 51
66 90 53
70 95 57
71 97 58
80 103 77
99 118 106
114 133 127
139 156 158
141 157 161
143 159 164
144 161 167
134 150 152
155 172 181
60 82 48
67 90 53
65 90 53
70 95 57
72 98 59
64 88 52
73 98 60
67 91 53
71 96 57
61 84 50
73 99 59
69 94 56
76 101 62
68 93 55
70 95 56
61 83 49
65 89 53
69 93 55
68 93 56
66 90 54
131 149 148
151 168 173
139 154 157
150 166 172
141 158 162
139 155 158
146 163 171
135 149 152
137 152 157
141 156 164
154 168 176
140 156 161
138 154 159
149 165 172
155 170 179
134 151 152
143 159 163
144 159 165
141 158 162
149 165 174
88 107 88
69 94 56
70 95 56
65 89 52
68 92 55
77 103 65
87 109 85
106 126 110
107 125 115
119 136 134
133 148 147
129 146 147
137 153 155
143 158 165
147 162 170
144 161 165
143 159 164
156 172 180
149 164 172
144 160 164
79 101 73
70 94 57
63 86 50
68 93 55
70 94 55
70 94 57
65 88 52
65 89 52
62 85 49
70 96 57
73 98 59
67 91 53
64 87 51
71 97 58
71 95 57
69 93 54
70 95 57
68 92 54
68 91 55
103 121 111
145 159 167
144 159 161
145 160 165
155 170 177
140 156 160
136 151 156
143 159 163
148 164 171
134 150 151
141 157 162
142 157 158
140 157 164
142 158 161
144 158 163
148 164 169
147 161 169
135 152 153
147 164 169
124 140 137
70 94 56
66 90 53
68 92 55
69 94 55
66 91 54
66 89 53
69 94 57
67 91 53
67 91 54
66 90 53
69 93 56
69 93 55
71 97 58
66 89 53
72 98 60
68 93 56
71 96 58
68 94 55
112 131 122
139 155 158
146 162 168
128 144 145
145 160 164
146 162 167
151 167 173
148 164 173
150 166 172
140 155 157
151 166 170
146 163 170
149 166 171
152 167 174
148 162 167
144 160 166
139 154 159
164 179 189
113 132 127
72 98 59
68 93 56
63 87 50
66 91 53
69 94 56
69 93 56
66 90 53
67 92 55
68 93 55
68 93 56
67 91 54
71 97 58
71 97 58
74 100 61
71 96 57
73 98 58
76 99 68
149 165 171
147 162 168
160 177 186
154 171 177
148 164 171
158 173 182
147 163 172
159 175 186
155 171 178
148 164 170
147 162 168
152 169 177
151 166 172
140 157 158
145 161 167
159 175 182
122 139 135
70 96 58
66 90 52
72 98 59
73 99 59
71 96 58
69 95 58
68 93 55
66 91 53
72 98 59
73 99 59
73 99 60
68 93 55
73 99 60
73 99 59
72 97 58
125 143 140
150 167 174
159 175 182
143 161 165
143 160 164
152 169 176
151 169 177
151 167 174
152 170 174
137 155 156
129 146 145
121 139 131
99 120 103
89 112 84
80 104 74
121 140 133
148 165 171
139 156 158
152 168 172
143 160 166
147 164 171
154 171 180
158 175 185
151 167 173
147 164 168
122 139 133
97 118 101
74 100 61
74 100 61
130 149 144
157 174 183
151 168 174
156 173 180
159 175 185
161 177 186
160 176 184
162 179 189
169 184 196
151 168 177
152 167 177
158 175 183
156 173 181
111 131 119
74 102 63
73 99 59
73 100 61
83 106 83
112 133 120
134 153 149
148 166 173
161 179 189
159 174 183
155 171 179
153 170 177
97 120 100
72 98 60
76 103 63
76 103 62
70 96 57
80 108 67
74 100 60
75 101 60
77 104 63
74 101 61
132 151 152
158 175 186
151 169 174
122 142 137
85 111 79
78 106 65
77 105 64
80 109 67
74 100 60
77 104 63
76 103 64
81 110 67
78 106 66
82 109 74
121 142 131
150 169 174
161 178 190
151 168 174
161 178 190
114 134 123
79 107 66
78 105 65
79 107 66
76 103 62
93 117 92
129 149 146
164 180 191
151 168 174
158 175 185
163 180 192
167 184 196
156 173 181
154 171 183
161 176 185
167 185 199
166 183 193
74 99 62
74 100 61
104 126 111
121 138 133
157 174 184
157 173 182
156 173 183
158 174 183
152 169 174
159 175 183
164 180 191
160 177 187
166 182 194
153 170 177
149 167 172
159 174 183
163 178 187
136 154 155
73 98 62
94 115 100
124 143 142
141 159 159
128 146 144
110 131 120
71 95 59
75 101 61
75 102 62
71 97 58
72 97 58
73 99 59
70 95 57
71 97 58
71 96 57
71 96 57
75 101 61
72 97 58
137 153 155
157 173 181
151 167 175
152 168 175
141 159 160
107 128 117
77 99 71
70 95 57
74 100 61
74 100 59
71 96 58
71 96 58
71 97 59
74 100 61
69 94 56
73 99 60
75 101 61
70 95 57
68 92 55
124 142 135
147 163 167
152 168 174
148 164 173
154 171 181
148 164 167
148 164 169
150 165 173
158 173 182
145 161 166
149 167 174
146 163 170
121 140 133
105 125 112
73 97 64
72 97 59
72 98 58
70 96 58
71 95 57
67 92 54
143 159 162
153 168 177
148 164 172
134 150 152
151 168 174
148 165 169
146 161 166
145 161 169
161 175 186
156 172 180
145 161 166
149 165 171
147 164 173
140 156 158
158 174 181
157 173 181
144 159 164
151 166 174
141 157 160
139 155 160
87 110 84
69 94 56
68 92 56
71 96 57
67 91 54
73 98 59
72 97 58
88 109 87
117 135 127
123 140 136
134 152 153
156 171 181
150 166 173
150 165 174
142 159 164
139 156 158
156 171 179
132 151 153
151 167 175
152 168 173
91 111 93
69 95 56
67 92 54
72 97 58
70 95 57
66 91 54
61 84 49
67 91 54
66 89 52
67 90 53
68 93 55
68 93 55
74 99 60
68 93 55
70 95 56
71 95 57
70 95 58
71 97 58
67 92 54
72 98 58
119 138 130
140 156 159
145 161 168
153 169 175
133 149 152
148 163 167
147 163 166
148 164 172
148 164 172
151 166 174
151 166 173
145 161 165
147 163 167
145 161 165
136 152 154
143 159 164
147 162 168
144 159 164
141 156 160
143 159 163
95 115 101
116 135 127
116 134 125
118 134 132
139 156 159
152 168 174
133 149 149
148 165 173
151 167 174
154 169 174
139 154 160
145 161 164
151 166 171
144 160 167
135 150 153
136 151 157
146 161 168
147 162 167
155 171 178
144 160 167
114 132 125
63 87 50
68 92 54
67 92 54
70 95 56
65 89 53
72 97 58
63 86 50
70 95 57
71 97 57
66 91 54
67 92 55
69 95 56
65 90 52
70 94 55
67 92 53
64 88 51
67 92 54
64 88 52
68 90 59
146 163 170
151 166 172
144 160 166
147 162 166
147 164 168
150 166 173
140 157 164
147 164 169
150 167 174
156 171 180
134 151 153
152 168 176
143 157 162
153 169 176
152 166 172
151 166 173
148 163 166
150 165 172
150 166 172
91 112 87
72 97 59
69 94 56
71 96 57
71 97 58
71 96 58
69 95 57
74 100 60
64 88 52
70 95 56
76 102 62
66 90 53
72 97 58
68 94 55
71 96 58
69 94 56
70 96 58
70 95 57
70 94 59
136 151 155
140 156 161
139 155 162
137 153 157
148 164 172
143 158 165
152 167 177
143 160 168
145 160 164
148 165 170
142 159 164
142 159 164
146 160 164
134 150 151
146 163 171
144 160 164
147 162 167
144 160 164
91 112 94
71 96 57
67 91 55
67 92 55
70 96 57
62 85 50
73 99 60
69 94 56
75 101 61
66 90 53
72 97 59
67 91 54
69 94 57
71 96 58
74 99 59
69 94 56
71 97 58
104 124 111
146 162 170
147 163 169
147 163 169
153 170 174
153 170 177
151 168 175
148 164 173
153 169 178
150 166 171
150 165 173
155 171 183
149 165 170
151 168 174
149 166 170
155 170 177
153 168 176
114 133 124
67 91 54
70 95 57
74 100 60
70 95 57
73 99 59
75 100 60
71 96 58
72 98 59
69 94 56
74 100 61
74 101 61
70 95 56
74 101 61
73 99 60
73 99 60
145 162 167
158 174 183
149 165 172
153 169 174
161 177 187
157 174 182
160 176 185
156 173 184
154 170 175
155 171 175
157 174 182
152 168 177
155 170 175
147 163 168
146 163 171
123 142 138
124 145 137
121 139 134
156 173 182
155 172 180
162 177 187
138 155 155
111 131 121
85 109 82
72 98 60
72 97 58
72 97 58
77 104 62
74 99 62
134 153 153
155 172 178
160 177 186
145 163 168
155 172 178
164 180 192
161 177 187
155 173 184
157 174 184
157 174 184
156 172 180
154 171 178
154 170 178
107 130 112
70 96 57
78 106 65
74 100 61
72 97 58
76 103 63
74 101 61
95 118 95
116 137 126
153 170 177
164 181 191
146 163 167
91 114 92
71 97 58
77 105 64
79 106 65
79 106 65
77 105 63
74 101 60
72 97 58
76 103 63
79 106 65
108 128 113
164 182 193
161 178 190
159 176 186
147 164 171
135 155 152
80 104 73
77 104 64
79 107 66
77 104 64
88 115 81
144 162 163
156 174 183
167 183 193
158 176 186
156 173 178
164 182 196
168 186 198
106 128 111
73 100 61
78 105 64
97 122 98
140 158 156
159 177 188
165 183 194
157 173 182
160 176 185
155 172 176
172 189 203
162 179 191
158 175 186
167 183 191
165 181 194
161 177 186
156 172 176
119 139 131
142 159 163
164 180 192
156 173 181
153 170 178
161 178 189
159 176 186
161 179 189
159 175 183
159 176 186
162 179 188
161 179 191
166 181 193
154 170 181
154 170 178
163 179 189
152 168 172
119 138 134
141 158 161
160 176 184
157 173 181
168 186 199
151 168 175
164 181 192
153 169 176
121 139 135
98 121 102
75 102 63
71 98 59
72 97 58
69 95 57
73 99 60
72 99 59
70 96 58
73 99 60
68 93 56
133 151 149
140 157 157
115 134 127
86 110 79
72 98 58
71 96 58
74 100 61
75 102 62
74 100 60
74 100 62
68 93 55
71 97 57
71 96 58
77 104 63
73 98 59
69 95 57
71 96 57
75 101 62
73 99 59
114 133 125
158 175 183
151 166 172
142 158 158
162 179 191
149 165 170
147 162 167
149 165 174
136 154 156
122 140 136
98 119 99
74 99 63
76 102 62
74 100 61
70 94 56
72 98 59
69 94 56
70 95 58
71 96 58
73 99 59
138 155 154
154 169 177
152 168 176
161 176 185
137 152 154
146 162 166
154 170 176
148 163 172
143 158 164
152 169 175
154 170 178
151 165 173
149 166 170
139 154 154
157 172 179
151 166 171
156 172 181
143 160 164
143 160 166
145 161 166
106 126 113
72 97 58
68 93 56
76 100 69
106 125 116
129 147 144
140 157 161
150 166 173
149 164 172
142 156 161
137 153 156
164 180 194
157 172 180
159 175 184
148 164 169
149 165 173
137 153 154
141 158 162
146 162 168
141 158 162
114 131 126
69 93 56
68 93 55
72 97 58
69 94 56
69 94 56
69 93 56
70 96 57
72 97 58
70 94 57
71 97 58
67 91 54
68 93 55
73 99 60
65 88 52
71 97 58
66 89 53
73 99 60
70 95 56
72 97 57
84 104 85
150 166 171
151 166 174
136 152 158
156 171 180
146 161 167
149 164 171
147 162 168
148 164 170
146 162 166
143 160 164
147 163 169
142 157 161
138 155 156
117 135 125
106 124 115
108 126 115
89 111 92
68 92 57
72 96 58
79 100 77
132 150 151
142 157 163
150 165 170
152 167 173
146 161 164
144 161 166
142 158 163
139 154 157
139 156 159
152 168 174
143 159 162
139 156 156
139 155 160
147 163 168
137 153 158
133 149 150
146 162 168
155 170 178
148 163 172
143 159 163
70 96 57
66 90 53
62 85 49
72 97 59
67 92 53
66 90 54
72 97 58
68 92 54
69 94 57
73 99 60
64 89 53
69 94 57
68 93 55
75 100 61
70 95 57
67 91 54
68 92 55
68 92 54
68 93 55
108 128 118
147 162 170
146 161 167
151 168 177
146 162 170
143 159 162
151 166 173
137 152 155
149 165 171
145 161 168
146 162 167
140 156 158
148 164 171
156 172 179
141 156 161
142 157 163
142 158 164
152 168 178
155 170 179
144 159 165
65 88 52
69 94 56
67 91 54
70 95 56
67 91 54
73 99 59
68 92 54
72 97 59
72 98 59
70 95 57
70 94 56
67 92 53
67 92 55
74 100 61
73 99 60
71 96 58
70 95 57
69 94 56
112 131 119
150 167 175
150 165 171
144 160 166
145 161 167
149 165 175
147 163 169
150 165 172
148 165 171
145 161 167
145 162 170
149 165 175
156 172 181
137 152 157
143 160 162
155 170 178
158 174 183
154 169 176
135 153 154
67 91 54
73 99 59
72 97 57
72 97 58
72 97 59
75 100 61
71 96 58
69 94 56
71 96 57
74 100 61
68 92 54
71 96 57
71 96 58
74 99 59
68 93 56
71 97 58
75 101 61
127 146 144
148 165 171
151 167 174
160 175 183
149 165 171
152 168 174
153 167 176
150 166 174
156 171 182
146 162 168
154 172 181
148 163 171
147 164 172
149 165 173
149 165 172
159 176 186
144 161 165
92 114 92
73 99 59
74 100 60
75 101 61
74 101 61
68 94 56
71 96 58
69 94 56
71 97 58
75 101 62
69 95 56
75 101 61
72 97 58
73 99 60
72 98 59
86 109 82
146 162 165
154 170 177
147 164 171
153 170 179
159 176 187
163 179 190
146 162 168
164 179 188
157 174 183
150 167 174
154 170 176
164 180 190
149 166 172
159 175 184
151 167 171
94 116 94
75 101 65
108 127 113
134 151 152
145 161 163
131 149 146
116 135 130
109 130 115
92 114 92
74 99 60
71 97 58
75 101 61
72 98 60
75 100 66
132 150 151
158 174 182
148 165 172
147 163 168
162 180 191
156 173 179
163 178 188
158 173 182
152 170 179
159 176 184
157 174 183
156 174 183
155 171 178
93 114 92
75 101 61
73 99 59
77 104 63
80 107 66
78 106 64
74 100 60
77 104 63
76 103 62
77 105 65
105 127 111
122 143 134
95 118 93
75 101 65
76 103 63
76 102 62
73 100 61
77 104 64
81 109 68
78 106 65
73 99 60
79 107 66
117 138 128
161 179 188
168 183 193
164 181 191
165 182 193
162 179 189
140 160 161
86 111 81
136 155 157
159 177 189
165 183 194
157 174 181
162 180 190
160 176 186
158 174 185
158 176 187
166 183 196
84 110 75
113 135 120
145 162 164
161 179 191
160 178 189
178 193 207
165 182 194
164 181 191
166 182 190
165 181 193
166 182 192
150 167 173
167 184 194
151 167 173
151 169 175
116 137 127
100 122 100
157 174 183
172 188 199
157 174 183
159 176 187
160 178 187
159 176 183
154 171 177
159 174 185
165 182 193
158 175 183
155 172 180
161 176 187
163 181 194
145 162 166
135 154 151
96 118 95
76 102 62
111 131 121
149 166 171
161 177 187
159 175 186
157 174 186
160 177 186
157 174 183
165 182 195
151 167 172
154 170 177
136 153 153
130 148 147
111 130 119
73 99 60
78 105 64
73 99 60
75 101 61
85 107 81
113 132 118
125 144 137
70 96 57
72 98 58
78 106 65
74 100 60
68 93 55
72 96 57
69 94 56
73 100 60
70 96 58
71 96 58
71 96 57
73 100 60
72 98 58
71 96 57
71 97 58
72 98 60
75 102 62
74 100 60
110 131 117
152 170 179
148 164 169
148 164 170
152 169 177
146 163 166
104 124 110
91 113 92
77 102 61
73 99 60
73 99 59
67 91 54
67 91 53
70 95 56
69 94 55
71 97 59
70 95 57
75 101 61
73 99 60
71 97 59
118 138 129
155 171 175
149 166 172
140 157 160
138 154 156
151 167 176
158 174 183
149 166 172
154 170 177
148 165 171
153 169 176
147 165 172
146 162 167
151 167 172
151 167 175
154 169 175
140 156 160
153 169 176
154 171 180
130 148 145
114 133 125
133 150 149
139 157 158
144 161 165
148 165 169
139 155 158
151 166 172
154 170 178
138 154 153
142 159 161
147 161 168
148 163 168
138 154 160
130 148 150
154 171 182
156 172 180
141 157 162
159 175 182
145 162 168
149 165 171
145 162 166
67 92 54
72 98 59
71 96 58
71 97 59
68 93 55
71 96 58
69 94 56
71 96 56
71 96 58
66 90 53
69 94 56
69 93 56
70 95 57
70 96 58
68 92 55
71 96 59
63 86 51
68 93 56
73 98 59
70 95 57
148 165 170
139 155 159
143 160 166
126 142 142
150 167 175
142 158 160
141 159 163
132 149 149
115 132 127
103 122 110
91 112 92
65 89 52
72 97 58
72 97 58
64 87 50
70 95 56
68 92 55
69 93 56
71 96 57
67 91 54
125 141 140
148 164 170
141 157 159
150 165 168
152 168 174
149 164 172
146 162 169
145 160 165
148 164 171
141 157 161
145 161 165
143 159 164
152 168 175
146 161 168
141 155 161
137 153 155
139 154 158
142 157 160
145 160 167
157 172 179
96 115 95
65 89 52
69 94 56
70 94 57
69 93 56
73 98 58
67 92 55
66 91 53
69 94 56
67 92 53
67 92 55
68 92 55
71 96 58
63 86 51
72 97 59
73 99 59
62 85 49
67 91 54
67 90 53
70 94 59
149 165 172
146 163 167
159 175 184
137 155 161
151 167 176
144 160 164
144 160 165
148 163 169
146 162 163
154 169 178
147 164 170
151 168 175
149 164 170
145 160 166
156 172 180
149 165 172
141 156 164
139 154 158
142 157 162
90 110 93
68 92 55
69 94 57
61 85 47
61 85 49
67 91 54
68 93 55
70 96 57
62 86 50
67 91 55
69 94 56
66 91 54
73 99 59
68 92 54
64 88 51
69 94 56
66 90 54
73 99 60
68 93 56
128 145 146
139 155 159
142 158 162
155 171 180
153 169 174
152 168 174
137 154 155
154 169 178
143 160 164
153 168 174
148 163 167
144 160 163
147 163 166
145 161 164
147 163 169
140 157 160
147 163 169
152 168 175
104 123 110
73 99 59
68 93 55
76 102 62
71 96 58
73 99 61
69 94 56
68 93 55
74 101 61
75 100 60
64 88 52
63 88 50
69 94 56
64 88 51
73 99 60
62 85 49
68 92 55
82 105 76
132 149 148
145 162 167
152 169 176
152 168 173
151 166 174
142 159 165
150 166 172
148 163 169
153 170 176
153 170 177
159 174 182
145 162 167
163 179 189
149 165 171
149 164 170
149 166 173
135 153 156
67 91 58
73 99 59
72 98 59
76 103 63
69 94 55
65 89 53
73 98 59
72 98 59
68 93 54
76 102 62
74 100 60
69 94 55
73 99 59
72 98 58
73 99 60
94 115 95
147 164 169
166 181 193
153 170 178
155 172 180
159 176 187
156 173 181
164 181 193
161 178 189
149 166 173
159 176 185
160 177 185
155 170 178
156 174 184
131 148 147
109 129 116
144 161 164
159 176 185
161 176 186
151 169 178
159 175 184
153 170 177
158 175 185
157 173 184
145 162 168
135 153 154
136 155 154
127 145 143
96 118 99
96 118 100
150 166 171
149 167 172
150 166 172
160 175 185
158 175 185
160 178 189
161 177 185
157 173 179
160 176 185
161 178 186
154 171 179
156 172 182
155 172 181
92 116 88
74 101 61
79 106 64
77 104 64
74 101 60
72 98 59
77 104 63
75 101 62
75 103 62
71 98 58
77 103 63
93 117 87
152 169 176
143 161 164
118 137 129
85 110 78
78 105 64
75 102 62
73 99 59
75 103 63
75 102 62
75 101 61
120 140 131
163 180 191
161 179 190
164 182 192
175 193 209
167 183 196
169 184 193
162 178 187
163 181 194
159 176 186
159 177 187
159 175 183
159 176 188
156 173 181
159 176 185
149 167 169
151 168 171
164 181 191
160 178 187
165 181 192
157 174 185
168 184 193
155 170 178
173 189 202
160 177 186
163 179 188
165 181 193
164 181 192
133 151 149
108 130 113
76 103 63
78 106 65
100 123 102
158 174 184
160 176 184
154 172 180
163 179 189
163 180 191
155 170 177
157 173 180
157 174 185
161 178 188
160 178 187
165 181 193
147 165 170
101 121 110
73 99 60
72 98 60
74 101 61
71 97 58
102 125 107
161 176 184
161 176 184
154 170 179
156 174 183
160 177 186
161 177 186
165 183 194
151 168 176
145 161 166
161 177 187
161 177 185
159 175 185
149 166 170
128 146 143
93 113 92
139 156 158
149 166 171
158 174 184
121 140 134
71 97 58
72 98 59
75 102 60
75 101 62
75 102 62
73 99 60
70 96 57
66 91 54
72 97 59
72 98 59
74 100 61
74 100 60
78 104 64
77 104 64
73 100 61
76 103 63
70 95 58
73 99 60
91 114 88
159 174 183
145 161 165
103 123 108
84 107 76
73 99 59
78 105 63
67 91 54
67 93 55
67 92 54
74 99 60
72 98 60
68 92 54
72 99 59
78 104 64
74 100 60
69 94 57
76 103 63
71 96 57
76 103 62
109 128 118
151 167 175
150 166 175
151 166 175
158 174 185
154 170 179
156 172 180
142 159 162
144 161 167
158 173 181
148 165 171
151 167 177
149 165 171
154 171 177
147 163 169
143 159 166
121 139 134
96 116 101
74 98 68
69 94 56
94 115 95
144 160 166
144 160 166
153 169 174
161 177 185
160 176 186
147 163 167
150 166 172
155 171 179
145 161 164
148 165 172
156 172 179
154 171 181
146 162 170
143 158 165
152 167 176
151 168 175
153 169 175
148 164 174
150 166 172
156 172 182
89 111 82
68 92 54
63 87 51
73 99 59
66 89 52
66 91 54
69 94 56
65 88 52
68 92 54
69 95 56
71 96 57
69 94 55
71 97 58
75 101 60
66 91 53
75 101 61
70 95 57
73 98 59
65 90 53
70 95 58
122 138 134
130 146 146
125 143 140
109 128 116
91 113 90
83 104 78
66 90 53
73 98 60
69 94 57
70 95 56
66 90 53
67 92 54
69 94 56
69 94 56
67 92 55
70 96 57
68 93 56
71 96 58
66 90 52
70 96 58
94 115 97
157 172 182
152 168 175
146 161 166
149 164 171
148 163 167
154 169 179
150 166 174
139 155 160
157 173 179
151 167 176
151 167 175
147 163 168
141 157 160
149 166 172
151 167 176
153 168 176
147 162 168
148 164 171
142 158 163
131 147 149
73 99 60
72 97 58
72 97 59
72 97 58
72 97 58
67 92 55
70 96 57
66 91 54
63 87 50
74 100 60
72 98 59
70 95 57
71 97 59
70 95 56
76 102 62
74 100 60
70 94 56
69 93 55
67 91 54
124 141 138
153 169 175
150 165 171
148 164 170
156 172 178
153 168 176
151 168 175
147 163 168
146 162 168
142 157 163
150 166 173
140 156 161
133 150 150
152 168 174
147 164 169
147 163 171
139 155 155
153 168 175
149 165 172
134 150 150
79 101 74
71 96 58
65 89 53
65 89 52
66 90 53
67 92 55
67 91 53
64 89 52
73 99 59
71 96 57
69 94 56
67 92 55
72 99 60
72 98 59
67 91 54
64 89 52
78 104 63
75 101 60
104 124 110
154 169 178
150 167 173
142 158 161
145 162 167
142 158 164
150 166 174
149 164 170
148 164 171
151 167 176
166 181 193
140 158 161
149 166 172
150 168 175
152 168 177
151 166 174
147 162 167
151 167 174
145 162 166
66 89 53
69 94 56
70 95 56
69 94 56
73 99 59
64 88 51
69 94 57
69 94 57
68 92 55
75 102 63
63 86 50
73 98 59
75 101 61
71 96 58
72 97 58
65 89 52
67 92 54
101 121 107
155 171 178
161 177 187
150 166 171
152 168 172
159 176 186
153 170 175
150 166 175
148 165 172
156 174 183
139 155 159
160 175 181
159 175 183
146 162 167
150 166 172
146 162 167
147 164 173
111 129 120
69 93 54
70 95 57
61 85 50
71 96 58
75 101 61
73 99 59
74 100 61
75 101 61
73 99 61
72 98 59
67 91 53
72 98 58
73 99 60
72 98 59
71 97 59
109 129 117
150 167 175
159 176 186
150 168 173
154 170 177
149 167 173
158 174 185
151 168 175
145 161 167
147 163 167
128 147 143
110 131 120
87 111 80
71 97 58
74 100 61
112 133 119
159 175 181
160 176 186
159 176 185
153 169 178
147 165 169
158 175 186
155 171 180
163 180 193
157 174 182
161 177 187
157 175 185
161 178 190
166 183 197
150 168 176
117 137 126
138 154 155
148 166 170
157 174 181
161 177 187
166 183 196
157 175 184
154 171 178
156 173 182
160 176 184
150 167 176
153 168 173
143 160 164
82 108 77
75 102 62
76 103 63
76 103 62
77 104 63
72 99 59
75 102 62
75 102 61
76 102 62
76 103 62
78 104 64
90 113 88
157 176 184
164 181 191
161 178 190
145 164 165
122 141 134
97 119 97
78 106 65
75 101 61
77 105 65
75 103 62
113 135 120
162 178 187
167 185 196
164 180 188
165 182 192
160 177 186
167 184 194
166 184 196
162 180 191
161 178 188
162 179 189
152 169 179
137 157 157
84 109 77
107 128 112
161 178 189
162 178 189
159 176 185
168 186 200
168 185 197
165 182 195
165 183 195
157 175 185
176 193 208
156 174 181
124 145 138
99 123 97
72 99 60
74 101 62
74 100 61
76 103 63
96 116 100
159 176 183
156 173 182
153 170 178
170 186 198
155 172 182
166 182 194
157 173 182
158 175 184
152 169 176
133 150 147
91 112 88
73 99 60
73 99 60
72 98 59
79 106 64
72 98 59
76 103 62
91 114 92
150 166 173
166 182 193
149 166 173
153 170 177
157 174 184
162 178 190
155 172 180
155 172 179
157 173 180
162 179 191
150 167 174
139 156 154
103 124 109
79 105 68
75 100 60
69 93 54
96 119 96
124 142 135
113 133 120
75 100 63
74 99 60
75 102 63
71 97 59
76 102 62
68 93 56
74 100 60
69 95 55
75 102 62
76 102 62
71 97 58
68 93 56
76 103 63
73 99 59
77 105 65
72 98 59
80 103 73
106 128 110
129 146 142
84 108 81
64 89 52
76 103 62
68 93 56
71 98 59
71 96 58
74 99 60
67 91 54
70 95 57
70 95 57
72 97 59
76 102 62
76 103 63
73 99 60
70 95 56
65 89 52
73 99 60
71 96 58
77 104 64
92 113 92
151 167 174
144 160 167
151 167 173
152 168 172
156 171 178
152 168 176
160 176 186
156 172 181
149 165 171
155 171 180
145 160 164
130 147 146
108 127 115
86 110 80
71 97 58
64 87 51
70 95 57
68 92 55
73 98 59
71 96 58
148 165 171
168 184 195
149 164 170
155 170 174
150 166 174
157 173 182
150 165 173
149 165 172
143 160 161
148 164 172
142 159 162
154 168 177
158 174 181
158 174 184
142 158 163
149 166 171
145 161 169
140 155 159
144 160 165
161 177 185
106 126 112
72 98 60
72 97 59
75 102 62
67 92 54
72 97 58
69 94 55
66 90 52
72 98 59
69 93 56
65 88 51
70 95 58
68 92 55
70 95 56
69 94 56
76 100 69
98 118 99
109 129 119
125 142 138
125 143 136
137 155 154
76 102 62
69 94 56
67 91 53
69 94 56
73 98 59
66 91 53
75 101 62
73 99 59
64 88 52
71 96 58
69 94 56
67 92 55
70 94 57
72 98 59
73 99 60
71 96 58
69 93 56
73 98 60
69 95 58
71 96 58
147 164 173
152 167 173
147 162 166
144 161 169
156 172 183
156 172 182
150 166 169
146 162 167
138 154 156
144 161 166
147 162 166
153 168 177
131 147 148
160 175 182
151 167 177
144 160 163
150 166 172
150 166 173
142 159 164
144 160 164
84 103 84
72 97 59
68 93 56
71 97 59
66 89 53
70 96 57
65 88 51
71 97 59
67 91 54
70 95 56
66 90 53
70 95 57
66 91 54
68 93 56
68 92 55
71 96 57
75 101 62
66 90 52
69 93 55
80 102 75
152 167 174
136 153 154
145 161 167
158 175 183
157 173 183
152 167 175
142 156 159
155 172 179
140 158 161
143 160 164
137 154 157
147 165 171
151 166 173
135 150 154
141 158 163
155 170 179
152 168 176
148 164 170
148 164 170
115 134 126
67 92 53
67 92 55
69 95 57
72 99 60
72 98 58
68 92 55
85 107 81
97 117 100
89 112 88
95 118 95
104 125 111
99 119 103
100 119 102
109 129 117
100 120 105
118 135 132
112 130 126
110 131 121
120 137 131
122 140 135
118 135 127
114 132 125
123 139 134
120 139 128
114 132 125
113 131 123
109 130 120
98 117 102
114 131 123
100 120 102
119 137 129
113 133 123
117 135 129
114 132 124
120 139 134
118 137 130
109 131 117
128 144 140
125 143 141
113 131 130
126 145 142
122 140 135
117 136 126
117 136 131
104 124 108
111 130 119
94 115 98
96 119 98
98 118 101
99 118 106
86 108 83
87 110 82
78 102 70
74 99 63
117 135 130
159 175 184
154 170 176
157 173 183
155 172 181
146 162 168
148 165 171
150 166 173
159 175 184
152 168 176
149 165 174
157 173 182
148 163 166
141 156 160
158 173 183
156 171 180
143 158 163
89 112 89
74 101 62
76 103 63
69 94 56
75 101 61
72 99 59
74 100 61
74 100 61
75 101 62
74 100 61
70 95 57
70 95 57
72 98 58
69 94 57
72 98 59
77 102 67
144 160 162
157 173 181
159 175 183
161 177 189
146 162 169
133 152 152
124 143 136
99 121 100
67 92 54
70 96 57
76 103 63
75 102 62
67 92 54
73 99 60
78 105 63
136 153 154
149 167 173
159 175 185
160 177 187
160 176 184
158 175 185
156 173 182
158 174 181
159 175 184
151 168 175
156 174 182
167 182 192
158 176 184
159 176 186
128 147 143
70 95 59
75 101 62
75 102 61
103 125 108
112 131 117
133 153 151
148 164 169
161 177 185
159 177 185
162 179 189
164 180 189
154 171 180
144 162 165
77 103 68
73 99 60
77 103 63
73 100 60
75 102 63
77 105 64
76 103 63
80 107 65
77 105 64
77 104 63
74 101 62
95 118 95
152 170 179
171 188 204
156 173 182
160 178 188
157 176 186
160 177 186
126 146 140
109 131 118
79 107 66
80 107 66
113 134 119
157 174 179
169 186 196
165 182 192
154 171 180
168 185 200
168 185 196
154 171 178
159 177 188
124 144 138
82 110 74
76 103 62
76 103 62
120 141 131
168 186 198
170 186 198
168 185 197
165 182 194
154 170 181
163 179 188
160 176 188
151 168 173
119 140 130
75 101 63
76 102 63
72 99 59
73 100 60
76 103 62
73 99 60
77 104 63
114 135 120
149 166 173
158 175 183
159 175 182
159 176 186
169 187 199
153 171 177
131 150 147
115 135 124
82 108 75
79 106 65
77 103 62
76 103 62
78 105 64
76 103 62
71 97 58
70 95 57
73 99 59
118 138 127
164 180 190
151 167 175
156 173 181
158 173 182
157 173 183
160 176 186
157 174 187
155 171 179
138 156 155
113 134 122
74 99 66
72 99 60
71 97 58
77 104 64
71 97 58
74 101 62
77 104 63
74 100 60
102 123 109
158 175 186
146 163 170
117 136 130
107 130 114
79 106 67
76 103 62
72 98 58
72 98 59
76 102 62
74 101 61
73 99 60
75 101 61
74 100 61
79 103 68
103 122 110
143 159 162
148 165 173
148 164 169
155 172 182
85 107 80
70 96 57
72 98 59
76 102 62
72 97 58
75 102 62
75 101 62
72 97 59
71 96 57
72 97 58
75 101 61
67 92 56
73 99 59
69 94 57
75 101 61
71 96 57
65 89 53
71 96 57
70 96 57
68 92 55
153 169 178
153 170 176
139 157 161
144 161 163
152 169 175
153 169 178
154 170 179
119 136 134
119 137 132
75 98 67
64 88 52
63 86 50
72 97 59
70 95 56
70 95 56
70 96 57
68 93 55
70 94 56
67 92 54
72 98 59
125 142 142
157 172 181
143 160 164
146 162 170
149 164 172
140 158 162
146 162 169
144 160 167
149 165 172
155 170 179
156 172 180
150 166 171
155 171 180
155 171 179
153 169 177
142 159 162
151 167 173
149 165 173
160 175 185
151 167 175
127 145 143
75 100 61
71 96 58
67 92 55
71 96 59
71 96 58
74 100 60
69 93 56
71 97 58
67 92 55
73 97 61
101 120 105
118 136 130
117 136 130
133 150 151
152 168 176
143 160 165
153 168 177
141 157 162
139 157 160
154 170 178
69 92 61
63 87 51
69 95 56
71 96 58
70 95 56
73 98 59
68 93 55
68 92 54
71 96 58
74 99 61
68 93 55
67 91 54
68 93 56
71 96 58
71 96 59
75 101 61
71 97 58
69 94 56
69 94 56
67 92 55
129 146 146
155 173 179
153 169 177
153 170 176
151 167 172
146 162 167
137 155 156
164 179 191
140 157 160
150 165 173
156 172 179
144 160 164
160 176 185
148 163 171
156 172 181
146 162 167
142 159 166
155 172 182
145 161 167
144 160 164
127 144 143
74 99 59
67 91 54
75 101 61
68 92 55
71 97 58
63 88 51
65 89 53
69 94 55
70 96 57
70 95 57
76 104 63
69 93 55
69 94 55
68 92 55
76 102 62
69 93 56
69 94 56
69 94 56
73 98 59
114 132 121
155 172 181
152 168 176
142 159 163
139 156 159
151 166 173
147 163 167
154 169 179
155 170 178
147 163 168
134 151 152
144 161 163
135 152 155
122 139 132
128 146 143
126 145 142
105 123 113
102 121 110
111 132 119
90 109 93
116 133 127
137 153 154
142 159 160
138 155 157
140 155 160
149 166 171
158 173 181
150 167 174
160 176 184
149 165 170
146 163 169
158 174 183
146 162 167
159 174 182
157 173 183
154 171 179
158 174 182
159 175 186
136 153 158
70 94 62
71 96 57
72 97 58
74 100 61
71 97 59
67 92 54
71 97 58
69 95 56
65 89 52
73 99 59
71 97 59
71 96 57
66 90 52
70 95 57
74 101 62
70 96 57
71 96 57
70 95 57
131 149 149
141 159 163
161 178 189
148 164 168
155 172 179
154 169 177
148 164 171
151 167 174
147 164 169
147 162 168
151 167 174
151 167 173
151 167 172
149 165 172
156 171 181
153 169 177
149 165 169
132 149 152
77 102 65
93 115 94
88 111 86
93 113 92
98 119 99
114 133 123
104 123 111
110 130 119
122 140 131
135 152 154
106 125 112
141 157 160
138 154 155
145 162 168
152 169 175
167 182 193
141 158 162
85 110 76
73 100 60
71 97 59
72 99 60
67 92 55
72 98 59
75 102 61
70 95 56
67 91 54
76 102 62
74 101 61
74 100 60
73 99 60
69 94 57
73 98 59
81 103 76
143 161 165
121 141 134
101 121 107
78 102 73
75 101 62
72 98 59
75 102 62
73 100 61
69 94 56
73 99 60
73 99 59
71 97 59
76 102 62
72 98 59
75 101 64
134 151 153
160 176 186
152 169 178
162 178 189
165 180 191
155 172 182
164 181 193
149 164 169
154 171 180
163 180 192
157 173 184
155 171 178
153 170 179
150 168 175
135 153 151
76 104 63
77 104 64
76 103 63
73 99 60
71 96 57
73 99 59
85 110 81
108 129 115
125 144 139
142 159 161
154 170 179
169 186 201
149 166 168
80 105 74
79 105 65
74 101 61
79 107 67
76 104 64
77 104 64
66 92 55
74 101 62
75 101 62
80 108 66
79 107 66
99 123 106
156 173 181
175 192 207
166 183 196
150 169 175
164 180 191
165 182 193
162 180 189
162 179 189
135 155 153
120 141 135
114 134 123
162 179 191
165 182 193
163 180 190
170 187 197
151 170 180
124 144 136
75 102 62
73 99 61
79 107 66
75 102 62
74 101 61
144 163 164
167 184 195
162 179 188
168 186 197
164 180 189
167 184 195
156 173 182
107 129 113
74 101 61
76 103 63
77 104 63
77 104 64
78 105 65
74 101 61
76 103 63
75 102 62
75 100 61
129 148 144
163 178 188
171 188 202
161 177 187
156 173 182
128 147 137
96 120 95
75 101 61
73 99 60
72 98 58
80 108 66
73 98 59
77 104 64
71 97 59
72 99 58
73 99 60
74 100 60
72 98 58
122 142 134
157 174 182
155 171 175
167 183 195
163 180 191
157 173 180
137 155 156
112 133 121
82 107 79
69 94 56
76 103 63
72 97 59
74 99 60
78 105 64
73 100 60
74 101 61
74 101 60
74 101 62
77 103 63
106 126 115
156 173 182
155 172 180
154 170 177
153 171 178
147 163 168
153 171 180
129 146 143
91 112 91
74 101 62
71 97 58
85 109 79
104 126 111
136 153 154
149 165 172
156 172 181
159 175 183
159 176 187
153 170 177
155 171 181
103 126 108
73 99 60
75 101 61
70 97 57
78 104 63
72 98 60
71 96 58
74 99 59
69 94 56
69 95 56
74 100 61
71 96 57
74 99 61
68 94 57
76 103 62
73 99 59
75 100 60
76 102 62
75 100 60
72 97 59
132 149 147
153 170 176
153 170 178
138 157 156
109 128 118
109 128 118
76 101 67
74 100 60
70 96 57
70 95 56
71 97 57
69 94 56
74 100 60
71 96 57
71 96 57
69 93 55
73 99 60
73 99 60
69 95 57
71 97 58
106 124 113
146 163 167
149 165 172
137 153 156
155 170 177
149 167 173
153 170 178
154 171 181
147 163 169
153 170 178
160 176 185
147 163 171
155 170 177
152 168 173
155 170 176
142 158 163
146 161 169
145 160 165
164 180 192
143 160 165
157 172 181
70 95 56
71 97 58
76 102 62
73 99 59
66 91 55
97 119 97
105 124 114
127 144 142
143 159 160
147 163 170
147 163 168
137 153 157
146 163 169
151 166 172
151 166 173
151 167 173
138 153 159
141 157 162
143 158 164
143 159 163
116 135 128
72 97 58
71 96 57
73 98 60
72 98 59
76 102 62
68 92 54
68 91 54
71 96 58
69 95 57
73 99 60
68 92 54
72 98 59
71 97 58
76 102 61
69 94 56
73 99 59
66 90 54
71 96 57
69 94 55
86 107 85
153 170 176
145 161 168
160 176 184
151 166 174
146 162 166
149 165 170
142 159 166
156 173 181
149 166 175
142 158 163
145 160 163
152 168 174
155 172 178
151 167 175
145 161 168
149 166 169
151 166 176
145 162 168
156 172 181
144 161 163
71 93 65
68 93 56
67 91 53
73 99 60
62 86 50
67 92 54
71 96 57
69 94 55
73 99 60
70 94 56
72 98 59
71 96 58
67 92 54
69 94 57
71 96 57
72 96 57
77 101 64
89 111 89
103 121 110
98 118 104
125 141 139
118 135 130
114 131 124
106 125 115
92 112 94
86 110 82
79 102 72
76 102 65
70 95 57
69 94 55
70 96 58
71 96 57
71 96 57
67 92 54
69 94 56
71 97 58
69 94 56
69 94 56
70 95 57
119 138 132
159 176 185
144 160 163
142 157 164
146 163 168
148 164 170
155 171 179
156 171 180
142 158 165
148 163 170
147 164 168
146 162 168
152 167 174
149 166 172
151 167 173
148 164 172
144 160 167
146 162 170
136 152 155
109 128 115
72 98 59
73 99 60
69 94 56
71 96 57
63 86 51
72 97 58
67 92 55
72 97 59
72 97 59
74 101 61
72 98 59
65 90 53
71 96 57
64 88 51
72 98 59
72 98 58
67 91 54
81 104 79
161 177 185
157 173 184
147 163 169
157 174 184
147 163 168
144 161 164
156 172 183
143 159 162
149 165 171
151 168 174
156 172 179
158 173 183
154 170 178
152 169 174
149 167 171
138 154 159
161 176 184
123 140 136
75 101 61
67 91 53
72 98 60
74 100 61
73 98 59
69 95 56
74 99 60
73 99 60
72 98 59
72 98 59
72 98 59
72 97 58
74 101 61
70 96 58
79 104 69
85 108 78
92 113 93
128 145 145
135 153 155
120 140 133
124 143 139
108 129 113
101 123 105
81 106 73
81 104 74
72 98 60
72 99 59
77 102 67
105 124 109
114 132 124
134 153 156
162 178 189
139 156 158
74 98 65
76 102 62
71 98 59
66 91 52
73 99 60
76 103 63
70 96 57
74 100 61
74 100 60
76 103 63
75 101 62
72 98 58
79 105 64
73 99 60
84 109 75
153 170 180
168 183 193
159 175 183
159 175 183
159 176 184
159 176 185
156 173 183
152 169 175
153 171 178
153 169 176
151 169 178
159 176 187
154 171 175
153 169 178
108 129 114
73 100 61
76 103 63
73 99 59
71 96 58
71 98 58
74 101 61
76 102 62
77 105 63
71 97 59
78 105 67
102 123 105
129 149 144
107 130 113
84 107 80
75 101 61
76 103 63
76 102 63
77 104 64
73 99 60
76 102 62
78 106 65
73 100 61
72 99 60
77 106 65
98 120 102
165 183 194
161 179 188
161 178 188
156 172 181
165 182 194
164 181 191
155 173 179
163 181 192
165 183 195
165 184 193
148 167 169
153 171 174
155 174 181
111 133 118
77 102 65
78 105 63
79 106 65
79 106 65
77 104 63
76 103 63
78 105 64
150 167 173
157 175 184
160 178 189
163 180 190
130 151 148
102 125 104
75 103 63
72 98 60
74 101 61
73 99 59
79 106 65
79 106 64
74 100 61
77 104 64
79 107 66
77 105 64
75 101 61
139 157 157
157 174 182
153 171 177
118 138 129
87 114 79
71 97 57
76 104 64
77 104 63
77 105 63
75 101 62
76 103 63
75 102 62
74 100 61
77 103 63
74 100 60
73 99 60
73 100 60
73 100 61
107 129 112
158 174 182
157 173 181
153 170 174
124 143 138
94 116 91
73 100 60
76 102 63
77 104 64
76 103 63
72 98 59
70 95 56
73 99 60
72 99 59
75 102 62
79 106 65
72 98 59
75 102 62
72 98 58
100 123 100
154 170 178
173 189 202
151 168 175
159 175 184
157 173 182
152 169 179
162 178 189
161 178 189
121 140 135
87 110 85
97 119 101
129 148 144
142 160 162
151 167 174
156 172 178
152 168 175
163 180 191
152 169 177
158 174 183
108 129 112
69 94 55
74 101 61
71 97 59
68 94 56
75 101 61
68 93 55
70 96 57
75 102 62
76 102 62
74 101 61
68 93 54
67 92 55
65 89 52
71 96 58
67 93 54
69 94 56
73 98 59
73 99 59
81 105 77
111 130 123
102 123 108
87 111 83
70 95 57
67 92 55
71 97 58
71 96 58
73 100 61
76 103 62
72 98 60
68 93 55
75 102 61
73 99 60
74 100 61
74 100 61
75 101 62
72 98 60
74 100 61
77 103 62
72 98 59
118 136 129
162 179 189
143 160 166
155 171 178
155 170 175
145 163 167
155 171 179
150 166 173
152 169 177
157 173 183
152 167 172
159 175 187
158 175 186
142 158 163
162 178 188
151 168 174
151 167 174
147 163 168
154 171 180
146 163 165
145 161 166
95 115 100
102 121 104
119 138 132
136 153 153
155 170 177
145 160 166
146 163 166
147 163 172
154 169 175
162 178 188
149 165 172
152 168 174
160 176 185
143 159 162
148 164 172
152 169 177
129 146 144
147 163 170
150 166 172
152 167 174
146 162 168
74 100 60
71 97 58
71 96 58
72 98 59
72 98 59
67 92 54
66 91 53
63 86 50
67 91 53
70 95 57
66 91 53
68 92 55
72 98 59
70 96 57
66 91 53
71 96 56
71 96 58
70 95 57
70 95 57
69 94 56
136 153 153
156 172 178
156 173 181
156 171 181
142 159 164
156 173 181
138 154 157
147 164 166
158 174 183
156 173 184
147 163 167
152 169 176
148 165 169
155 172 181
151 168 176
153 170 180
149 165 170
167 183 193
148 164 170
155 173 185
94 113 102
66 90 53
71 95 56
72 98 59
72 98 59
69 94 56
70 96 57
87 108 82
83 103 82
99 120 100
115 133 128
118 136 132
113 131 123
135 153 156
127 145 144
140 156 160
150 167 173
154 170 178
148 165 171
144 161 166
114 133 128
70 96 57
74 100 61
67 91 54
68 93 55
73 98 60
67 91 53
68 93 55
71 97 58
74 100 61
69 94 56
72 98 58
73 98 59
72 97 59
72 97 58
66 91 54
69 94 55
72 97 58
69 93 56
79 100 72
154 171 179
160 175 184
156 172 181
150 166 172
140 157 161
153 169 176
148 165 170
143 160 164
139 155 158
153 169 176
156 173 183
155 170 178
146 163 171
149 166 172
143 159 163
144 160 163
154 170 178
151 167 175
156 173 181
76 99 68
70 96 57
74 100 61
71 97 58
73 98 59
75 101 62
69 94 56
72 98 60
75 102 62
72 98 59
78 105 64
67 92 54
69 94 56
71 97 58
76 104 62
69 94 56
73 98 59
71 97 58
108 127 117
141 156 162
154 170 177
164 180 189
155 171 180
150 166 175
155 171 180
152 169 177
156 173 178
144 160 165
145 162 169
153 169 176
150 167 175
154 169 175
151 166 172
149 164 169
158 174 182
157 174 182
96 116 99
77 103 63
74 100 60
73 99 60
75 101 61
76 103 63
74 100 60
73 99 59
72 99 60
72 97 59
73 98 59
73 99 60
73 99 59
75 102 61
71 97 58
76 102 62
71 97 58
139 157 158
160 177 189
151 168 173
150 167 175
156 174 185
146 162 170
147 164 168
134 151 151
121 141 135
93 116 89
99 121 104
114 134 126
126 146 137
128 146 143
136 155 153
145 162 164
106 126 112
72 99 60
78 105 64
75 101 62
72 99 59
72 98 59
78 104 63
76 103 63
72 98 59
74 100 61
71 97 57
76 103 61
74 101 61
70 96 58
75 102 61
98 119 103
154 171 178
161 177 187
157 174 184
165 182 193
157 174 181
160 176 184
161 177 184
161 178 190
158 175 183
168 184 196
160 177 186
157 174 183
162 179 191
154 172 179
90 115 87
73 99 60
76 103 63
77 106 65
76 104 63
77 104 64
74 101 61
77 105 64
69 96 57
75 102 62
75 101 61
79 107 66
71 98 59
132 152 152
149 169 176
141 159 163
112 132 119
88 112 83
76 104 63
71 98 58
80 108 67
73 99 60
75 102 62
76 103 62
74 102 63
114 136 123
169 186 197
171 188 200
161 179 190
164 182 196
159 176 187
157 175 184
164 182 194
156 175 185
169 185 196
168 186 198
140 159 161
75 102 62
79 106 65
80 108 67
75 102 62
81 109 67
77 104 63
77 104 64
79 108 67
80 107 66
148 166 171
156 175 183
115 136 122
86 112 80
78 106 65
77 104 64
74 101 62
79 107 65
76 103 63
75 101 61
74 101 61
73 99 60
79 107 65
79 106 65
76 103 63
76 104 63
77 103 65
116 135 126
102 124 108
75 102 62
75 102 62
77 105 65
79 106 64
76 102 63
76 103 62
72 98 59
77 104 64
73 99 60
72 98 59
78 106 66
76 102 62
70 96 58
73 100 61
73 99 60
75 102 62
110 132 120
142 161 167
96 118 97
78 104 68
75 102 61
70 96 56
74 101 62
78 105 64
72 98 58
73 100 61
75 101 62
72 98 58
72 98 59
70 96 57
77 103 63
73 99 60
76 102 62
74 100 61
69 94 56
97 121 99
171 186 199
156 173 180
162 178 188
162 177 187
156 171 179
140 156 158
100 121 104
77 103 66
72 97 58
74 101 62
72 99 60
74 99 60
75 102 61
77 103 65
94 116 98
124 144 138
137 154 156
140 156 159
151 168 175
124 144 138
74 100 60
67 92 54
69 94 57
77 102 63
72 97 58
70 95 56
71 96 58
70 96 58
73 99 59
70 95 56
72 98 58
70 95 56
70 96 57
70 94 58
73 99 63
100 122 102
123 143 138
139 157 159
152 169 176
124 142 139
74 100 60
74 101 61
77 104 64
70 95 56
69 94 56
76 101 62
73 98 59
73 98 58
70 95 57
78 104 63
71 96 57
76 102 62
74 100 60
68 93 55
68 93 56
70 96 57
65 90 53
73 99 60
74 100 61
81 107 75
159 175 183
152 169 176
153 169 178
155 171 179
150 166 174
152 169 176
158 174 181
151 167 176
146 163 168
152 168 176
152 168 176
161 177 186
152 168 174
151 168 176
153 168 177
146 162 167
126 142 140
122 141 137
95 114 101
75 98 64
116 134 128
160 175 182
157 173 182
155 171 181
163 179 190
155 171 180
143 159 163
149 166 170
153 170 179
154 171 178
159 175 183
156 173 181
158 175 185
148 166 173
154 170 178
147 163 166
150 166 174
159 175 182
156 171 182
152 168 175
141 158 161
74 97 67
73 99 59
65 89 53
71 97 58
67 93 55
65 89 52
70 95 57
74 100 60
72 97 59
70 94 56
71 97 58
71 96 58
70 95 57
70 95 57
71 95 57
67 92 54
67 92 54
72 97 59
74 100 59
73 98 59
114 133 126
147 163 168
150 167 172
147 165 169
143 159 165
148 164 170
153 169 177
154 171 176
153 169 177
154 170 179
164 179 189
155 171 179
156 171 179
146 163 169
154 170 177
146 163 171
152 168 173
141 157 162
160 176 184
137 154 155
126 144 139
106 124 113
105 126 115
130 148 146
141 157 162
150 167 174
147 163 169
148 165 169
157 172 179
161 176 186
152 167 173
155 171 177
157 173 182
155 170 179
149 165 170
147 164 172
153 170 177
154 170 179
148 163 172
151 167 174
142 157 162
71 96 58
68 93 55
67 91 54
68 93 55
73 99 60
66 90 54
75 102 62
70 96 58
70 96 57
69 95 57
72 97 58
71 97 59
71 96 58
71 96 59
70 96 57
67 91 54
76 102 62
69 94 56
71 96 57
121 140 134
148 165 170
140 157 163
152 168 176
157 173 182
155 170 175
145 162 169
150 166 170
140 157 158
156 172 182
159 175 185
155 171 178
146 163 168
154 171 178
140 157 161
155 172 180
148 164 171
148 163 169
157 173 181
120 138 134
72 97 58
66 91 54
66 90 53
74 100 60
74 100 60
71 96 58
68 93 55
70 95 56
68 94 56
72 98 59
71 96 57
73 98 59
69 94 55
70 95 57
76 102 62
65 89 52
76 103 62
71 95 62
145 162 163
151 167 174
153 169 177
150 167 173
153 170 179
157 173 179
156 172 182
152 169 176
151 168 174
150 167 175
160 176 185
152 168 174
159 176 184
161 177 185
159 175 182
143 159 164
165 182 193
143 161 166
79 106 71
72 97 59
76 102 62
69 95 57
75 102 62
68 92 54
74 101 61
73 99 59
69 94 56
76 102 62
75 102 62
76 102 63
73 99 59
76 103 62
71 97 57
69 94 56
89 112 90
139 157 160
120 138 134
129 147 145
97 117 98
74 99 64
73 99 59
73 99 61
73 99 60
74 100 61
77 104 64
74 100 61
75 101 61
69 95 58
70 96 57
73 99 59
78 104 64
141 159 161
145 163 168
143 161 163
140 158 158
123 142 138
102 123 107
90 113 88
73 99 63
74 100 60
77 104 62
78 105 65
76 103 63
76 104 63
69 94 56
71 98 59
110 130 118
159 176 185
154 171 179
163 179 189
164 181 190
163 180 191
167 183 196
166 183 194
158 176 186
161 179 189
165 181 190
161 178 189
163 179 189
166 183 193
154 172 182
83 109 75
72 99 59
76 103 63
81 108 66
76 103 63
75 102 60
77 104 63
80 108 66
76 102 62
72 99 61
71 98 58
75 102 61
73 100 60
132 149 150
162 179 189
159 176 184
154 170 175
149 167 175
134 153 150
99 122 99
80 105 76
74 102 62
78 106 65
75 102 62
75 103 62
97 121 100
161 178 188
159 177 187
162 179 188
164 181 192
160 178 188
165 182 193
169 187 200
148 167 174
156 175 185
169 186 198
78 106 64
76 104 62
76 103 62
82 111 68
80 108 67
82 110 68
75 102 61
79 106 66
100 124 102
109 131 116
80 106 71
79 106 65
74 100 60
78 105 64
77 103 63
79 107 66
78 105 64
74 100 61
74 101 61
72 97 58
76 103 63
75 102 61
77 104 64
94 119 93
110 130 118
154 172 178
106 127 113
79 107 65
71 97 58
73 99 60
78 106 64
79 106 65
74 101 61
73 100 61
69 94 58
75 102 62
74 101 61
77 104 63
79 107 65
74 101 61
77 104 63
77 104 64
87 111 83
128 147 144
138 156 159
71 96 57
77 103 63
74 100 60
76 103 63
75 102 63
75 101 62
72 98 59
76 102 61
71 97 59
74 102 62
76 103 63
75 101 61
74 101 62
77 104 63
74 101 61
74 100 60
76 102 62
74 101 61
90 114 87
152 168 177
150 167 173
133 150 151
113 133 123
71 97 61
75 102 62
72 98 59
73 100 61
75 101 61
76 102 63
74 101 62
77 103 62
72 97 59
72 97 57
75 102 62
73 99 60
78 105 64
77 103 63
77 102 64
118 137 130
133 151 149
130 150 145
104 125 108
77 100 71
74 101 61
70 96 57
74 101 61
75 102 62
74 100 60
72 98 59
74 101 61
82 107 73
104 122 109
137 155 156
135 152 153
148 165 171
157 174 187
158 175 183
153 170 177
130 148 146
71 97 58
75 101 62
72 97 58
75 101 61
73 100 61
71 96 56
71 96 57
76 103 63
70 96 57
68 93 55
72 97 58
72 97 59
71 96 58
70 94 56
73 100 60
76 103 62
70 96 57
76 103 62
71 97 58
77 104 63
140 155 160
148 164 172
154 170 175
148 165 172
143 159 164
151 168 179
162 179 191
151 167 174
158 174 184
149 165 171
149 164 170
143 161 163
134 152 153
123 142 135
85 109 84
78 100 72
71 96 57
76 102 62
73 99 61
75 101 61
107 126 118
146 161 167
155 171 179
158 172 180
148 165 170
156 172 177
162 178 188
147 162 168
160 175 184
152 168 176
152 168 175
161 176 186
161 178 186
142 159 164
155 173 181
143 160 164
151 168 174
157 174 184
155 170 179
140 157 160
154 170 176
106 125 115
68 92 55
68 93 55
74 99 59
73 98 58
68 93 55
72 98 59
69 94 55
70 95 58
76 103 62
70 95 57
74 100 61
73 99 60
70 95 56
70 96 57
67 91 54
69 94 56
68 94 55
74 100 60
71 97 58
84 107 77
151 167 173
149 166 173
158 173 182
155 171 175
153 168 173
154 169 178
156 171 180
157 173 180
158 173 182
146 161 166
146 162 169
140 158 161
128 145 144
121 140 132
103 122 110
104 124 111
86 108 83
71 96 61
72 97 58
74 100 61
132 150 149
155 171 180
148 164 172
157 173 182
147 162 168
153 169 175
148 164 171
157 173 183
151 167 172
152 168 173
152 168 176
151 167 172
147 164 172
144 160 166
158 174 183
149 163 167
153 169 177
147 164 168
151 168 174
143 160 168
97 117 95
73 100 60
74 100 61
66 91 53
74 100 60
72 97 58
69 93 55
69 94 57
74 100 61
73 98 59
71 96 57
64 89 52
71 97 58
73 99 60
68 93 55
70 96 56
71 96 57
71 97 59
72 97 58
88 112 87
153 169 178
154 171 180
144 161 166
156 173 180
148 165 172
149 166 174
149 165 173
152 168 176
156 173 182
164 180 192
160 176 184
153 169 179
140 156 158
151 167 176
154 171 178
154 171 179
153 169 175
153 169 176
139 155 159
80 102 75
72 98 59
71 96 58
71 97 58
73 99 61
72 97 58
73 99 60
70 96 57
69 94 56
71 96 58
76 103 63
74 100 60
70 95 56
72 98 59
76 102 62
72 98 59
79 106 64
65 89 52
107 128 114
153 169 179
146 163 168
157 173 182
163 179 188
163 179 188
150 166 175
153 170 178
156 172 183
150 165 171
157 174 182
154 170 174
162 179 189
149 166 171
157 173 181
144 161 167
153 169 174
154 170 180
120 140 132
70 96 58
73 98 60
70 96 58
77 104 63
75 102 62
71 98 59
69 94 56
70 96 57
70 96 57
70 95 57
82 106 75
99 121 101
106 126 112
131 148 147
127 146 144
155 172 179
142 159 162
74 100 60
72 97 59
71 96 58
72 98 59
75 101 61
74 101 61
74 100 61
66 91 54
77 103 62
75 102 61
74 101 61
70 96 58
73 100 61
74 100 61
71 98 59
85 108 81
147 166 175
159 176 185
150 167 172
140 158 162
160 177 188
152 168 173
164 179 189
153 169 177
134 152 153
136 155 155
120 140 130
102 123 105
94 117 93
77 103 66
72 98 59
124 143 139
163 180 191
158 175 184
155 172 179
154 171 179
155 173 183
160 175 181
165 182 192
166 182 192
167 184 196
163 179 190
155 171 179
164 180 188
161 179 192
144 162 167
81 107 74
76 103 63
74 101 62
76 102 62
74 100 60
74 100 60
80 108 67
76 103 63
77 104 63
77 104 63
76 103 62
82 109 67
80 106 71
141 160 162
154 170 174
165 181 191
155 173 181
160 177 186
157 174 180
157 175 186
151 169 177
139 159 159
113 135 122
83 108 79
80 107 66
113 134 121
163 179 188
172 188 199
161 179 190
164 182 194
165 182 193
163 180 190
165 182 193
162 180 188
171 187 199
77 104 64
79 107 65
79 107 65
77 105 64
77 104 64
81 107 68
103 126 106
148 165 168
142 161 166
79 107 65
77 104 64
81 108 67
77 104 64
74 101 62
75 102 62
78 106 66
73 100 60
79 106 65
82 110 69
75 102 63
79 107 65
106 128 113
135 154 152
158 174 183
164 180 191
160 176 185
103 124 101
79 106 64
74 101 61
76 103 63
74 100 60
76 103 63
81 109 67
73 99 60
80 108 66
69 95 57
72 98 59
77 104 64
77 104 63
75 100 66
123 143 135
148 165 168
143 161 167
161 178 187
147 164 168
76 102 63
76 103 63
74 100 60
72 98 59
75 102 63
75 101 60
72 99 59
74 101 61
72 99 59
72 99 59
75 102 61
75 101 61
75 101 61
74 101 62
73 99 60
73 99 59
74 100 61
75 102 62
93 115 92
106 125 117
85 111 76
76 102 62
76 103 63
75 102 61
72 98 59
72 98 59
74 100 61
76 104 63
74 100 61
71 96 57
71 97 58
77 103 62
75 102 63
73 99 60
79 106 65
70 97 58
75 101 61
72 98 59
109 130 120
163 179 188
158 174 184
159 175 181
157 173 183
153 170 178
141 158 162
125 145 141
110 132 121
88 111 89
105 125 108
126 143 145
149 166 170
147 164 171
159 175 186
147 162 168
150 166 172
154 170 178
156 173 181
163 178 185
146 163 168
72 98 59
73 100 60
74 100 59
74 99 60
73 99 61
72 97 59
72 98 59
74 100 60
74 100 61
74 101 61
72 97 58
66 90 53
69 95 57
75 101 62
72 98 59
75 101 62
72 98 59
73 98 59
71 97 60
72 98 59
135 153 152
159 176 184
150 166 172
153 170 177
153 170 177
155 172 179
159 175 182
145 161 165
139 156 158
109 129 117
79 103 73
67 92 54
68 93 56
72 97 58
72 98 58
72 98 59
74 101 61
71 97 59
66 90 54
69 94 55
79 104 71
146 162 170
157 174 183
148 165 169
153 170 176
150 167 173
150 165 169
153 169 175
152 170 178
151 166 175
157 173 180
158 174 184
156 173 181
153 168 175
150 166 173
153 170 177
158 174 184
159 175 186
142 159 164
154 171 180
149 165 171
131 148 147
74 99 60
69 94 55
70 95 56
67 90 53
71 96 57
70 95 56
74 100 60
73 99 60
70 96 57
73 99 60
77 103 63
73 98 59
69 94 56
71 96 57
66 91 53
66 90 52
72 97 59
71 97 58
70 95 56
71 96 58
139 157 160
145 162 167
144 160 165
151 166 172
150 166 173
129 146 143
118 136 128
115 132 126
98 118 103
82 106 75
75 101 61
72 98 58
73 99 61
69 94 56
73 98 59
72 98 59
77 104 63
72 99 59
70 96 58
69 94 57
114 133 123
145 162 166
148 163 170
154 170 177
151 168 174
154 171 179
148 164 171
138 155 158
148 164 169
154 170 178
149 165 169
152 168 175
148 164 168
152 169 177
160 177 186
150 166 174
149 165 173
148 164 169
148 164 169
152 167 175
120 138 130
71 97 58
73 100 60
68 93 56
72 97 58
74 100 61
70 96 58
71 97 58
72 98 59
69 94 57
74 99 59
68 93 55
73 98 59
74 100 60
71 97 58
70 94 56
69 95 56
69 95 57
71 97 59
66 91 53
129 147 145
145 162 165
163 178 190
158 173 182
152 169 176
153 169 177
156 171 180
150 165 173
150 167 173
150 166 173
148 165 172
152 168 175
152 168 177
160 175 182
153 170 176
151 167 179
154 170 178
153 170 180
158 175 185
131 150 148
72 98 59
72 97 58
70 94 56
70 95 57
73 99 59
70 96 57
74 100 61
68 93 55
68 93 56
74 101 61
71 97 57
72 98 59
71 96 57
68 93 55
77 104 64
70 96 57
71 96 57
73 99 60
149 166 171
153 169 175
155 171 181
155 171 177
157 174 184
146 163 169
161 177 188
159 175 185
155 173 181
160 177 185
153 168 177
161 177 186
160 176 188
152 168 174
152 167 172
152 169 175
156 172 180
148 166 175
98 119 101
73 99 59
75 101 62
73 99 60
77 98 75
88 110 86
120 139 135
123 142 137
128 146 145
146 163 165
157 172 181
167 184 197
162 180 191
157 172 180
147 163 168
153 171 177
159 177 185
115 135 127
71 97 58
74 100 59
68 93 56
73 100 59
73 100 61
71 97 58
75 102 62
75 102 62
76 103 62
73 99 60
71 98 59
74 100 60
75 102 61
70 96 58
72 98 60
114 136 118
160 177 183
152 169 177
164 181 192
152 170 178
164 181 192
155 172 182
155 172 182
161 177 186
161 178 187
162 180 192
157 173 179
155 172 181
151 168 174
154 171 179
142 160 165
138 156 158
124 141 139
138 155 158
157 173 182
156 172 180
150 167 170
149 164 169
154 171 179
159 176 186
162 179 190
168 185 199
158 175 183
168 185 195
156 173 179
139 157 160
78 106 65
75 102 62
77 104 63
72 97 58
77 104 63
72 98 59
77 104 64
76 102 62
73 100 61
80 108 66
75 102 62
75 102 62
82 107 73
145 164 171
160 176 186
163 179 190
162 178 187
165 181 191
152 169 178
159 176 185
159 177 189
164 181 191
152 170 177
143 160 159
128 148 142
139 157 159
163 180 190
160 177 184
161 178 188
163 179 190
166 183 196
156 173 182
164 181 192
161 179 189
77 105 65
77 104 64
82 110 68
75 102 62
124 145 135
154 173 180
165 182 192
152 169 176
139 158 159
79 106 65
78 106 65
78 105 65
75 102 62
80 107 65
72 98 59
76 102 62
81 108 66
78 105 64
86 111 75
115 136 127
163 181 191
162 179 187
169 186 199
165 182 194
169 186 200
156 173 184
103 125 106
81 109 68
75 102 62
74 101 62
76 103 63
73 99 59
79 107 66
73 99 60
75 102 62
76 103 63
77 105 65
95 118 95
131 149 143
158 174 181
160 178 188
163 179 188
164 180 190
160 177 186
132 150 149
79 107 66
74 101 62
69 95 57
76 103 63
80 107 66
76 103 62
77 104 64
74 101 60
71 98 59
74 101 61
75 101 62
74 100 60
78 104 64
70 96 58
76 103 63
96 119 98
132 150 152
167 184 195
165 182 195
81 108 67
70 95 57
76 103 62
74 101 61
71 97 58
76 103 62
74 101 61
74 100 60
76 103 63
71 97 58
76 103 63
74 101 61
74 101 61
73 99 59
73 99 60
74 100 61
73 99 60
70 96 56
75 101 62
97 118 101
158 175 182
155 171 179
159 176 186
164 181 192
156 172 181
142 161 166
113 133 121
92 115 93
74 100 63
72 98 60
82 107 73
101 122 104
110 132 116
123 140 138
142 159 166
140 157 161
153 171 177
165 182 192
155 172 182
157 174 182
79 105 71
69 94 56
74 100 61
70 95 57
74 101 61
74 100 59
70 97 58
70 96 57
68 93 56
73 100 62
68 93 56
74 100 60
74 100 61
73 99 60
74 100 61
76 102 62
75 102 61
76 102 63
77 104 64
75 102 62
122 142 135
152 168 176
154 170 177
156 173 178
131 149 149
111 131 120
102 126 106
71 96 57
69 94 56
76 103 63
64 89 51
67 91 54
73 99 59
74 101 61
74 100 62
69 95 58
72 98 60
75 101 61
70 95 56
73 99 59
76 103 62
139 157 159
158 174 182
158 173 182
154 171 180
165 180 193
156 172 179
145 162 169
166 181 191
148 164 168
158 173 181
158 176 187
158 174 184
158 174 180
143 160 165
147 163 167
154 171 178
139 155 160
151 169 175
155 171 183
164 179 189
156 173 180
71 95 57
74 100 61
73 99 59
74 101 61
74 100 60
75 102 61
73 98 59
72 97 58
76 103 62
69 94 55
68 94 56
67 92 54
72 98 58
73 99 59
69 94 56
70 96 57
78 104 63
75 97 70
92 112 91
112 130 121
131 150 149
113 133 122
92 113 94
74 97 65
72 97 58
67 92 54
75 101 62
72 98 59
71 96 58
74 99 59
75 102 63
70 95 57
69 93 56
72 98 59
73 99 60
70 97 58
68 92 55
72 98 58
74 100 60
71 95 57
71 95 60
158 174 182
161 178 185
152 168 176
151 168 174
155 171 180
157 174 182
150 165 173
152 167 173
154 170 178
154 171 179
149 166 170
145 161 167
140 157 159
162 178 190
160 176 186
162 177 186
159 174 182
145 162 167
153 169 177
159 174 180
82 104 77
73 99 60
69 95 57
73 99 60
68 93 55
70 95 58
71 97 58
77 104 63
76 102 62
73 99 59
77 103 63
72 99 60
73 99 59
71 97 59
72 98 59
71 97 58
70 96 57
69 94 56
71 97 58
84 106 81
144 160 165
155 171 182
154 170 180
155 171 178
158 175 185
159 175 184
151 168 175
159 175 186
156 172 180
147 165 171
156 172 183
151 168 175
147 163 165
156 172 180
143 161 164
147 164 172
152 168 175
142 159 164
159 177 188
93 115 89
68 94 56
72 97 58
74 100 60
73 99 59
70 96 57
70 96 57
73 99 59
73 99 59
71 97 58
76 103 63
74 100 61
78 105 63
72 98 58
68 94 56
64 89 52
74 100 60
69 95 56
104 125 105
161 177 186
158 175 184
163 179 189
158 174 184
154 172 178
141 158 161
154 172 179
154 170 177
157 174 182
158 175 182
156 172 180
150 166 172
156 173 182
150 167 174
151 168 176
144 163 167
149 165 171
131 148 144
131 148 148
135 153 155
155 171 180
150 166 167
153 170 179
161 176 184
158 174 183
161 178 188
158 174 183
170 186 197
152 169 176
153 170 178
156 174 183
153 170 180
151 167 175
142 159 160
150 168 175
94 116 95
76 102 62
71 96 57
79 106 65
71 96 58
75 101 61
70 96 58
71 97 58
72 98 59
76 103 63
75 101 61
75 102 62
69 94 56
74 100 60
74 101 60
73 99 59
119 139 129
157 174 182
154 171 179
159 175 185
159 174 181
150 168 173
157 175 183
164 180 192
155 172 180
168 184 197
160 177 186
147 165 170
152 170 176
165 182 194
167 183 196
149 167 172
79 107 68
78 104 63
71 98 59
86 110 83
106 126 110
114 134 124
138 156 154
141 159 160
167 185 199
153 171 180
155 171 180
173 190 203
158 175 185
163 179 186
117 137 125
71 97 57
71 98 58
75 101 61
72 98 58
76 104 63
72 98 59
78 105 64
77 104 63
79 107 65
77 104 62
72 98 59
76 102 63
92 116 90
153 171 178
164 181 192
173 188 199
163 179 190
160 178 189
152 170 178
156 174 185
159 176 181
163 181 190
166 183 195
161 179 189
169 187 198
125 146 138
110 133 116
150 168 171
164 183 194
165 182 194
161 178 190
160 178 188
166 182 194
78 106 64
80 107 66
122 145 132
154 171 176
164 181 191
164 182 193
166 183 192
164 180 186
125 145 135
79 108 66
78 106 65
79 107 66
82 111 69
77 105 64
78 105 65
75 102 62
90 114 86
123 143 134
157 175 181
176 193 208
172 189 204
165 182 192
162 179 190
166 182 193
161 178 187
158 176 188
85 111 78
81 109 67
78 106 65
76 103 63
75 102 61
78 106 64
75 102 62
77 104 64
81 108 69
120 139 131
137 155 155
162 179 190
165 181 191
154 171 177
156 172 180
161 178 190
162 178 188
161 178 187
139 157 158
78 106 65
73 99 60
74 100 60
75 101 62
74 102 62
77 104 63
71 97 57
76 103 62
74 100 61
77 104 64
73 99 59
78 106 64
87 110 84
130 149 143
157 175 182
162 179 188
159 175 185
165 182 194
154 171 179
75 101 61
77 103 62
72 98 59
76 102 62
70 96 57
76 102 61
72 97 59
75 102 62
74 100 60
74 101 62
74 99 60
79 106 65
77 104 63
74 100 60
73 98 59
73 98 59
75 102 62
70 96 57
74 100 60
92 116 90
157 173 181
154 171 181
145 163 166
112 133 124
90 113 88
76 103 63
75 101 62
72 99 59
69 94 55
77 103 63
76 103 62
73 100 61
74 99 60
69 94 57
72 98 59
77 104 64
76 101 67
86 109 79
104 122 107
129 147 140
116 137 126
102 121 108
102 125 107
80 105 73
74 99 59
74 101 60
75 102 62
72 99 59
73 99 61
71 96 58
77 104 64
73 100 61
68 93 56
70 96 57
75 102 62
71 96 56
75 101 62
72 98 59
66 90 54
84 108 76
98 120 102
89 109 90
99 121 102
75 101 61
71 97 58
68 92 54
72 98 59
73 99 60
74 101 61
67 92 54
78 104 64
74 101 61
72 97 58
74 101 62
70 96 57
73 99 60
71 97 58
67 92 55
71 96 58
70 96 57
70 95 56
98 118 104
142 160 165
149 166 171
160 177 187
152 169 175
163 178 188
143 159 164
152 168 177
148 165 172
151 168 177
159 175 181
151 167 173
156 172 182
152 168 175
154 171 178
144 161 165
156 172 180
167 183 193
154 171 181
143 159 167
150 167 174
101 122 105
73 98 59
63 87 50
70 95 56
71 96 57
71 97 58
72 98 59
69 95 57
74 99 60
71 97 58
71 96 57
78 103 68
93 114 97
107 127 114
117 135 125
134 151 148
147 163 165
160 176 187
152 168 174
144 160 165
151 168 173
72 97 60
77 104 63
71 97 59
75 101 61
68 93 54
65 89 52
77 103 62
71 96 57
71 97 58
74 99 59
70 95 56
74 100 60
73 99 60
72 98 58
69 93 56
73 99 59
73 99 59
74 100 60
73 99 60
71 97 59
128 145 141
141 158 161
149 164 172
136 153 156
159 174 181
150 167 174
158 174 183
154 170 177
155 170 178
140 158 161
156 172 183
148 164 170
151 168 177
157 174 184
153 170 176
161 176 187
150 167 173
152 169 176
156 172 181
149 166 173
126 143 144
72 98 59
73 98 59
74 101 61
73 99 59
72 97 58
73 99 59
71 96 57
73 99 60
71 97 59
76 102 62
75 102 62
71 96 58
73 98 59
72 98 59
72 97 58
73 98 59
75 101 61
74 99 60
68 93 56
133 150 152
147 162 169
153 170 181
159 174 183
149 167 170
156 172 181
151 167 176
152 169 176
152 169 174
160 176 184
150 167 172
142 158 162
157 173 180
156 172 182
162 179 191
159 174 182
153 168 176
158 174 181
151 166 175
131 149 145
75 102 61
73 99 59
73 99 60
72 98 59
72 98 59
68 93 55
72 98 59
74 100 60
76 102 61
71 96 57
76 103 62
72 97 58
74 100 60
72 97 58
71 97 59
65 88 52
72 98 59
72 98 59
134 152 151
153 170 178
141 160 164
145 162 166
160 177 188
163 179 188
157 174 180
147 163 168
146 163 167
148 165 169
123 142 138
121 141 133
114 135 122
84 108 76
73 99 63
74 101 62
76 103 62
73 99 60
137 154 156
160 177 187
147 163 168
154 170 175
149 166 173
160 177 187
156 174 186
158 174 185
150 166 174
162 179 189
167 183 192
160 176 185
152 169 174
156 172 179
153 170 176
153 169 180
145 162 167
144 161 164
73 99 59
73 99 59
70 95 56
73 99 60
78 105 64
67 92 55
77 104 63
76 102 62
76 103 62
75 102 62
75 101 60
77 103 62
71 97 58
76 102 62
76 103 62
78 103 68
151 168 175
158 174 185
159 175 187
155 173 182
156 173 183
151 168 174
163 179 189
156 172 181
168 184 198
156 172 178
151 169 177
164 181 192
164 181 192
158 175 185
157 174 184
134 152 152
78 106 64
76 102 63
75 103 62
77 104 63
74 101 61
80 108 66
76 103 63
77 104 65
91 115 90
115 135 125
125 144 140
151 168 172
164 181 192
154 171 179
108 131 117
72 99 60
77 103 64
74 100 61
77 104 63
76 103 62
77 104 63
75 102 62
79 107 65
77 105 64
79 106 66
71 98 59
79 107 66
100 123 101
154 173 183
168 184 196
156 175 181
162 180 191
165 182 196
164 180 192
165 183 195
166 182 194
153 172 180
167 184 198
163 180 192
169 186 196
116 136 126
80 108 67
79 105 69
90 114 88
140 160 160
153 171 179
169 187 201
121 142 136
163 181 191
179 196 213
159 175 184
171 188 202
168 185 196
158 175 184
156 173 182
111 133 117
75 103 62
83 112 70
76 102 61
74 100 60
80 108 67
96 119 98
136 154 154
151 170 177
160 178 188
172 189 203
171 188 202
170 186 199
155 172 178
168 185 200
165 182 192
163 180 193
151 169 175
81 107 71
75 101 61
78 105 64
77 105 65
76 103 63
71 97 58
96 120 97
131 150 147
159 177 185
163 179 190
149 167 172
170 187 199
166 183 197
159 176 186
170 187 198
158 174 178
158 175 185
154 172 177
129 147 142
76 104 63
72 99 60
75 101 61
72 99 59
75 101 62
78 105 64
78 105 64
78 104 64
75 103 63
79 106 68
111 131 119
146 164 168
161 178 187
162 178 188
157 174 183
153 171 181
164 179 192
150 168 173
154 171 181
87 112 80
80 108 66
81 108 66
71 97 58
73 99 59
76 102 62
75 102 62
74 100 60
74 101 61
78 105 64
73 100 61
75 103 63
74 101 61
72 97 58
76 103 63
76 102 62
74 101 61
71 96 57
76 101 64
118 139 128
112 131 123
81 106 73
74 100 61
78 106 64
73 100 61
73 99 59
77 103 63
75 101 61
75 102 63
74 100 60
77 104 64
79 107 66
73 100 60
70 96 57
75 101 61
74 100 61
73 99 59
73 99 59
74 100 61
73 100 60
135 153 150
151 168 176
162 179 190
169 186 199
150 168 173
142 159 164
132 149 147
137 155 157
120 138 133
101 122 105
97 118 100
86 111 80
74 98 63
74 100 61
73 99 59
79 104 71
101 121 106
128 147 145
139 157 160
154 171 178
155 172 178
81 106 70
75 101 61
68 93 56
78 104 64
70 95 58
68 94 55
74 100 60
73 99 59
67 91 54
71 97 59
73 98 59
71 96 57
72 97 58
72 98 59
67 91 54
70 94 56
76 102 61
71 96 58
74 101 61
74 101 61
93 115 92
162 178 188
154 172 183
150 167 173
160 176 187
155 171 179
148 165 174
150 167 176
154 172 180
152 168 176
145 160 162
150 167 170
152 169 177
154 170 177
150 166 176
157 173 181
148 165 168
145 162 169
154 171 179
143 159 165
155 171 177
136 155 155
72 97 58
75 102 62
72 98 58
72 98 59
72 97 59
84 108 81
102 123 108
118 137 131
138 154 156
132 150 151
151 168 174
140 156 159
144 160 164
155 173 182
156 172 178
146 164 169
160 176 186
155 172 180
156 172 182
162 178 187
113 133 123
72 98 59
70 96 57
69 95 56
70 95 56
75 102 62
75 101 61
75 101 61
71 96 58
73 99 60
72 98 59
69 94 56
73 98 59
71 97 57
71 97 58
69 94 55
70 96 58
70 95 57
69 93 55
68 93 55
82 107 74
158 175 184
148 164 172
155 171 178
146 162 166
152 168 175
144 161 166
149 166 173
151 168 176
149 164 172
147 163 166
149 165 170
151 168 170
150 166 169
155 172 180
153 170 179
154 169 176
167 183 196
144 161 167
165 181 192
155 172 182
77 102 70
72 98 60
75 101 60
72 98 59
72 98 59
67 92 54
68 93 54
77 102 62
69 94 55
73 99 60
75 101 61
77 103 63
71 96 59
72 97 58
72 97 59
68 93 55
74 100 60
72 98 59
72 99 60
72 96 64
156 173 182
134 151 153
150 168 174
163 178 186
157 172 181
160 176 185
156 172 182
152 169 178
164 180 191
163 179 188
145 163 169
158 174 182
157 174 182
151 167 174
157 172 181
150 165 169
150 166 172
152 167 174
154 169 177
104 127 109
71 97 58
70 95 56
73 98 59
78 104 63
73 98 59
68 93 55
78 105 64
63 87 50
74 101 61
68 92 55
75 100 60
74 100 61
72 98 59
73 99 60
77 104 64
79 106 66
78 102 69
103 125 111
140 159 161
141 160 163
117 135 127
105 125 114
102 123 104
79 105 68
72 98 59
73 99 60
75 102 62
76 102 62
73 99 59
72 98 59
75 100 61
70 95 57
72 97 58
73 100 60
75 101 60
83 105 77
157 174 182
158 175 185
162 179 190
160 177 188
164 181 194
166 181 193
155 171 179
160 176 186
161 177 186
153 169 178
163 179 188
162 178 188
166 182 192
160 178 191
158 174 185
158 174 181
157 174 182
111 132 122
77 104 64
71 97 58
77 105 64
73 100 59
74 100 61
76 103 62
72 97 58
76 103 61
76 102 63
70 96 56
72 98 58
75 102 62
78 106 65
74 100 61
72 97 59
100 123 103
148 165 173
160 176 184
164 182 193
157 173 182
166 183 196
162 178 191
156 172 181
155 171 179
162 178 185
159 176 187
164 180 191
155 171 177
155 173 182
161 177 188
158 176 185
121 142 133
77 104 64
76 103 63
79 106 65
79 106 65
76 102 63
75 101 60
77 104 64
69 95 56
75 102 62
76 103 62
75 101 60
79 106 65
95 119 96
99 122 102
115 134 129
114 135 122
83 108 77
77 105 63
78 106 64
74 101 60
76 103 62
83 111 68
74 101 61
74 101 62
78 106 65
77 105 64
73 99 60
112 133 120
172 189 204
174 190 203
162 179 189
155 171 180
170 188 203
174 190 201
157 174 183
168 185 197
161 179 189
170 187 201
165 183 197
176 191 203
101 124 104
76 104 63
80 108 66
76 104 63
79 107 65
91 117 90
156 173 180
169 185 197
174 190 201
161 179 190
168 185 197
166 183 196
179 195 211
178 195 212
104 126 109
79 107 66
80 109 67
84 113 73
112 133 118
146 165 169
161 178 188
158 174 183
163 181 193
165 182 193
166 184 195
166 182 194
155 172 181
164 182 193
168 184 195
157 174 182
169 186 198
157 174 181
77 105 63
77 103 63
77 104 64
73 100 60
112 132 118
142 161 165
160 178 186
163 181 192
160 177 186
162 178 186
168 184 194
152 169 177
165 181 192
157 173 181
164 180 190
157 174 182
167 185 197
165 182 193
140 158 159
75 103 62
75 102 62
78 105 64
75 103 63
79 107 66
76 102 62
74 101 62
100 121 106
145 163 167
167 184 194
163 179 189
171 188 202
153 170 177
159 175 185
159 175 185
161 178 188
167 183 193
159 176 185
171 187 201
100 123 101
80 108 67
76 103 62
72 99 59
75 101 61
76 103 62
71 97 58
79 106 65
77 104 63
77 104 63
73 100 60
82 110 68
71 97 58
75 102 61
77 104 64
71 97 58
104 124 110
137 155 153
150 166 171
156 172 179
85 109 77
74 101 61
73 99 61
79 106 65
77 103 62
74 100 60
72 98 58
74 101 61
72 98 59
76 102 63
70 96 57
72 98 59
76 103 63
70 96 57
73 100 61
68 93 55
73 98 59
72 98 60
72 98 59
73 99 59
102 124 103
163 179 189
158 174 182
154 170 173
150 166 175
157 173 183
167 183 193
144 161 168
168 184 197
151 167 176
157 173 181
154 170 176
141 159 159
114 136 122
88 110 87
112 131 117
122 140 134
134 151 154
135 153 153
142 159 162
148 165 171
92 115 87
73 99 60
70 96 57
76 102 62
73 99 59
74 100 60
73 99 60
75 101 61
76 103 63
71 97 58
77 104 63
77 104 63
73 99 60
76 102 62
72 98 58
73 99 60
72 99 59
75 101 61
68 93 55
72 98 59
75 102 63
163 179 191
151 168 175
156 174 183
162 179 190
159 175 183
149 166 172
146 162 168
151 168 177
152 168 177
147 164 171
145 160 164
143 159 164
158 175 185
156 171 176
156 173 179
151 168 176
151 167 172
152 168 177
159 175 184
160 176 184
146 162 167
97 119 97
102 121 106
125 144 139
147 162 165
145 163 167
160 176 185
148 164 169
159 175 184
157 172 180
156 172 179
154 171 178
150 166 173
151 168 176
145 162 168
148 165 174
155 171 180
150 167 174
160 176 186
156 172 181
158 174 185
120 139 135
70 96 57
75 101 61
68 93 54
72 97 58
73 99 60
74 100 60
74 100 61
73 98 59
72 98 59
69 94 56
73 99 59
67 93 55
71 97 58
73 98 58
72 97 59
72 97 58
71 97 57
68 94 55
69 94 56
73 99 59
143 159 162
162 178 186
157 174 183
148 164 167
146 162 168
153 169 177
149 166 170
151 168 175
147 162 168
147 163 169
158 174 182
158 176 185
150 165 172
148 165 171
152 169 176
153 170 178
154 172 182
159 177 189
141 159 164
156 173 181
125 144 141
71 97 57
70 95 57
70 95 57
72 98 59
69 95 56
74 100 61
73 98 59
74 100 59
75 101 61
77 104 63
73 100 59
76 102 62
78 104 64
74 99 60
72 98 59
68 93 55
74 100 61
67 91 53
69 94 56
128 147 143
153 170 177
157 173 181
157 174 180
165 181 193
156 173 180
158 174 184
158 174 182
147 165 173
159 175 185
153 170 178
164 180 191
159 176 188
160 176 184
150 166 172
148 164 169
144 162 170
162 178 187
154 170 176
142 159 162
78 104 63
75 101 62
72 98 58
72 98 59
71 96 57
75 101 62
71 97 58
94 116 94
100 120 106
107 128 112
121 139 129
118 137 129
133 152 149
134 152 153
154 170 176
151 168 173
156 172 179
157 173 179
126 146 140
72 97 58
74 101 62
71 96 57
77 104 63
76 103 63
74 100 60
79 106 64
75 101 61
71 96 58
71 97 59
77 104 64
75 102 62
69 95 56
78 104 64
75 100 61
71 97 58
73 99 60
107 129 113
153 170 177
155 172 184
155 172 179
163 179 191
148 165 171
164 179 190
151 169 179
159 175 183
148 165 169
157 173 178
153 170 179
155 171 181
167 184 197
158 174 184
163 179 189
157 174 182
154 171 178
87 112 82
74 101 60
75 102 63
75 101 61
73 100 60
76 103 63
64 89 52
74 100 60
73 99 59
75 101 61
75 101 61
70 96 58
77 103 63
78 106 65
75 102 62
74 100 61
110 131 117
149 167 175
161 178 188
156 172 182
156 173 180
161 178 186
167 184 197
165 181 190
164 181 194
160 176 184
160 177 187
155 172 179
158 175 182
160 176 183
151 168 178
152 169 175
92 115 92
74 101 61
74 100 60
73 99 59
80 107 66
76 103 62
72 99 59
76 103 62
78 105 64
77 105 65
80 107 65
77 104 64
74 100 61
74 100 61
101 124 102
166 183 193
161 178 187
158 174 181
137 156 154
125 144 137
94 116 94
72 98 62
76 103 62
75 103 62
76 103 63
80 107 66
73 99 59
76 104 64
128 148 143
165 182 193
157 175 184
164 182 194
159 177 187
165 182 195
161 178 188
169 186 199
167 184 195
158 176 185
165 182 195
158 175 186
152 170 176
97 121 95
79 107 65
77 104 63
70 97 59
76 104 63
169 186 197
171 187 201
168 185 197
164 182 196
164 181 190
174 191 206
169 186 199
172 188 200
79 106 64
81 108 69
125 146 138
158 177 188
159 176 182
162 180 191
161 178 187
157 175 183
174 190 203
171 188 202
164 182 192
162 179 190
159 177 187
167 183 193
156 173 181
162 180 191
168 185 197
166 183 195
74 100 61
91 117 86
127 146 141
146 164 171
166 182 191
163 181 193
163 180 191
162 180 191
156 172 179
164 181 192
167 184 198
163 179 188
160 176 183
166 184 196
161 178 187
164 180 191
162 178 186
160 177 186
133 152 153
75 102 62
79 106 65
76 103 63
75 101 61
94 117 92
135 154 151
158 175 184
163 181 191
167 183 194
166 181 191
162 179 190
163 180 190
157 175 187
170 186 199
153 169 176
163 178 190
165 181 190
157 174 183
156 173 179
105 128 107
72 97 58
78 106 65
74 100 60
74 101 61
70 96 58
74 101 61
76 103 63
74 101 61
72 98 59
75 102 62
78 105 64
80 105 72
109 130 114
135 153 152
152 169 174
158 175 183
158 175 182
156 171 178
163 182 194
110 131 116
80 107 65
77 104 63
75 102 61
72 97 59
71 97 58
73 100 60
75 102 62
82 109 68
73 99 59
74 100 60
77 104 64
73 99 60
73 99 60
77 103 63
75 101 61
78 105 64
75 101 61
77 104 64
76 103 63
103 122 109
156 172 182
145 162 166
154 170 173
152 169 175
167 184 195
160 176 186
153 170 178
155 171 180
133 151 148
97 120 96
87 112 83
71 96 58
77 104 63
77 103 64
72 98 57
76 102 62
77 104 63
76 103 63
77 103 62
72 98 58
129 148 145
153 169 178
151 169 176
130 148 146
138 157 158
134 152 152
115 135 126
109 130 117
109 129 116
105 127 110
90 113 90
77 102 66
75 102 63
72 97 59
75 101 61
71 97 58
71 97 59
73 99 59
73 99 60
74 100 61
73 99 60
134 152 152
171 186 197
139 155 160
155 172 181
157 174 182
154 171 180
154 171 181
162 179 188
158 174 182
155 172 182
162 178 188
164 181 192
155 171 181
154 170 175
151 169 177
154 171 177
140 157 160
133 150 147
108 127 117
82 104 75
78 103 70
149 165 168
156 173 180
157 173 183
153 170 178
155 172 181
158 174 184
151 167 174
156 173 181
155 171 178
159 175 186
150 168 174
163 180 192
155 171 180
146 163 168
154 170 180
147 163 170
149 165 172
164 179 189
155 173 180
160 177 190
154 171 180
85 109 77
73 100 60
70 96 57
75 101 61
75 101 62
77 104 63
73 98 60
72 97 58
72 98 58
71 98 59
76 103 63
72 97 58
71 97 59
71 96 57
75 101 61
73 100 60
69 94 55
70 96 58
73 99 60
75 101 61
113 133 124
155 172 180
156 172 182
144 161 166
164 181 194
147 164 170
152 168 178
161 178 189
159 175 185
153 169 176
157 173 181
153 169 175
151 166 174
158 174 184
162 179 190
160 177 187
155 172 183
154 169 177
153 169 179
160 175 183
144 161 165
75 100 65
73 99 60
71 96 57
74 100 60
74 100 60
75 102 62
70 96 57
75 101 62
72 98 59
67 93 55
71 97 57
77 104 64
73 99 60
73 99 59
77 104 63
72 98 58
77 104 63
73 99 58
70 96 57
92 113 93
152 169 174
163 179 189
153 170 180
159 175 183
152 169 177
155 171 180
145 160 165
154 172 180
147 164 168
157 173 181
159 175 184
147 165 171
153 168 176
154 170 179
157 173 180
158 174 183
137 155 156
144 161 164
128 145 144
119 138 129
127 145 139
140 158 158
146 162 164
156 174 185
153 169 174
150 167 171
166 181 191
154 170 177
143 159 163
153 169 177
149 166 173
148 164 170
158 175 183
164 180 192
155 173 181
153 170 177
149 166 171
147 164 171
94 118 91
76 103 63
78 105 64
76 102 61
74 99 59
74 100 60
71 97 58
74 100 61
74 100 60
71 97 59
70 95 57
73 99 59
71 98 59
71 96 58
74 99 60
73 99 60
71 96 57
76 103 63
148 165 169
164 180 191
149 166 171
154 171 178
152 169 175
165 182 192
170 186 197
160 176 186
162 180 191
156 172 182
150 166 172
164 180 189
163 179 188
154 172 178
166 182 193
157 173 182
160 177 186
142 160 159
73 99 60
76 103 62
73 99 60
78 105 64
76 102 63
76 102 61
73 98 60
74 101 61
76 103 63
73 99 60
71 97 58
76 103 63
77 104 64
73 99 60
80 108 67
77 104 67
132 150 148
157 174 182
155 173 181
159 175 184
160 176 187
149 166 173
170 185 196
166 183 197
165 182 195
169 186 199
164 180 189
165 182 193
162 179 191
158 176 185
162 178 187
153 172 182
83 109 75
75 101 62
75 102 62
76 103 63
70 96 58
75 101 61
73 98 58
72 99 59
73 100 60
72 98 59
70 96 57
74 101 61
77 104 64
71 99 60
114 136 122
165 183 196
162 179 190
162 179 189
162 179 190
169 185 198
169 187 202
156 173 179
133 151 149
122 143 135
98 123 99
75 102 62
75 102 61
77 104 63
142 162 163
169 186 196
168 186 199
168 185 196
162 179 190
166 183 193
167 184 197
161 179 187
162 179 188
165 182 194
161 178 188
165 182 193
155 173 183
97 120 98
78 107 66
76 104 63
75 102 62
163 181 193
171 187 201
159 177 187
170 186 198
168 185 197
172 190 204
171 189 202
159 177 186
117 140 127
164 183 197
170 187 200
164 180 189
164 181 192
165 181 192
151 168 176
163 181 193
173 190 204
165 183 193
171 187 200
169 185 196
166 184 196
161 177 184
170 186 199
160 179 188
162 180 190
156 173 178
127 147 143
168 184 198
171 188 200
159 177 185
169 187 201
167 185 197
174 191 206
174 190 204
168 183 195
164 180 190
167 184 197
162 179 189
164 180 192
158 175 184
156 172 180
149 166 171
166 183 195
151 167 174
128 147 144
75 102 61
82 107 71
106 127 110
134 152 151
155 172 182
166 184 197
162 179 189
160 177 187
154 172 182
163 179 189
160 177 189
155 172 179
164 181 192
164 181 191
166 182 191
161 179 190
162 180 190
161 178 186
153 171 180
96 118 97
78 105 64
75 101 60
76 103 62
75 101 61
78 106 65
76 102 62
77 104 64
73 100 60
78 104 67
109 131 115
137 155 157
168 185 197
155 173 184
161 178 188
161 178 189
157 173 179
158 176 186
154 171 178
168 184 198
110 130 116
77 104 63
75 102 63
78 105 63
75 101 61
76 102 62
76 102 62
74 101 61
72 98 59
78 104 63
72 98 58
73 99 59
74 100 59
71 97 58
76 103 63
69 95 57
75 102 63
72 99 60
73 99 60
73 99 59
89 110 86
157 172 182
154 171 177
167 182 195
156 172 180
141 159 160
112 132 121
90 113 87
76 103 63
71 96 57
70 95 57
74 100 61
76 102 62
72 98 59
74 100 60
71 97 58
74 100 61
78 105 64
71 97 58
74 101 61
75 101 61
112 132 120
157 175 185
160 177 185
154 171 178
155 173 183
164 178 188
151 168 174
155 171 179
162 178 186
157 173 180
149 166 169
160 177 187
150 167 175
151 167 172
137 155 158
139 157 157
132 149 148
121 140 133
121 139 132
104 124 110
101 123 107
121 140 135
130 149 148
142 159 160
151 168 176
149 165 170
153 168 175
156 173 184
162 179 187
147 164 169
157 174 182
155 172 180
139 156 160
132 150 150
108 127 113
89 111 87
77 100 68
69 94 56
74 100 60
73 98 59
73 99 59
75 101 61
118 137 132
152 169 178
161 178 186
151 167 169
154 171 178
163 179 191
153 169 175
156 173 182
164 181 192
160 177 188
157 175 185
151 167 174
150 166 171
154 170 179
155 171 180
158 175 184
159 175 185
156 172 179
165 182 191
141 158 160
143 158 163
109 127 116
74 100 60
71 96 58
73 100 60
74 101 61
74 100 60
77 103 63
72 98 59
71 98 58
69 94 55
69 94 56
72 98 59
70 95 57
68 93 55
76 102 61
71 96 57
69 94 56
67 92 54
69 94 56
76 102 61
77 102 68
154 170 176
161 177 188
150 167 175
150 166 173
155 171 180
147 163 169
153 168 174
153 170 178
148 165 169
153 170 178
157 173 182
168 184 196
150 167 173
149 165 173
157 173 184
152 169 174
154 171 180
157 173 182
156 173 184
152 169 176
121 142 132
74 99 60
73 99 60
72 97 57
74 101 61
74 100 60
73 99 59
70 95 57
70 95 57
68 93 54
73 100 61
68 94 56
74 99 60
73 99 59
75 102 62
73 100 60
70 95 57
75 102 61
74 101 61
72 97 58
138 154 156
156 173 182
147 164 170
149 166 173
144 161 167
150 165 169
152 169 177
152 169 177
154 170 176
147 164 171
138 155 156
136 153 152
147 164 167
144 161 166
147 164 167
148 165 168
141 158 158
136 154 156
145 162 166
145 163 168
83 105 79
81 105 73
76 101 67
75 101 61
74 100 60
73 99 60
75 102 61
75 101 61
71 97 58
73 99 60
78 104 63
72 98 59
71 96 58
75 101 61
77 103 63
76 102 62
76 103 63
73 99 59
107 129 111
161 177 187
143 160 161
151 167 176
156 172 180
151 168 175
157 174 182
148 166 169
156 173 181
150 168 178
139 155 155
145 162 167
144 161 164
150 167 171
129 148 147
123 144 140
138 155 156
138 155 152
134 153 154
125 143 136
128 147 143
132 151 148
134 151 149
134 153 151
140 158 161
146 163 168
142 159 166
159 176 187
155 173 182
160 177 187
153 170 180
151 167 173
160 174 181
156 172 181
158 174 181
166 183 194
97 120 98
71 97 58
75 102 62
73 99 60
76 103 63
78 105 65
71 97 58
75 101 61
73 99 60
78 105 65
78 106 65
77 104 63
72 98 59
76 102 61
73 99 60
77 104 62
96 118 97
167 183 195
169 185 196
166 182 195
158 174 180
149 166 169
157 174 187
156 173 181
161 178 187
167 183 194
164 181 192
158 175 183
170 185 196
163 180 190
157 174 183
156 173 182
127 148 141
76 104 63
76 103 63
75 102 63
80 108 66
78 106 65
76 103 62
74 100 60
74 101 61
74 101 62
79 106 65
74 101 61
77 103 63
78 106 65
78 105 65
127 146 142
163 181 193
161 178 187
171 188 201
167 184 198
156 174 183
162 179 190
163 181 191
169 185 197
163 180 190
147 166 170
144 163 165
128 149 142
103 125 110
148 165 168
167 185 197
162 180 191
168 185 198
175 192 206
169 186 199
165 182 191
174 191 204
169 185 196
156 175 182
171 189 203
167 185 200
145 163 169
89 114 83
81 109 67
78 105 64
169 187 198
158 176 186
158 176 187
167 185 196
167 184 197
158 176 187
116 138 129
112 134 117
170 188 201
152 169 176
171 188 200
169 186 198
162 180 192
169 186 199
165 182 193
163 179 189
159 177 187
163 181 192
167 185 196
159 176 185
167 185 199
162 179 190
164 181 193
138 156 157
110 131 115
100 122 106
159 176 185
159 177 187
162 180 191
160 177 187
158 176 187
167 185 197
162 180 189
158 176 187
166 183 191
159 177 187
159 175 185
165 183 195
161 178 188
161 178 187
156 172 179
161 178 189
159 176 187
155 173 181
140 158 160
131 151 148
153 170 178
154 171 178
154 172 179
153 170 174
167 182 194
159 176 186
166 182 194
164 181 191
164 180 188
158 175 184
162 179 191
162 180 190
162 179 188
162 178 187
161 177 189
157 175 183
168 184 195
167 183 196
111 132 121
72 98 58
77 105 64
75 102 62
75 101 61
76 103 63
78 105 64
96 119 97
137 156 154
150 167 174
168 184 196
172 188 201
161 177 186
164 181 193
161 177 186
158 175 184
157 172 181
153 170 174
167 184 194
155 171 178
112 131 125
74 100 60
80 108 67
70 96 57
76 103 64
74 99 60
71 96 57
70 96 57
71 97 58
75 101 61
78 106 64
78 106 64
74 101 62
74 100 60
77 104 64
72 98 59
75 102 63
76 103 63
74 99 60
73 99 60
78 104 66
151 168 174
128 147 143
110 129 116
77 101 69
69 94 56
69 94 55
76 103 63
76 103 62
72 98 59
71 96 58
74 100 61
72 98 59
74 100 61
75 102 62
72 98 57
69 95 56
77 104 64
72 98 58
75 101 62
75 102 62
86 111 81
155 172 180
147 164 173
156 173 181
156 174 186
167 183 196
159 176 186
155 172 178
150 165 171
163 180 191
152 167 173
155 172 181
161 178 190
158 175 186
152 168 174
161 177 186
158 175 186
159 175 183
155 171 178
155 172 181
162 179 189
145 161 163
76 103 63
74 100 60
75 102 62
72 98 59
74 100 62
97 120 97
110 131 117
146 162 164
155 172 181
140 156 158
130 148 145
122 140 135
123 142 134
117 137 128
125 143 138
121 140 137
116 134 123
111 131 119
102 124 110
103 123 111
114 133 124
148 165 170
141 157 161
154 171 178
141 158 165
143 159 163
155 171 180
156 172 180
160 177 186
160 177 186
158 175 184
159 175 185
159 174 183
146 161 164
153 170 179
154 171 178
151 167 172
163 179 191
154 170 177
154 170 177
150 167 171
134 152 151
71 97 58
78 105 64
72 98 59
69 95 57
71 97 58
72 99 59
70 96 56
71 97 57
71 96 57
69 95 58
74 101 61
78 105 64
72 98 59
74 100 60
72 98 58
72 97 59
70 95 56
72 98 59
74 100 61
74 100 61
128 148 141
163 178 188
152 168 174
154 170 177
151 168 175
136 153 156
155 171 178
159 175 185
157 174 179
150 167 174
152 169 175
145 162 168
156 173 182
157 174 184
159 174 187
158 175 185
155 172 180
158 175 185
151 167 174
156 174 184
144 163 166
97 117 97
88 111 87
88 110 85
100 122 104
106 127 111
109 129 116
110 130 118
86 110 85
93 117 93
96 117 93
83 107 76
81 105 78
83 108 77
78 102 70
87 113 79
83 108 73
69 95 57
74 101 62
70 96 58
101 122 103
150 166 174
160 177 185
156 173 181
161 176 187
165 181 193
159 176 184
152 167 172
159 175 186
150 167 174
158 176 185
161 178 190
149 166 170
162 177 186
153 168 172
160 176 188
151 168 176
164 180 192
160 176 185
161 176 188
99 121 104
72 98 59
73 99 60
77 105 63
73 98 58
75 102 62
74 100 60
73 99 59
77 104 63
74 100 60
70 95 57
72 98 60
74 100 60
78 106 64
74 101 62
76 103 62
75 102 61
69 95 56
72 98 59
141 159 159
156 172 177
156 173 182
153 170 178
159 175 185
149 166 171
168 184 198
161 177 186
158 174 184
160 177 188
161 177 186
164 181 193
157 174 182
165 181 193
162 178 188
155 172 181
164 179 189
160 177 187
111 130 119
74 100 60
77 104 64
75 102 61
72 98 59
76 103 63
74 100 60
75 102 63
75 101 61
69 95 57
82 107 75
86 110 80
96 121 97
104 125 109
106 126 113
111 132 120
131 150 147
110 130 119
107 127 115
90 115 93
107 130 114
80 106 71
73 99 60
72 98 59
78 106 64
75 102 62
76 102 62
74 101 61
76 103 62
76 103 62
76 103 63
78 105 65
78 105 65
74 102 62
120 141 131
165 183 193
164 180 189
165 183 193
159 176 186
156 174 184
164 183 194
159 178 187
148 165 173
156 174 185
159 175 183
156 173 184
153 171 176
168 184 197
151 169 176
158 176 187
121 141 134
79 106 65
74 101 62
76 104 63
79 106 66
75 102 61
73 99 59
75 101 62
78 105 64
74 100 61
79 107 65
72 99 59
75 102 61
78 106 66
78 106 64
143 161 164
165 182 192
156 174 185
163 180 191
169 187 199
161 177 186
158 175 183
162 180 191
159 176 187
172 189 201
166 182 193
162 179 193
165 182 193
163 180 190
104 125 111
123 143 136
141 161 160
160 177 187
162 179 191
165 182 195
174 190 206
164 181 192
167 185 199
160 177 188
162 179 190
170 186 199
154 171 180
84 111 75
76 104 64
168 184 197
170 188 200
167 184 196
158 177 189
122 142 133
76 103 63
81 109 66
120 141 134
164 182 194
163 180 191
158 175 187
157 174 181
163 180 191
170 187 201
167 184 195
166 182 194
158 175 184
166 184 195
166 183 195
162 179 187
167 184 199
119 140 130
86 111 81
78 105 64
78 105 64
108 130 113
164 180 192
168 184 195
167 184 197
159 176 184
167 183 195
169 187 199
160 178 188
161 178 187
171 188 201
169 186 200
162 179 189
161 178 188
159 175 184
162 178 188
168 185 195
164 181 189
132 151 147
103 125 105
115 136 125
168 184 195
155 171 179
174 190 203
161 178 188
171 187 198
160 178 189
164 180 192
159 177 187
156 174 180
171 188 200
159 176 185
161 177 187
172 189 202
164 181 190
161 178 188
163 181 193
149 165 173
167 184 195
165 182 191
103 127 108
80 107 66
77 105 65
74 101 62
99 120 102
143 160 161
156 173 182
156 174 183
160 177 187
163 177 185
158 175 183
159 176 186
170 187 202
159 175 181
166 183 194
159 176 183
154 171 177
157 174 182
150 167 172
154 172 181
126 147 142
77 104 64
79 106 65
76 102 62
72 99 60
78 106 64
76 103 63
77 104 64
73 99 59
76 102 62
74 101 61
79 106 66
81 108 67
74 101 60
74 101 61
69 94 56
76 103 63
74 101 61
109 129 114
115 135 124
151 168 176
98 120 100
73 99 60
74 100 61
72 98 59
75 101 60
77 103 63
76 103 63
71 97 58
77 104 63
76 101 60
73 99 59
74 100 61
75 102 63
75 102 63
76 103 63
77 103 63
75 101 61
74 99 60
76 103 62
72 98 59
75 101 63
151 167 173
161 177 186
159 176 187
149 164 169
164 180 191
159 176 188
161 176 187
156 171 181
154 169 176
164 179 191
162 178 187
157 174 184
157 173 183
156 173 179
161 178 191
151 167 173
164 181 194
157 175 186
151 168 174
157 174 182
155 170 177
90 112 89
102 124 105
126 145 138
142 160 160
154 170 174
152 168 175
155 171 178
153 171 178
142 160 165
164 180 189
161 177 186
154 170 179
149 165 168
149 166 170
156 171 178
155 172 179
163 178 187
157 173 183
154 171 177
152 169 178
151 166 172
94 118 95
71 96 58
74 100 61
71 96 56
74 100 60
78 105 64
80 104 74
84 109 78
83 108 79
87 112 78
91 115 87
95 117 97
92 115 94
92 113 93
87 111 83
111 131 121
95 118 94
109 130 114
106 126 115
112 133 121
110 131 116
140 158 158
133 149 149
141 158 161
132 149 147
120 136 132
118 136 131
123 142 137
133 149 149
119 137 129
130 147 142
119 138 134
131 149 149
141 158 159
125 143 139
137 156 156
127 145 143
134 152 148
137 156 154
134 152 152
126 144 141
133 151 151
115 136 123
114 132 120
103 124 107
106 127 113
100 121 104
105 126 113
106 126 113
96 117 97
102 124 105
89 111 88
89 111 88
90 113 87
95 117 99
83 108 76
78 102 68
84 105 81
83 106 78
110 130 117
116 136 124
102 122 108
131 150 149
99 121 101
101 123 105
85 107 83
76 100 69
67 92 55
71 96 57
75 103 63
71 97 58
75 102 62
73 99 60
71 97 58
74 100 60
77 104 64
73 99 60
77 104 64
71 97 59
72 99 59
74 101 61
74 100 61
143 160 164
159 176 189
148 166 173
156 172 181
157 173 182
161 177 188
162 178 186
155 172 181
146 164 168
160 177 186
160 176 185
162 179 191
153 170 176
151 166 174
158 174 184
149 166 171
151 166 171
159 175 186
164 180 191
147 165 169
80 106 68
75 101 61
75 102 62
76 103 63
78 105 62
76 103 63
75 102 62
73 98 59
74 101 62
74 100 60
75 102 61
75 101 61
79 107 65
77 103 63
75 102 62
75 100 60
72 97 57
67 93 54
108 129 115
157 173 182
159 178 186
157 173 183
160 176 185
160 176 186
163 179 190
158 175 182
169 186 200
155 172 182
161 177 188
159 174 186
154 171 178
157 174 183
160 176 187
158 175 184
160 177 186
161 177 187
167 184 194
84 109 77
75 101 61
75 102 61
79 107 66
73 99 60
75 102 62
73 99 59
77 104 64
73 99 60
75 102 62
71 97 59
76 102 62
75 101 61
75 102 62
74 100 61
76 102 62
79 108 67
115 134 127
160 177 187
166 183 195
158 174 182
157 172 184
158 175 181
146 163 168
145 163 166
129 148 147
130 148 144
122 143 136
110 132 118
92 114 95
90 115 86
78 105 65
70 96 58
78 104 66
142 160 163
154 171 178
173 190 203
158 175 184
170 187 199
166 182 194
157 174 181
160 177 185
148 166 171
162 180 190
161 178 187
157 174 184
162 179 189
162 180 193
146 164 169
156 174 181
94 118 90
73 99 59
74 100 60
78 105 63
78 107 66
77 103 63
79 107 65
79 106 65
73 98 59
75 102 62
76 103 63
74 101 62
72 98 59
73 100 60
86 112 82
165 182 191
165 182 195
167 184 198
172 188 201
158 176 186
159 176 186
167 184 196
174 190 203
171 188 201
157 174 179
160 177 186
155 173 182
160 178 188
154 170 177
79 106 70
81 109 68
82 109 72
98 120 97
137 157 158
150 168 173
164 181 193
168 186 202
167 185 196
168 184 197
170 188 201
163 182 195
133 153 152
76 103 63
166 183 196
155 174 181
112 134 119
76 103 63
76 104 64
78 106 65
78 105 64
139 158 156
166 184 195
173 189 201
167 184 198
159 178 187
164 181 191
164 181 193
155 173 183
159 176 184
161 179 189
167 184 196
149 167 171
122 143 134
80 107 70
78 106 64
78 106 65
79 107 65
73 100 60
111 133 119
161 179 187
161 179 189
167 183 193
167 184 196
169 185 198
160 177 188
162 180 191
163 180 190
159 175 186
166 183 193
169 186 200
169 184 193
158 175 184
146 164 168
123 144 135
80 105 69
76 103 63
77 104 64
122 142 131
164 181 193
163 180 191
166 182 195
160 176 186
165 182 196
165 180 190
167 180 190
169 186 197
168 185 195
160 177 188
161 177 187
158 174 184
160 178 189
159 176 189
156 173 182
166 181 191
171 187 200
162 179 189
164 180 191
127 147 143
90 115 84
128 148 145
151 168 176
157 175 186
164 182 194
160 176 183
173 189 203
157 174 186
151 168 174
165 182 195
156 171 178
163 179 188
165 181 192
170 186 198
172 188 199
164 181 192
164 181 193
166 182 193
163 179 190
138 157 157
72 98 59
75 102 61
73 101 60
72 98 59
76 101 61
75 102 61
77 105 63
74 100 60
72 98 58
70 96 58
76 103 62
73 98 59
71 97 57
87 112 84
125 144 136
136 153 153
156 173 182
165 181 193
151 168 176
156 172 183
106 126 115
74 101 61
74 99 60
74 102 61
76 102 61
72 98 59
75 102 61
71 97 58
73 98 59
73 99 60
72 97 59
75 101 61
76 103 63
72 98 59
76 103 63
72 98 59
76 103 63
72 98 58
77 104 63
76 103 63
77 104 63
141 159 161
158 176 187
156 173 180
157 175 186
160 177 186
165 182 195
157 173 183
149 166 175
154 171 179
163 179 189
151 167 172
156 173 179
151 168 178
156 173 182
164 181 191
162 178 189
162 177 186
140 157 162
133 151 151
113 132 125
96 117 97
139 156 159
157 174 181
150 167 172
155 172 179
153 171 179
160 176 184
154 172 178
158 173 182
155 171 178
157 173 180
149 165 171
155 172 181
158 174 182
162 178 188
160 175 186
153 169 177
153 171 179
149 167 173
156 172 180
146 163 168
158 175 182
121 140 132
71 96 57
73 98 59
73 99 60
74 100 60
77 104 63
69 95 56
69 95 57
73 99 59
73 100 60
70 96 57
77 104 63
74 100 61
71 97 57
74 100 60
73 99 59
77 103 62
73 100 60
73 99 60
74 101 61
72 97 58
129 148 143
156 173 180
155 172 177
165 181 194
152 169 174
152 169 177
155 172 179
161 177 186
149 167 174
152 169 176
162 177 187
148 166 172
157 173 183
152 169 174
158 176 186
157 174 182
168 184 193
148 165 173
160 176 187
160 176 185
151 167 171
89 112 90
77 104 63
68 94 55
74 100 60
75 101 61
69 94 56
74 98 68
78 100 77
107 128 107
114 134 123
122 141 135
137 154 153
137 155 155
146 162 169
156 172 180
151 167 175
164 179 190
158 174 181
150 165 174
149 168 173
145 162 166
72 98 59
72 97 57
74 99 59
72 98 59
71 97 58
74 101 61
74 101 62
70 95 57
72 99 59
67 92 54
79 105 64
72 98 59
78 105 63
71 98 59
71 97 58
73 99 59
72 97 59
69 95 56
74 100 60
100 123 99
162 178 186
154 171 178
163 178 185
161 178 187
164 180 191
155 171 177
159 176 187
158 173 183
165 181 193
156 172 179
158 175 187
156 173 183
150 167 172
152 168 174
143 160 163
153 170 176
158 174 185
155 172 179
151 168 177
107 129 115
74 100 60
74 101 60
71 96 57
75 101 63
79 106 65
75 103 62
75 101 61
74 100 61
74 101 61
78 105 64
72 98 59
76 104 63
75 101 61
72 98 58
74 102 63
73 98 59
76 102 61
74 99 60
136 154 152
158 176 186
161 178 186
153 170 175
155 171 178
164 181 192
162 180 189
165 182 194
168 183 194
162 179 190
153 171 177
162 179 191
172 188 200
155 173 180
153 171 179
163 180 190
161 177 186
153 171 177
130 149 143
76 103 63
75 102 62
79 107 65
69 95 58
72 98 58
71 96 57
70 95 57
73 99 59
73 99 59
74 101 61
77 104 64
76 103 63
76 102 62
70 96 57
72 97 58
68 93 55
72 99 59
144 162 165
161 179 189
158 175 183
158 175 184
151 168 174
158 175 185
161 178 188
154 171 177
165 183 194
165 181 191
159 176 186
164 180 191
157 173 182
163 180 188
153 170 176
142 160 162
140 157 158
133 151 147
135 155 154
140 159 162
160 177 187
149 166 171
164 181 195
158 175 182
159 176 185
152 169 178
165 181 193
162 178 189
168 185 197
164 180 189
155 172 179
161 178 188
147 166 170
85 111 76
74 100 60
79 107 66
76 104 63
77 105 65
75 101 62
78 106 65
79 107 66
79 106 64
73 99 60
79 106 65
78 105 64
80 109 68
77 104 64
108 133 117
171 188 198
158 177 188
163 181 193
157 175 186
161 178 186
170 187 199
164 182 194
159 177 186
163 181 193
174 191 206
168 184 196
168 184 195
162 180 190
139 157 156
79 107 65
78 105 64
77 105 64
77 103 63
79 107 66
82 109 71
108 130 114
122 142 136
152 170 177
164 182 191
174 190 203
160 177 187
131 151 144
150 169 173
101 125 101
77 105 65
77 104 64
77 105 64
77 104 63
81 109 66
153 172 175
165 182 195
163 180 192
169 186 197
168 185 198
172 188 200
172 189 203
167 183 193
171 188 200
141 160 165
100 123 101
78 105 65
76 103 63
79 107 66
78 105 65
83 112 69
79 107 65
80 109 67
119 141 128
163 180 192
159 174 182
162 179 189
162 179 190
163 181 193
165 182 194
160 177 186
163 181 192
166 183 197
173 189 203
160 179 191
118 138 130
98 123 100
73 100 59
74 100 61
78 106 65
74 101 62
75 102 61
128 146 138
170 187 202
167 184 196
171 188 201
167 184 197
159 175 183
162 180 190
164 180 190
169 186 198
164 181 189
160 178 189
161 178 188
161 177 187
169 185 197
171 188 202
158 175 181
174 190 205
168 183 193
159 175 183
129 149 145
139 156 156
156 172 181
170 186 199
163 180 192
170 186 199
163 178 187
167 184 196
170 187 200
156 174 182
160 177 186
159 176 189
160 177 185
165 182 195
156 172 180
170 187 202
166 182 192
153 170 180
157 173 183
163 180 192
155 172 181
150 167 171
72 99 59
71 97 58
80 107 65
76 102 62
81 108 67
77 104 63
78 105 64
74 100 61
76 102 62
76 103 63
94 116 91
125 145 140
152 169 176
168 184 196
158 175 184
166 183 191
160 177 187
162 179 189
161 179 191
158 175 186
122 140 134
76 103 63
78 105 65
70 95 57
72 98 60
70 96 58
76 102 63
76 102 62
69 94 56
75 102 62
73 98 59
75 102 62
76 102 61
71 98 60
72 99 60
74 100 61
76 104 63
75 102 61
74 101 61
74 101 61
77 103 63
132 150 146
153 170 175
156 173 183
156 173 182
153 171 181
145 162 167
166 181 191
162 179 192
158 174 182
158 174 183
161 177 189
157 172 179
160 176 186
150 168 173
129 147 144
110 130 117
94 117 92
71 97 57
72 98 59
75 102 62
74 101 61
124 143 134
160 176 187
155 173 184
153 169 176
157 173 182
157 174 186
154 170 177
160 177 186
163 179 189
165 182 192
162 179 192
150 167 173
155 171 180
154 171 177
152 169 177
154 171 181
150 166 172
155 171 178
165 181 192
156 172 180
163 180 191
133 151 153
72 98 59
69 94 56
70 94 56
77 104 64
76 102 63
70 95 56
71 98 59
74 101 61
74 100 60
74 101 61
75 101 62
71 96 57
73 99 59
73 98 58
72 99 60
74 100 61
76 102 62
72 98 59
70 96 58
73 99 61
109 130 117
161 178 187
162 177 186
156 173 183
154 172 178
153 170 178
159 176 183
145 162 167
155 172 181
159 175 182
155 172 181
156 172 182
155 172 180
166 183 192
162 179 188
159 175 185
162 178 190
155 172 182
166 183 194
157 172 182
146 162 167
122 141 134
123 142 136
127 146 141
138 156 158
152 168 172
143 161 166
160 176 184
158 175 185
161 177 188
150 168 176
154 172 181
154 170 180
152 169 176
163 179 192
158 175 186
154 170 176
156 172 179
161 177 187
156 173 180
156 173 178
171 188 202
76 102 65
74 100 60
76 102 62
74 100 61
75 102 63
74 100 61
75 101 61
79 106 65
72 98 59
78 105 64
71 96 57
74 101 61
74 100 60
71 98 59
72 98 59
72 98 59
71 97 59
72 99 59
73 100 60
76 102 62
144 161 165
161 178 189
152 169 174
156 173 183
162 179 189
154 169 177
162 178 187
148 165 169
161 178 188
154 170 177
153 170 179
164 180 190
159 176 186
161 178 186
149 166 173
160 176 185
154 171 181
150 167 175
160 176 188
151 168 176
79 105 68
77 105 65
79 107 66
74 101 61
73 100 60
77 103 63
71 97 58
76 102 62
77 103 62
72 98 60
73 99 61
78 105 64
73 100 60
74 100 61
76 103 62
74 100 60
74 100 61
74 101 60
90 112 90
163 180 190
160 176 186
150 168 175
157 174 184
157 175 183
159 177 185
158 175 185
164 181 192
144 162 167
164 182 193
156 174 182
157 175 185
164 181 192
161 177 184
157 174 181
160 178 188
159 176 185
158 174 182
103 126 107
74 100 61
77 104 64
73 99 60
71 96 57
75 102 62
76 103 63
76 103 63
74 102 62
73 99 60
75 101 62
76 102 62
75 102 62
79 107 65
76 102 62
73 99 59
73 99 59
101 122 104
156 173 181
170 188 202
154 171 179
160 177 187
170 187 200
161 178 189
162 179 188
160 177 187
159 175 185
158 176 188
165 182 192
168 184 194
157 174 183
152 168 174
165 181 196
164 180 190
134 153 154
75 102 62
81 109 67
74 102 61
74 101 61
81 106 75
108 130 113
118 139 129
131 150 148
139 157 159
159 176 183
158 175 183
166 183 195
159 176 183
163 180 190
166 182 194
130 149 148
72 99 60
72 99 59
77 105 65
78 106 64
80 108 67
74 101 60
71 97 58
74 101 60
76 103 63
80 107 65
78 105 65
72 99 60
77 104 63
78 105 63
137 157 155
162 180 190
162 180 190
174 191 206
161 179 189
166 183 196
159 177 189
158 177 188
161 179 188
164 181 189
168 184 194
151 169 177
157 175 185
167 185 196
125 145 141
83 112 69
77 104 63
81 109 67
77 105 64
80 108 67
81 109 67
78 105 65
81 109 67
84 111 75
113 135 123
146 165 170
116 137 126
161 178 188
159 176 187
137 156 155
94 119 92
78 105 63
81 109 67
80 108 66
153 170 173
173 189 201
164 181 192
162 178 190
168 186 199
171 188 201
175 193 208
136 157 156
96 119 97
78 106 65
72 97 57
77 105 64
78 105 64
80 108 66
80 108 67
80 108 66
78 106 65
73 101 61
136 156 155
164 182 194
171 188 201
170 188 202
158 176 187
159 176 185
158 176 186
168 186 199
171 187 199
160 179 188
116 136 127
84 110 76
76 103 63
75 103 63
81 109 67
78 105 64
75 103 63
75 102 62
77 105 64
115 135 123
152 167 173
157 174 183
166 183 194
177 193 208
158 176 185
166 183 193
159 176 183
169 186 199
164 183 195
166 183 194
165 182 192
167 184 196
145 163 169
162 179 189
169 186 196
138 157 157
117 138 129
75 102 62
78 105 65
128 148 143
159 176 187
165 182 194
168 185 196
161 178 187
154 171 179
170 187 200
157 173 180
156 173 178
156 173 181
162 179 188
168 183 193
159 176 186
162 179 190
158 174 184
166 182 193
164 182 192
159 176 183
158 174 184
161 178 190
154 172 180
76 103 63
75 102 63
71 97 58
76 102 62
76 102 61
75 101 61
79 106 65
90 112 90
116 137 126
145 161 163
167 184 196
159 174 184
159 177 184
168 185 198
161 177 184
163 178 186
157 174 182
161 178 188
152 168 175
155 171 179
135 154 155
78 105 64
73 100 61
73 100 60
77 104 64
74 100 60
76 103 63
80 108 66
70 95 56
77 103 62
76 103 63
76 103 63
73 99 59
73 99 60
81 108 67
76 103 63
77 104 63
75 102 62
75 101 62
77 104 63
73 99 59
112 132 117
156 173 179
151 168 175
154 172 178
154 170 179
155 172 181
162 178 188
163 179 187
153 170 177
143 160 166
132 148 150
127 147 139
94 119 92
74 100 61
69 94 57
74 100 60
69 94 56
74 100 60
74 100 60
76 103 63
74 100 61
95 117 95
162 179 187
164 181 194
147 164 168
160 175 185
162 179 189
166 183 194
161 177 185
166 183 194
163 179 189
157 173 183
162 179 190
159 176 187
153 170 178
157 173 184
159 175 182
158 175 182
155 170 176
146 163 168
154 172 179
155 172 181
165 182 191
83 109 77
76 103 63
74 101 61
73 100 60
69 94 57
70 96 58
77 104 64
79 106 65
75 102 62
75 101 61
80 108 66
72 97 58
75 102 62
71 97 58
79 107 66
77 105 64
73 99 60
73 100 60
74 101 61
73 99 59
78 105 67
155 172 180
149 166 173
159 175 185
159 176 184
151 167 173
145 162 166
154 171 183
164 181 193
158 176 187
149 165 170
159 176 184
149 166 170
136 154 153
144 161 165
119 139 128
111 130 120
89 112 87
84 110 76
75 102 61
76 102 62
80 104 71
161 178 188
157 174 185
158 173 182
145 162 168
157 175 183
164 181 193
155 173 183
147 164 168
160 176 188
166 182 192
155 172 182
156 172 180
156 173 183
159 175 185
148 166 175
160 177 187
162 178 188
156 173 182
158 176 186
159 176 185
129 147 143
74 100 60
70 95 57
77 104 64
75 102 62
71 97 58
78 105 63
72 97 58
73 99 60
71 97 57
75 102 62
72 98 59
73 99 59
77 104 63
73 100 60
74 100 61
71 96 57
74 100 61
74 101 62
74 101 61
105 126 113
155 172 179
158 174 181
156 173 183
150 167 174
156 173 182
155 171 179
148 166 170
151 169 179
159 176 184
154 170 179
155 171 178
152 168 173
162 178 186
163 180 191
153 170 175
157 175 182
156 173 180
157 174 184
156 172 182
101 120 106
77 104 64
75 101 61
70 96 57
73 99 59
74 100 61
80 107 66
72 98 59
73 99 60
76 104 63
76 103 63
76 103 62
76 103 64
79 106 64
74 101 61
76 103 62
75 102 61
74 100 61
76 101 61
139 157 158
160 176 183
155 171 178
155 172 183
158 175 183
150 168 172
166 182 194
159 177 186
151 168 176
153 170 178
163 179 191
170 186 196
165 182 192
155 172 183
159 176 185
160 176 185
158 176 187
160 177 185
144 161 164
76 103 65
77 104 63
77 105 64
74 101 61
77 104 63
70 96 56
77 104 63
76 103 62
80 107 65
74 100 61
74 100 61
73 99 61
78 104 63
75 101 61
74 101 62
79 107 65
74 100 60
121 140 129
164 181 194
161 178 188
155 171 179
167 185 198
154 171 177
163 180 189
166 183 195
157 175 182
158 176 185
157 174 183
156 174 182
162 178 188
167 184 197
164 180 190
160 176 188
161 178 190
106 128 111
77 104 64
77 104 64
70 96 58
74 101 60
74 102 62
74 101 61
76 103 62
77 105 64
73 101 61
80 108 66
96 121 97
113 135 121
107 128 114
131 150 145
144 161 165
100 123 100
85 112 75
77 104 64
77 105 63
76 103 62
77 105 64
76 104 63
78 105 64
76 103 63
78 106 65
75 102 62
74 101 62
71 97 59
75 103 63
78 106 65
143 162 165
178 195 209
164 182 194
174 190 203
166 183 194
151 169 176
164 181 191
169 186 199
162 180 193
167 185 199
175 193 209
166 183 193
164 182 194
163 180 191
115 138 123
77 104 63
78 105 64
80 108 67
78 105 64
75 103 62
78 105 63
80 108 66
87 114 80
127 148 139
167 185 197
162 179 191
168 185 199
170 187 199
165 182 191
155 174 183
125 146 140
83 112 69
81 109 68
156 174 182
163 182 194
178 195 211
166 184 197
162 181 191
124 145 137
89 115 81
77 105 65
76 103 62
80 108 66
78 106 65
79 107 67
79 107 66
74 101 61
82 109 67
76 103 62
76 103 63
79 106 65
122 142 134
174 191 204
171 186 197
157 176 185
167 184 195
167 185 198
174 189 200
138 157 157
108 130 113
75 102 62
78 105 64
79 106 65
80 108 66
78 106 65
78 106 65
75 102 62
81 108 67
75 102 62
78 106 65
118 139 128
162 178 188
171 188 201
164 181 194
163 180 190
165 183 193
163 181 192
169 186 199
164 181 192
162 178 188
164 179 189
165 182 194
165 181 192
152 168 173
127 146 141
87 112 79
75 102 62
74 101 61
79 106 65
74 101 61
127 145 140
154 171 182
163 179 188
155 172 180
168 184 195
151 167 172
159 176 184
163 180 191
166 183 194
160 177 188
163 179 190
170 187 200
164 179 187
164 180 193
158 176 186
173 189 202
166 183 195
157 175 186
158 176 188
152 170 179
166 182 194
74 100 64
73 100 60
73 100 60
73 100 60
99 120 102
139 158 158
146 163 165
164 180 189
155 172 178
163 178 187
160 176 187
161 176 185
156 174 182
161 177 188
164 180 190
164 180 191
159 177 188
167 183 194
164 180 190
159 176 185
140 159 161
78 105 63
73 99 60
77 104 63
82 110 69
78 105 65
75 102 63
72 98 59
79 106 65
71 97 59
77 103 61
75 101 60
73 99 60
74 101 61
75 103 63
78 105 65
80 108 66
80 107 66
76 102 62
77 104 63
74 99 60
94 118 89
163 180 190
159 175 182
158 174 180
158 174 182
159 176 185
139 157 159
116 134 123
85 110 81
71 97 58
76 102 62
73 98 59
73 100 61
75 100 61
74 101 61
73 98 59
73 99 60
70 96 58
78 105 63
78 105 64
74 100 60
73 99 60
148 165 169
162 179 191
164 182 193
159 176 188
157 174 182
165 182 193
161 177 187
170 184 195
146 162 167
155 172 183
155 172 182
169 185 197
158 174 183
163 179 188
150 166 173
158 175 186
155 171 180
158 174 183
161 177 186
159 177 185
160 176 185
103 126 107
80 108 66
73 99 60
75 102 62
73 99 59
75 101 61
77 103 62
76 102 62
71 97 58
74 100 61
74 101 61
73 100 60
71 96 59
73 98 60
76 103 62
68 92 54
72 97 59
78 106 65
80 107 66
72 99 60
74 100 61
127 145 141
158 175 185
147 163 166
149 165 171
150 167 170
145 163 168
141 159 162
123 143 137
108 127 118
103 125 106
87 111 81
73 99 59
73 99 60
74 100 61
80 108 66
71 97 58
75 102 62
81 109 68
71 98 59
70 96 58
74 100 60
129 147 146
155 172 181
165 181 194
164 180 193
166 182 194
164 181 192
152 169 178
158 174 184
153 170 175
161 178 188
159 176 186
160 176 185
167 183 194
155 172 177
156 172 180
164 181 190
153 170 180
165 182 195
167 184 194
162 178 189
149 167 175
82 106 77
75 102 62
73 99 59
73 98 59
76 103 63
71 97 58
74 100 61
69 95 57
77 103 63
73 98 59
75 102 63
77 104 63
72 99 59
71 97 58
77 104 63
75 102 62
67 92 54
79 106 65
74 100 60
76 102 65
157 174 181
160 176 185
174 190 202
157 174 181
154 171 178
162 178 187
157 173 182
164 180 191
153 169 173
154 168 175
157 173 183
164 181 193
166 183 195
156 172 180
159 175 185
160 176 188
158 175 182
160 176 187
170 187 198
149 165 169
78 105 67
72 98 59
74 101 60
78 106 65
76 103 63
75 102 61
78 105 64
76 104 64
75 102 61
74 100 60
73 99 60
77 103 64
68 94 55
78 104 64
75 101 61
75 101 61
73 99 59
74 101 61
83 106 77
161 178 188
160 177 189
167 184 195
163 179 189
160 177 187
162 178 187
161 177 188
158 175 186
163 180 189
162 178 189
160 177 183
156 174 183
158 175 183
150 166 172
153 169 178
160 177 185
160 176 186
168 185 199
116 136 124
75 102 62
76 103 63
76 102 61
77 104 64
72 98 60
75 101 61
71 97 58
79 106 65
76 103 63
77 104 63
74 100 60
75 103 62
75 102 62
73 100 60
76 102 62
78 105 65
76 103 63
158 175 183
166 184 197
160 177 187
163 180 191
164 180 189
166 183 193
164 182 193
162 179 191
153 172 182
157 174 182
163 181 193
171 188 203
165 180 192
163 180 192
161 179 187
163 180 190
153 170 176
77 102 71
76 103 63
81 108 67
78 106 65
79 107 65
74 101 61
74 100 61
73 99 60
82 110 68
75 102 61
81 109 68
77 104 64
71 97 58
75 102 63
78 105 64
97 121 95
152 171 177
158 175 185
144 163 167
128 150 146
111 132 116
91 114 89
77 103 66
77 105 64
72 99 59
77 105 64
71 97 58
78 105 64
79 106 66
79 107 66
89 114 88
158 175 182
162 178 189
162 178 188
166 183 196
167 184 196
166 184 197
167 184 195
160 178 186
161 177 188
168 185 197
167 184 196
171 189 201
161 179 191
155 173 180
94 119 97
80 108 67
79 107 66
81 109 67
78 106 65
78 104 66
115 136 124
171 188 200
170 186 198
166 183 193
169 185 196
167 184 196
171 187 202
164 182 194
168 186 197
170 188 201
153 171 178
112 134 118
163 180 193
168 185 200
154 172 181
112 136 122
76 102 62
77 104 64
78 105 64
75 101 61
79 107 65
81 108 66
81 109 68
76 103 63
76 103 62
77 104 64
79 106 65
83 111 69
77 104 64
81 109 67
135 154 150
171 187 198
159 176 183
168 185 194
157 174 182
136 156 156
94 119 90
79 106 65
79 107 66
78 106 64
79 107 66
78 105 63
79 106 64
81 109 68
76 103 63
76 103 63
74 101 61
78 106 65
74 100 60
111 132 118
157 174 181
167 184 195
165 182 195
160 177 188
161 177 186
167 183 194
166 182 195
158 175 185
172 188 204
145 162 170
129 149 147
99 122 99
79 106 66
80 107 66
79 107 65
83 112 69
74 100 59
79 106 65
78 105 64
110 132 121
166 183 194
158 176 183
163 178 187
161 178 188
166 182 194
170 187 200
165 182 195
154 170 178
159 176 184
164 180 191
166 183 194
163 180 190
154 171 181
170 186 198
167 183 192
160 176 186
168 185 196
158 176 187
161 177 185
172 189 204
94 120 91
111 131 119
141 159 159
151 169 173
165 182 192
169 184 194
167 183 192
158 175 183
160 176 185
153 171 183
150 167 174
151 169 175
158 174 181
152 170 176
157 172 182
158 175 183
158 173 182
159 175 183
158 174 180
160 176 185
159 176 186
71 97 57
77 103 63
78 106 65
69 94 56
78 106 65
71 96 58
76 102 62
69 95 56
81 109 67
72 98 60
70 97 58
74 101 61
78 105 64
75 101 61
76 102 62
80 107 65
76 102 60
77 104 64
73 98 57
75 101 61
80 107 68
148 165 170
126 145 142
125 143 138
86 112 78
72 98 60
78 106 64
75 102 63
72 98 59
77 104 63
75 102 62
75 101 61
76 102 63
71 96 58
76 102 62
74 100 61
81 108 66
77 103 63
75 102 62
75 102 62
69 95 58
75 102 62
130 148 144
156 173 181
156 172 180
156 173 182
155 172 179
164 181 192
158 174 185
161 178 188
160 178 189
168 185 198
151 167 172
157 172 179
160 176 184
166 182 194
155 172 180
162 178 188
160 177 187
160 177 187
159 176 187
153 169 178
158 175 185
135 152 156
75 102 61
72 99 61
78 105 64
72 98 60
76 102 62
68 93 54
75 101 61
67 93 56
71 97 59
76 103 63
75 102 62
76 103 63
74 99 59
80 107 65
71 96 57
75 101 62
72 97 59
71 96 58
76 101 66
95 117 97
121 139 136
114 133 122
114 135 127
84 107 82
74 101 62
74 101 61
76 102 63
74 100 61
72 99 60
75 102 61
74 101 60
76 103 62
76 103 63
72 97 58
75 102 62
73 99 59
72 99 59
72 98 59
71 98 58
72 98 59
78 105 64
95 117 94
163 178 187
156 173 182
159 176 184
159 175 187
151 168 171
149 165 172
154 170 178
164 181 190
162 179 189
162 177 188
156 171 179
161 177 186
159 175 180
160 177 187
158 174 183
168 184 196
154 171 179
159 175 183
163 181 192
163 180 191
115 134 126
75 101 61
74 101 61
73 100 60
77 104 64
74 99 59
74 100 61
77 104 63
75 102 62
73 99 59
74 101 61
77 103 63
73 99 59
72 99 60
76 102 62
69 95 57
81 109 68
75 101 61
77 104 64
72 98 59
112 132 123
162 178 186
167 183 194
159 175 183
157 173 182
152 169 176
161 177 186
156 174 185
165 182 194
149 166 173
165 182 195
155 171 181
174 190 202
165 183 197
168 185 199
164 180 189
160 176 184
161 176 187
157 174 184
165 183 195
119 141 131
73 100 60
72 98 59
76 103 63
72 98 59
73 99 60
75 101 62
76 103 62
74 101 61
77 104 64
77 104 62
75 102 62
75 102 62
76 102 63
74 100 60
79 106 65
77 104 64
77 104 64
75 103 63
122 142 134
161 179 189
156 172 180
161 179 191
168 185 197
162 179 188
173 189 200
164 180 190
155 172 180
162 179 192
166 181 191
158 175 186
160 177 185
162 179 191
160 177 187
164 179 190
165 181 192
161 179 190
165 182 193
84 112 75
78 105 64
78 106 65
74 101 62
76 103 63
75 101 61
76 103 63
78 106 64
75 102 62
77 103 64
77 104 63
78 105 65
74 100 60
70 95 57
76 104 64
77 104 63
76 103 64
98 119 101
162 179 188
162 179 190
157 174 184
163 179 186
162 179 187
165 183 196
160 175 184
171 187 200
157 173 179
155 173 181
168 185 197
158 176 186
158 174 185
171 187 198
162 179 190
171 187 202
139 159 163
80 107 65
77 105 65
79 106 65
79 107 65
77 104 64
79 106 65
77 104 64
77 104 64
76 103 63
78 105 64
75 102 62
75 102 63
79 107 66
79 107 66
82 109 67
109 129 114
169 186 200
168 185 196
156 173 182
169 186 198
166 183 194
160 177 188
160 178 188
145 163 167
126 145 143
114 136 122
91 115 85
80 107 66
78 105 64
76 103 63
108 130 117
175 193 210
172 188 199
169 186 199
161 179 187
157 173 180
164 181 192
159 177 189
171 188 200
167 185 199
167 185 198
164 181 189
168 185 196
178 195 210
161 178 188
94 121 89
78 106 65
78 106 65
113 135 117
151 170 174
164 182 195
149 167 172
175 192 206
164 182 193
173 190 205
169 185 197
171 188 199
174 191 206
166 183 194
172 190 205
170 186 198
163 180 190
124 144 137
126 146 142
77 105 64
79 107 65
76 103 62
80 108 67
79 106 65
79 106 65
76 103 63
82 111 69
77 105 64
81 109 67
77 105 64
72 99 59
77 104 63
79 108 66
76 102 62
81 109 67
143 160 164
172 189 202
145 164 169
108 130 114
81 108 73
73 100 60
75 101 62
79 106 65
78 105 64
78 106 65
81 109 66
74 100 61
77 104 64
77 105 65
75 102 62
76 103 62
82 110 67
78 105 65
76 103 64
119 138 130
169 186 199
171 187 200
160 177 187
156 175 186
165 181 194
165 181 189
146 163 170
143 163 166
113 135 117
81 110 68
78 105 63
74 101 61
76 103 63
76 102 62
74 101 62
76 103 63
77 104 63
71 98 60
79 106 65
111 132 117
159 176 184
167 183 192
160 176 186
169 187 201
164 181 189
152 169 179
156 174 183
171 187 200
165 182 193
166 183 194
167 184 195
166 184 196
157 174 185
150 168 175
161 177 187
161 178 187
160 178 187
165 182 191
139 158 158
123 142 137
153 169 175
163 179 189
161 176 187
163 179 190
150 169 177
164 182 194
153 170 180
174 189 202
161 177 188
174 189 201
161 177 186
155 172 183
155 172 184
159 175 185
174 190 204
156 174 185
160 177 184
160 178 190
166 182 192
157 174 184
156 174 181
95 120 94
77 104 63
79 106 66
73 99 60
68 93 54
74 100 61
76 103 63
78 105 65
75 102 62
72 98 59
77 104 64
75 101 62
74 100 60
80 108 67
74 101 60
71 97 58
75 102 63
82 107 73
112 133 121
132 152 152
149 166 169
97 119 99
75 102 61
77 103 63
75 101 61
75 101 61
78 105 64
74 100 61
76 103 63
73 99 61
75 102 62
77 105 64
73 99 60
80 107 65
77 103 62
78 105 63
75 101 61
72 99 60
77 104 64
72 98 59
71 97 58
77 104 63
118 139 129
155 173 183
149 167 173
159 176 186
158 174 183
160 176 185
163 179 187
164 181 194
160 177 184
160 176 183
148 165 169
155 172 180
151 167 173
153 168 175
162 177 187
164 181 192
163 180 190
158 176 186
156 172 180
165 182 192
154 169 177
151 168 172
78 105 64
75 101 60
75 103 62
74 100 60
75 102 62
77 104 62
80 107 66
77 104 63
77 103 63
79 106 66
76 104 64
72 97 59
74 99 63
93 117 90
108 129 119
138 156 155
141 159 157
151 168 173
170 186 197
161 177 185
157 174 185
87 112 84
76 103 63
77 104 63
76 102 62
72 98 59
75 101 60
68 93 56
75 102 62
77 104 64
79 105 65
75 102 62
76 103 63
72 98 59
77 104 64
72 99 59
77 105 64
70 96 57
73 98 59
72 99 59
75 102 62
78 105 65
139 155 156
158 175 188
161 177 186
156 173 182
160 178 189
158 176 186
155 172 177
168 185 198
155 172 180
163 180 191
166 184 197
158 174 184
156 173 181
161 178 189
158 175 184
160 175 185
162 178 186
150 167 172
162 177 186
153 171 179
134 151 152
71 97 58
70 95 57
72 99 59
74 101 62
74 101 61
71 97 58
73 99 61
75 102 62
73 98 59
73 99 59
72 98 59
75 102 62
75 103 63
76 103 63
76 102 62
73 99 59
74 101 61
72 98 60
80 107 66
75 100 63
142 161 165
174 190 204
157 174 181
149 165 170
159 176 185
161 178 186
163 179 189
163 179 189
157 174 182
152 169 178
156 174 182
165 182 189
165 182 193
157 173 183
150 167 173
166 183 194
159 176 187
160 177 186
158 174 182
144 162 165
79 104 71
76 103 62
78 105 65
78 106 64
75 101 62
77 105 64
79 106 65
75 101 61
78 106 64
74 101 60
74 100 61
73 100 61
73 99 59
72 97 59
72 98 59
79 106 66
72 97 58
72 98 59
84 110 75
156 174 184
163 179 190
163 180 190
161 176 184
161 179 189
161 177 189
166 183 195
160 177 187
154 172 180
168 184 199
157 175 185
171 187 201
155 172 183
168 183 195
169 185 196
166 183 197
170 187 200
159 176 186
130 148 146
79 106 65
74 100 60
78 106 66
77 104 64
75 101 62
73 101 62
73 100 61
76 103 62
75 102 63
76 103 62
75 102 62
80 107 65
75 102 62
77 104 63
79 107 66
74 101 62
78 105 64
147 166 169
164 180 188
165 181 191
168 186 197
159 177 187
167 184 197
155 173 183
159 175 185
159 176 186
161 179 190
161 178 186
161 178 187
163 180 190
166 183 194
159 175 180
169 186 199
167 184 194
107 129 111
71 97 59
74 101 62
78 105 64
79 107 66
80 109 67
76 104 64
76 103 62
80 109 68
75 102 62
77 104 63
75 102 62
81 109 68
80 108 67
76 102 62
77 105 64
129 147 140
163 181 194
166 184 197
165 183 195
171 188 200
169 185 198
166 183 195
172 189 203
165 183 194
168 184 198
162 180 190
154 171 177
147 165 168
136 156 153
125 144 135
140 159 160
157 175 185
172 189 203
169 186 199
166 184 195
160 176 183
157 174 183
168 185 197
169 186 198
165 183 193
172 189 204
164 184 197
163 181 190
168 185 196
143 161 158
102 125 101
144 162 167
161 179 188
156 173 183
168 185 197
171 188 200
180 197 213
168 187 200
165 184 197
170 187 199
169 186 199
168 185 197
175 192 206
167 184 194
145 164 167
127 147 141
176 193 206
164 181 193
153 172 175
110 133 119
79 107 66
80 107 66
81 109 67
75 102 62
79 107 66
81 109 67
80 108 66
78 106 65
75 102 62
76 104 63
77 104 64
77 105 65
79 107 66
92 117 84
122 142 133
97 121 96
82 111 68
81 109 67
77 104 63
80 109 67
80 108 66
82 109 67
78 106 65
78 106 65
80 108 66
79 107 65
76 103 63
80 107 65
77 104 63
75 102 62
81 109 67
77 104 63
78 106 65
113 135 120
169 187 199
169 186 198
164 180 190
168 185 199
153 172 177
106 128 113
80 106 68
77 104 64
75 102 62
77 104 63
77 104 63
74 100 60
73 100 61
81 109 67
80 109 68
77 104 63
80 107 65
77 105 64
75 102 63
112 134 120
169 184 195
162 178 188
170 187 200
159 177 188
160 177 186
167 182 195
168 185 197
158 175 187
165 182 191
173 190 202
162 178 187
164 181 192
170 187 203
169 185 198
159 176 185
144 162 166
116 136 125
86 112 79
75 102 62
77 104 63
148 165 172
161 178 187
155 172 181
166 184 197
161 177 187
165 181 194
171 190 204
171 188 201
162 180 192
163 179 192
162 179 188
158 175 183
173 189 200
164 180 193
158 175 185
167 184 196
163 180 189
158 174 182
160 177 188
165 181 189
165 182 191
111 133 117
75 101 62
72 99 60
80 107 65
73 99 60
74 101 61
78 104 64
75 101 61
77 105 64
74 100 60
75 101 61
76 104 63
74 101 61
78 104 67
101 121 103
117 137 128
153 171 177
158 174 183
166 182 191
157 174 181
159 175 182
118 137 129
73 100 60
76 104 64
75 101 61
77 103 63
73 99 59
74 100 60
79 105 64
75 102 61
75 100 60
75 102 62
75 102 62
73 100 60
73 99 60
74 101 62
74 101 61
75 101 61
72 98 59
76 103 62
77 104 63
75 102 63
101 122 103
153 170 179
158 174 183
155 172 182
159 177 186
159 175 185
150 167 175
155 172 179
145 162 165
155 172 178
158 175 183
159 176 185
158 176 187
162 177 188
162 178 188
156 173 181
154 172 179
164 180 190
159 176 186
156 174 185
151 169 176
170 187 200
101 124 103
76 103 63
72 98 59
73 99 60
72 97 59
74 100 60
77 103 62
82 108 75
89 112 88
116 135 129
131 150 148
146 163 167
158 174 182
149 167 172
158 175 184
152 169 176
149 167 173
169 187 201
155 172 180
161 177 187
157 173 180
114 135 127
77 104 63
73 99 60
76 102 62
74 99 60
72 97 58
75 100 61
77 103 62
71 97 57
80 107 66
71 98 59
75 101 61
78 106 64
77 104 63
74 100 60
76 102 63
79 106 65
74 101 62
78 105 64
69 95 57
75 102 63
121 140 133
166 182 194
153 170 176
157 174 182
163 180 191
169 185 197
152 169 173
165 182 191
162 177 189
152 168 175
164 180 191
163 179 190
156 173 177
160 178 186
155 172 181
150 167 176
159 175 185
160 177 189
153 171 181
162 178 187
154 170 178
102 124 106
74 101 60
75 102 61
74 102 62
76 103 63
72 98 58
71 97 58
73 100 60
71 96 57
77 104 64
75 101 61
75 102 62
76 102 62
75 101 61
77 104 64
75 102 62
76 103 63
78 105 64
76 102 62
76 102 62
117 136 130
150 168 177
164 180 191
158 174 184
157 174 183
154 171 178
163 180 192
152 168 175
158 174 186
154 170 177
154 170 176
162 179 189
158 175 182
154 170 179
167 184 197
156 173 183
171 188 202
166 183 193
160 178 188
161 178 189
109 131 115
77 103 62
72 99 59
66 91 54
75 101 61
75 102 61
75 102 62
71 98 59
74 100 61
75 102 62
80 108 67
78 106 65
76 103 63
74 101 60
79 106 65
72 98 58
77 104 63
75 101 61
75 101 61
110 131 120
161 177 185
168 185 198
165 181 193
159 177 185
159 177 189
162 179 189
171 188 199
158 175 185
171 189 202
166 184 194
171 188 199
161 178 189
166 182 191
169 186 201
167 183 194
163 178 188
157 175 185
157 174 183
97 121 100
76 102 62
74 100 60
75 102 62
80 108 66
75 103 62
76 103 63
72 98 60
77 104 64
77 104 63
78 106 65
78 105 65
75 102 63
80 108 67
79 106 64
72 98 58
77 105 64
80 106 70
167 183 194
160 178 188
161 178 190
164 180 189
162 179 190
164 180 190
166 184 196
151 169 175
162 179 188
156 173 181
159 177 185
163 181 193
145 163 171
161 179 190
168 185 198
164 182 194
162 180 189
88 113 82
79 107 65
74 101 61
73 99 59
75 102 61
75 101 61
78 106 65
75 103 62
81 109 67
77 104 63
76 103 62
79 106 65
79 107 66
76 104 63
73 100 60
79 107 69
144 163 165
162 179 190
167 184 193
160 178 187
166 183 197
162 178 189
161 178 186
164 181 191
170 190 206
176 192 206
162 179 190
172 189 201
170 188 204
170 186 199
160 178 189
111 134 117
106 131 113
133 152 149
135 155 157
158 176 187
164 180 189
171 188 201
174 192 208
169 187 198
168 184 196
168 185 197
171 189 200
145 163 164
112 133 119
138 158 158
169 187 200
165 183 195
170 188 203
166 184 197
172 188 199
173 191 206
158 176 185
173 191 204
177 194 210
164 181 192
166 184 195
133 154 147
99 123 100
82 110 69
131 150 145
176 193 210
164 181 190
169 187 200
170 187 200
149 168 170
108 131 114
81 109 68
80 108 67
79 107 66
70 97 58
77 105 64
74 101 61
80 109 67
79 107 65
77 105 64
100 125 99
145 165 165
164 180 188
104 127 108
82 110 68
77 105 65
76 103 63
75 102 62
76 103 62
82 110 68
76 103 62
79 107 66
77 105 65
79 106 65
80 107 66
82 109 68
74 101 60
78 105 64
79 105 64
74 101 60
80 109 67
73 99 60
119 140 129
169 186 198
169 186 197
135 155 153
97 120 99
73 100 60
77 104 63
73 99 60
78 106 65
79 106 64
77 104 64
78 105 65
75 102 62
76 103 63
80 108 66
76 103 63
83 111 69
74 101 62
80 107 65
75 102 61
106 129 109
163 179 192
159 176 185
162 178 189
165 182 192
166 184 197
164 180 192
158 175 184
166 182 193
169 186 199
161 177 187
161 176 183
165 181 192
147 166 168
110 132 121
85 111 78
76 104 64
79 106 65
78 106 65
72 98 59
77 104 64
135 152 152
161 178 188
164 180 190
158 176 187
162 179 188
160 176 184
148 165 173
162 178 190
165 182 193
161 178 192
157 174 182
164 180 191
159 176 184
158 176 188
171 188 204
160 177 186
158 174 182
159 176 185
161 179 187
161 178 188
165 181 192
120 138 130
77 104 63
74 100 61
79 107 66
75 101 61
81 108 67
79 105 64
75 102 62
78 106 65
81 109 67
88 112 85
109 131 115
140 160 163
161 177 187
159 176 185
164 182 194
167 183 195
158 174 182
167 184 197
156 174 184
146 162 164
140 158 160
73 99 60
72 99 59
75 101 62
74 101 61
76 102 62
72 98 59
76 102 62
71 97 57
75 102 62
76 102 62
77 104 63
74 101 62
74 101 61
70 96 57
72 97 59
75 102 62
75 101 61
67 92 54
75 102 61
73 99 60
79 106 66
157 174 183
157 174 182
162 178 187
161 178 188
168 185 197
161 177 187
160 178 189
158 174 184
162 177 188
156 172 179
165 181 194
157 174 180
161 178 190
154 170 178
165 181 190
155 172 179
160 177 187
151 167 173
164 180 192
159 176 184
160 177 190
132 151 150
75 101 62
89 113 84
108 128 117
133 151 149
149 167 172
150 168 172
157 174 181
165 181 189
164 181 194
157 173 181
161 179 191
149 167 173
158 174 182
160 177 189
154 171 179
158 176 185
149 166 175
163 180 191
148 165 174
159 176 185
144 161 162
73 99 59
73 100 61
73 100 61
74 101 61
73 99 60
75 102 61
76 103 62
77 104 64
72 98 59
72 97 58
73 100 61
73 100 60
72 97 57
74 101 62
70 95 56
72 98 59
76 102 62
74 100 61
80 108 66
77 104 63
87 113 80
157 174 185
158 175 184
159 176 186
170 186 198
156 174 184
155 173 181
164 181 193
161 178 188
166 182 194
158 173 181
159 177 188
155 172 183
149 167 175
159 176 187
160 175 185
158 176 186
147 164 171
163 180 191
163 180 189
167 184 197
144 161 163
72 98 59
79 107 65
77 104 64
69 95 57
77 104 62
75 102 61
74 100 61
74 101 61
75 101 62
67 93 55
76 102 62
71 98 59
77 105 64
75 102 62
78 105 64
72 99 58
79 107 66
72 98 59
77 104 63
87 111 82
159 176 182
157 175 183
161 178 191
167 183 198
163 179 190
159 175 182
166 182 194
165 181 193
157 173 182
166 182 195
154 172 179
162 179 190
161 177 187
162 179 189
152 170 179
162 178 187
166 182 195
153 171 179
145 161 167
150 167 173
79 106 65
71 97 57
74 100 61
80 107 66
73 99 59
79 107 65
77 104 63
74 100 61
71 97 58
77 104 64
76 103 64
73 100 61
75 102 62
78 105 64
71 98 58
78 105 64
72 99 60
77 104 63
76 105 64
147 165 170
151 167 173
160 177 187
166 184 196
156 172 180
155 172 178
165 183 193
163 180 192
166 182 191
154 172 183
159 176 183
160 175 184
158 174 182
154 172 183
164 182 193
170 186 198
159 175 183
171 187 200
142 161 163
80 107 66
76 103 63
73 98 59
77 105 63
71 98 59
73 99 60
79 107 66
75 102 61
80 107 66
74 101 61
74 101 61
78 105 64
81 109 67
79 106 65
77 104 64
76 103 62
75 102 62
128 147 145
161 177 186
170 187 199
158 175 184
154 172 180
160 177 186
164 181 194
165 182 195
167 184 194
160 177 186
154 172 181
162 180 190
168 186 198
161 178 189
166 184 197
164 182 193
171 187 200
138 157 155
75 102 63
77 103 63
74 101 61
78 106 64
73 100 61
78 105 65
78 106 64
80 108 66
78 105 64
77 104 63
76 102 62
78 105 64
79 107 66
79 107 65
76 103 62
100 122 99
156 173 181
160 177 186
170 188 201
162 181 191
163 180 192
165 182 193
168 185 194
164 181 191
164 181 188
172 188 202
174 191 204
158 175 184
165 182 191
167 184 194
154 172 179
88 113 86
76 103 62
81 109 67
78 106 65
86 113 80
108 130 112
126 148 142
148 167 173
159 178 187
151 170 174
109 132 116
78 106 65
77 105 64
80 107 71
151 168 170
167 186 199
172 190 204
168 184 196
162 180 190
170 187 201
168 187 201
168 186 198
167 184 196
134 153 148
93 117 93
81 108 66
82 111 69
79 106 66
130 149 145
176 192 207
168 185 196
164 180 189
174 190 202
166 183 194
167 186 198
157 175 183
118 139 129
88 114 85
78 105 64
79 107 66
82 109 67
78 106 64
105 126 111
143 162 163
168 186 198
165 182 193
170 188 200
101 125 102
76 104 64
79 106 64
74 101 61
79 107 67
77 104 64
82 111 68
80 108 67
74 101 60
80 108 66
80 108 67
79 107 66
72 98 58
79 106 65
76 104 63
77 104 64
77 104 64
78 106 64
78 106 65
114 137 126
118 140 128
81 107 71
78 106 65
77 104 64
76 104 62
80 108 67
81 109 69
80 107 66
77 104 64
80 108 66
76 103 62
82 110 68
78 105 65
74 101 61
76 103 63
75 103 63
76 104 63
76 103 63
75 102 61
101 124 103
167 185 194
166 183 193
165 182 192
157 174 183
157 173 183
156 172 179
160 177 186
165 183 195
161 179 189
146 164 165
122 142 135
95 120 93
71 96 58
77 105 64
77 104 63
80 107 66
77 104 63
78 105 64
80 107 66
79 107 65
128 148 139
163 180 190
168 185 197
160 178 190
165 182 193
155 172 179
170 188 203
171 188 199
159 176 184
170 185 197
165 182 195
166 183 193
152 168 175
166 182 195
155 171 178
159 175 186
163 179 189
172 188 200
162 179 190
167 184 196
167 183 192
146 164 166
77 104 64
77 104 64
74 101 61
77 105 63
77 104 64
84 108 77
106 126 116
132 150 145
150 168 173
156 174 185
158 176 186
167 185 196
163 180 191
165 183 193
157 174 184
165 180 190
162 177 187
164 181 191
157 174 182
164 180 188
143 159 162
71 97 58
78 106 65
78 105 64
74 101 60
76 103 62
78 106 65
77 105 65
75 102 63
79 107 65
77 104 64
74 101 61
74 100 61
77 104 64
75 101 62
74 101 61
80 108 66
77 104 63
79 107 65
77 105 65
79 106 66
76 102 61
128 148 143
161 178 187
166 183 195
161 178 187
159 176 183
159 176 185
164 181 192
159 176 186
158 175 183
159 177 187
153 169 174
163 180 190
156 172 183
164 180 191
162 179 190
160 177 188
163 180 191
161 176 184
158 175 185
127 147 143
119 139 131
111 131 116
161 179 192
155 172 179
160 175 183
159 176 188
158 174 182
156 172 180
155 171 180
167 183 194
151 169 175
160 178 186
159 176 188
164 180 191
162 177 185
168 184 194
145 163 166
157 174 180
156 173 182
152 169 173
164 182 193
151 167 175
158 175 186
84 107 80
77 105 64
76 102 63
70 96 58
72 98 59
76 102 62
75 101 62
75 102 61
79 106 64
80 107 66
74 100 61
74 100 60
77 104 64
73 99 60
74 101 60
73 100 60
74 100 60
77 104 63
74 101 61
76 103 62
74 101 61
139 157 161
152 169 177
154 171 180
151 168 173
162 179 188
167 183 196
163 180 191
157 173 183
168 185 197
155 172 182
156 173 182
160 176 185
159 176 184
167 184 193
166 182 193
160 176 185
159 175 184
159 176 185
154 170 178
160 177 186
158 174 183
89 114 86
75 101 62
78 105 64
73 99 60
71 97 58
75 101 61
77 104 63
75 101 61
73 99 59
77 104 64
73 99 59
77 104 64
73 99 60
73 100 60
77 105 64
78 105 64
73 100 61
76 102 63
74 100 61
76 103 62
127 147 148
157 172 181
164 181 194
159 176 185
161 178 186
161 178 189
160 178 188
158 175 185
162 179 190
167 184 196
153 170 177
153 170 176
159 177 185
164 182 194
167 185 197
151 168 174
162 179 190
170 186 199
161 178 187
152 169 176
127 146 142
77 104 63
78 105 64
74 101 61
74 101 61
73 99 61
74 101 61
76 103 63
75 102 62
72 98 59
76 104 63
76 103 63
73 99 60
74 101 62
75 103 62
79 106 65
72 98 58
77 104 63
70 96 57
107 128 113
152 169 179
159 177 187
161 177 188
163 179 190
167 184 196
171 189 203
162 180 191
161 176 187
155 173 183
157 174 183
166 183 194
159 175 185
156 174 184
168 185 198
164 182 192
158 174 183
157 174 183
172 190 207
113 135 122
75 101 62
76 103 62
77 104 64
73 100 60
80 108 67
78 105 65
75 101 60
80 107 66
75 102 61
76 104 64
78 105 65
79 107 65
76 103 62
79 106 65
77 105 64
77 103 63
81 107 71
133 152 150
168 185 197
162 180 189
168 186 198
174 191 204
163 180 191
163 179 189
161 179 190
161 177 188
164 182 191
168 185 197
161 178 187
154 172 179
167 185 197
164 181 192
159 176 188
159 176 186
108 130 114
75 102 63
76 103 63
77 104 64
78 104 63
80 107 66
80 108 66
73 100 60
75 102 62
78 105 64
81 108 67
79 106 65
78 106 66
75 102 62
81 109 67
77 104 63
130 149 147
160 177 187
165 183 195
170 187 198
167 184 196
160 177 187
168 186 200
162 179 187
172 188 202
173 189 202
161 177 187
166 184 198
166 183 195
162 178 187
169 187 201
157 175 183
80 109 67
75 102 61
76 103 62
81 109 67
78 105 65
90 117 89
124 144 134
161 178 185
162 180 190
133 152 149
125 146 142
104 128 106
80 107 68
95 118 95
158 176 184
163 181 192
163 180 191
167 186 199
166 183 193
172 191 204
163 182 194
91 118 88
80 108 67
80 108 66
80 108 68
77 105 64
78 106 64
142 162 165
170 187 200
174 191 204
164 182 195
173 191 206
163 180 190
176 193 209
167 184 197
174 191 206
162 179 188
144 163 165
110 134 114
122 144 135
159 177 188
175 193 209
160 178 189
168 186 200
168 186 195
170 187 199
92 119 88
79 107 65
79 107 66
80 108 67
77 104 63
77 104 64
76 102 62
78 106 66
78 106 66
77 104 63
81 109 67
74 101 60
78 105 64
77 105 64
79 107 65
79 107 66
87 111 81
130 152 148
157 175 183
144 162 163
80 108 67
78 105 65
76 103 62
77 104 63
74 101 61
71 97 58
76 103 63
80 107 66
78 105 65
77 103 62
75 102 61
78 105 65
81 109 67
80 108 66
78 105 64
74 101 61
74 101 61
83 111 68
79 107 66
93 117 93
164 181 190
168 185 196
169 186 200
161 178 187
168 185 197
158 175 183
149 167 172
119 141 131
91 114 85
79 106 65
70 96 57
76 103 63
77 104 63
70 96 57
76 103 63
79 107 66
78 104 63
72 99 59
79 107 66
75 101 62
105 126 113
169 185 194
161 179 187
166 183 197
160 177 187
164 182 192
168 185 199
157 173 182
159 177 189
152 169 175
161 178 187
156 173 180
165 182 193
168 184 196
161 178 189
155 172 180
160 177 185
168 185 196
165 181 194
163 180 192
164 181 189
148 165 166
74 101 62
74 100 60
98 122 95
132 151 146
138 156 158
164 181 191
166 183 196
166 182 197
168 184 197
174 191 206
153 170 178
158 175 185
166 183 191
172 189 203
169 185 196
172 188 202
172 189 204
148 165 171
169 186 199
163 179 189
171 187 199
82 107 76
79 107 66
76 103 63
77 104 64
80 107 66
74 100 61
76 102 62
78 104 63
79 106 65
79 106 65
77 104 64
76 102 63
76 103 63
78 105 64
77 104 64
76 103 62
72 98 59
78 104 63
77 104 63
71 98 58
77 104 63
115 135 122
158 176 186
169 185 197
161 178 189
157 174 182
165 181 193
169 185 198
162 179 192
160 178 190
158 174 182
156 173 181
159 175 185
165 181 191
162 179 191
132 150 150
119 140 131
108 128 115
84 107 81
74 101 61
73 100 60
76 102 62
81 108 69
154 171 179
163 180 190
156 173 180
164 181 192
155 172 182
157 174 183
159 175 185
168 186 198
158 174 182
159 174 182
159 177 184
163 178 187
161 177 187
153 169 176
160 176 185
164 181 190
157 173 180
155 173 181
161 177 187
163 180 191
160 177 185
121 140 133
72 99 60
78 105 64
73 99 60
76 103 63
75 102 61
78 105 64
77 104 63
76 103 63
78 105 65
75 102 61
72 97 59
73 99 61
76 104 63
79 106 65
77 103 62
75 102 62
75 102 62
76 102 63
78 105 63
79 106 64
118 139 129
157 174 182
166 183 193
164 179 189
160 177 184
155 172 182
160 177 186
161 179 189
151 169 178
158 176 184
159 175 184
160 177 185
157 173 184
161 177 186
154 172 180
150 167 174
167 183 191
154 173 180
161 178 187
166 181 192
171 187 199
123 142 135
78 105 64
76 103 62
76 103 62
73 99 60
74 101 60
72 98 59
79 106 65
76 104 64
72 98 59
74 101 62
73 100 61
77 104 62
74 101 61
73 100 59
79 106 64
72 98 60
74 101 61
82 110 68
77 104 64
94 117 91
157 174 185
154 171 177
148 165 172
159 177 185
164 180 190
152 169 176
157 175 184
163 179 186
160 177 187
161 178 186
156 172 179
152 170 177
162 180 193
155 171 180
158 175 183
168 184 198
162 177 184
157 176 186
158 175 185
140 159 161
75 103 63
76 103 62
74 101 62
77 105 64
74 100 60
78 106 65
76 103 63
83 110 73
86 110 79
86 112 79
80 105 69
79 105 72
89 114 86
91 115 90
86 110 80
90 116 88
82 107 78
90 114 87
84 110 76
155 172 181
159 176 186
154 170 178
168 184 194
157 175 184
164 180 192
160 177 186
170 187 200
164 182 193
160 175 184
161 178 187
157 174 183
153 171 179
161 177 187
157 174 181
160 178 190
168 185 200
164 181 189
153 170 178
81 106 73
80 107 66
74 102 62
78 106 65
74 100 61
80 107 65
71 98 59
76 102 61
78 104 63
74 100 60
74 101 61
77 104 64
76 103 63
73 100 61
73 99 60
77 103 63
81 108 66
112 134 120
162 179 189
165 181 189
154 171 177
167 185 197
169 184 195
162 179 192
165 183 194
175 193 206
163 180 188
162 180 190
165 183 195
157 174 182
163 181 191
159 175 183
165 181 192
161 178 189
157 175 185
80 108 69
77 105 64
79 106 65
75 102 61
71 97 59
78 106 65
80 108 66
77 104 63
80 108 67
78 106 66
77 104 63
79 106 65
78 106 64
78 106 66
80 107 66
78 106 68
147 164 170
161 178 186
163 181 193
170 187 200
167 184 198
174 191 205
168 185 198
162 179 189
169 186 197
167 185 195
162 180 193
175 194 211
159 176 188
173 191 205
165 181 192
128 149 143
80 108 67
81 109 67
105 129 109
143 162 161
166 185 197
168 186 199
167 186 200
166 183 193
170 187 199
172 188 201
171 188 199
170 188 200
150 169 175
148 168 171
150 169 177
170 187 200
168 185 197
173 191 205
166 184 196
157 175 184
84 112 69
78 106 64
84 112 70
81 109 68
80 109 68
79 106 65
156 174 180
166 183 196
172 189 202
166 184 195
164 180 190
170 188 203
169 186 200
163 180 191
169 187 201
164 182 194
138 156 156
101 124 101
100 125 100
133 152 149
169 186 199
173 190 203
177 194 211
174 191 206
163 180 192
90 115 86
80 108 66
78 105 64
79 106 66
79 107 66
75 103 63
79 107 67
80 108 67
71 97 59
84 112 69
77 104 63
76 103 62
79 106 66
81 109 70
95 119 94
152 170 174
165 182 192
161 179 191
162 179 191
136 156 156
79 106 65
76 103 63
78 105 64
82 111 69
76 103 62
81 109 67
76 103 63
75 103 63
80 108 67
74 102 62
81 109 66
71 98 59
76 103 62
74 101 62
80 108 67
76 103 63
77 105 64
78 105 65
80 108 67
89 116 84
163 180 190
167 183 195
167 184 198
160 178 188
122 141 135
90 115 87
81 108 67
78 105 64
79 107 66
78 105 64
79 107 66
76 103 62
80 108 66
74 101 62
78 105 64
79 107 66
78 106 66
80 108 67
81 110 68
77 104 63
118 139 131
156 172 179
166 182 193
169 186 198
157 174 183
162 179 188
163 180 191
162 178 188
165 183 193
158 175 186
167 184 199
168 184 195
161 177 187
158 175 182
171 187 202
161 178 189
162 179 187
161 180 189
163 181 194
169 186 198
159 175 185
147 165 166
123 143 135
156 172 178
161 178 189
163 180 190
161 178 187
166 184 196
166 182 193
162 179 191
160 177 188
164 180 190
166 183 194
161 178 189
159 175 183
172 189 204
157 173 181
175 191 203
163 180 194
151 168 175
154 172 180
164 181 190
162 178 189
105 127 112
77 104 63
76 104 64
77 104 64
76 102 61
76 103 62
76 102 62
71 97 58
74 101 61
71 97 58
77 104 64
74 100 61
74 101 61
74 101 61
74 101 60
75 102 62
74 101 60
76 103 62
75 102 62
74 100 60
74 99 60
100 121 106
162 179 189
159 177 189
151 169 176
159 176 186
159 175 185
165 180 190
159 175 186
164 182 194
148 165 169
132 152 150
114 135 124
87 112 78
78 105 64
76 103 63
72 98 59
73 101 60
75 101 62
77 104 63
76 103 62
78 105 64
79 107 65
144 164 168
163 181 190
158 175 183
159 175 183
155 171 179
160 177 187
160 177 185
166 182 193
168 184 197
164 180 194
169 186 201
148 164 171
158 175 182
157 175 185
170 186 198
154 172 179
164 180 191
154 170 176
156 173 181
166 183 194
172 188 203
141 159 161
78 105 64
78 104 63
73 99 59
73 99 59
77 104 64
76 103 63
77 104 63
79 106 65
75 102 62
80 107 65
77 104 63
80 107 65
77 104 64
73 99 59
73 99 60
79 107 66
73 99 60
75 102 62
71 97 58
77 104 63
76 102 65
169 186 199
169 184 194
162 179 188
161 178 188
160 177 186
159 175 185
161 178 187
154 170 177
163 180 190
162 179 188
157 173 183
155 172 180
158 175 183
159 175 184
154 171 177
166 183 195
157 174 182
163 179 192
163 180 188
145 163 168
145 162 167
74 99 63
73 100 60
72 97 59
75 102 62
77 105 64
80 108 66
75 102 63
71 97 58
69 95 56
72 98 59
76 103 62
77 103 63
73 99 59
74 101 61
74 100 60
71 97 57
76 103 63
77 104 63
76 103 63
78 105 64
135 154 153
155 171 177
149 166 172
148 165 172
148 165 170
145 163 165
143 161 162
140 159 159
131 151 148
132 150 149
129 148 148
127 147 140
112 133 120
115 135 124
111 132 120
112 132 121
113 133 122
92 116 90
102 125 104
90 115 85
120 140 132
159 176 185
168 185 196
159 176 184
158 175 183
159 176 186
148 165 171
157 175 184
155 173 180
163 180 190
171 187 198
162 179 187
170 187 202
161 179 189
160 177 187
163 180 191
157 175 183
170 186 198
164 180 191
139 157 161
78 104 64
76 102 63
74 101 61
78 106 65
76 103 63
75 102 62
75 102 61
78 106 64
74 100 64
82 108 77
76 102 65
92 117 92
83 107 79
97 119 97
93 118 92
98 120 100
101 123 106
113 136 121
119 140 126
133 152 149
138 156 154
135 154 152
125 144 137
136 155 152
125 144 139
114 136 124
99 121 105
96 120 99
98 121 96
89 116 79
78 105 64
78 105 63
79 107 66
78 106 66
79 107 65
77 104 64
129 149 145
153 170 180
174 190 202
165 182 193
158 176 185
170 187 201
171 187 199
161 179 190
166 183 196
167 185 198
159 177 189
154 172 179
170 187 202
166 183 193
155 173 182
165 184 196
171 188 199
139 157 158
72 99 59
73 100 60
73 100 60
80 108 66
78 106 65
78 106 65
76 104 64
76 103 63
75 102 62
75 101 61
76 103 63
81 110 68
80 108 66
79 107 65
79 106 65
99 122 101
169 186 196
167 184 198
169 186 199
155 172 181
161 178 186
168 187 202
172 189 203
167 184 197
174 191 204
163 180 192
165 183 197
166 184 197
171 189 202
170 187 201
167 186 199
106 127 111
161 179 188
159 176 185
165 183 195
168 186 199
173 190 203
161 179 189
172 190 204
170 188 200
173 189 202
171 188 202
168 186 201
161 180 191
172 189 204
128 149 143
84 111 73
116 138 124
131 150 145
153 173 180
160 179 191
78 106 65
79 107 66
81 109 68
80 108 66
77 105 64
81 110 68
155 173 179
168 186 198
161 178 188
168 186 198
169 185 195
169 185 195
162 179 189
160 179 188
122 144 134
85 113 73
78 106 64
78 106 65
82 110 68
80 107 66
76 103 63
109 131 115
131 152 145
164 181 191
161 177 186
80 108 67
81 109 68
79 106 64
83 111 69
76 104 63
74 101 60
75 101 62
79 107 66
78 105 65
81 108 67
77 105 64
89 115 83
130 151 146
148 166 171
164 181 191
169 185 197
169 187 199
172 189 203
167 185 199
143 161 164
79 106 65
78 105 64
78 106 65
77 104 64
77 104 64
80 107 66
77 104 64
77 105 65
79 107 66
78 105 64
71 99 59
78 105 64
78 105 64
79 108 67
80 108 66
76 103 63
79 107 65
72 98 59
78 106 66
76 104 63
161 178 188
131 150 146
100 121 104
79 106 66
79 107 66
77 104 64
78 105 66
72 99 60
79 107 66
79 106 66
74 101 61
76 102 61
78 106 65
78 106 65
76 103 63
77 104 64
78 106 65
74 101 62
76 103 63
78 105 65
90 115 85
172 188 201
159 177 186
168 185 199
168 185 196
171 187 200
165 182 193
163 179 190
158 176 185
162 179 189
169 185 198
166 183 194
171 188 200
169 186 200
160 177 185
169 185 197
162 178 191
161 179 188
147 166 170
119 139 129
91 115 88
78 104 70
165 183 194
158 174 184
169 186 198
160 176 186
149 165 169
158 175 188
160 177 189
168 183 193
159 177 187
161 177 186
158 176 184
163 180 189
162 178 186
164 182 193
171 187 198
159 176 185
160 177 186
159 176 185
162 179 188
162 179 190
167 184 197
114 134 123
77 105 64
74 101 60
73 99 59
78 106 65
80 108 66
78 105 65
75 102 62
75 102 61
77 104 63
74 100 61
76 103 62
77 104 63
76 102 62
72 98 58
73 98 59
76 103 62
79 106 65
78 106 65
78 105 64
75 103 64
76 102 68
160 177 186
157 174 185
165 181 189
156 174 184
136 153 154
112 132 122
112 134 117
73 99 60
76 102 62
78 105 64
75 102 61
75 102 61
74 101 61
74 100 60
77 104 64
77 103 63
78 105 63
74 100 61
75 101 61
73 99 60
77 105 64
120 139 132
155 171 179
171 187 199
159 175 185
151 167 173
167 183 195
164 182 195
162 179 189
168 184 197
160 178 186
162 179 190
167 183 193
158 175 181
158 176 187
161 178 188
165 181 194
162 179 189
159 176 185
152 170 180
150 168 175
157 174 181
162 179 190
92 115 87
73 99 60
79 107 66
75 102 62
76 102 62
73 99 59
76 102 61
77 105 65
77 104 63
76 103 63
72 98 59
75 102 62
76 103 63
73 100 61
72 98 59
79 107 66
74 101 61
78 105 65
73 99 61
74 101 61
75 102 62
132 151 151
156 172 181
164 181 191
163 180 192
164 180 189
155 172 181
166 182 193
165 181 190
156 174 181
164 180 192
161 177 188
166 183 197
172 189 204
159 177 186
159 175 185
155 172 177
165 182 195
161 177 185
152 168 176
170 185 195
163 179 190
109 129 115
75 102 61
73 100 60
76 102 63
70 96 58
75 102 62
69 94 56
76 103 63
77 103 62
87 112 81
88 113 84
104 126 109
116 136 124
112 131 121
129 148 140
132 151 149
141 159 162
137 157 157
155 172 181
156 172 181
147 164 168
81 106 73
72 98 59
75 102 62
74 100 61
78 105 64
80 109 68
74 101 61
77 103 63
78 105 64
71 97 57
81 109 67
75 101 62
76 103 62
73 100 60
75 102 61
77 104 63
77 104 63
72 98 59
78 105 64
94 118 97
153 170 177
173 189 200
167 183 194
159 175 185
168 185 197
168 184 195
163 179 190
161 179 192
166 182 193
168 185 197
159 177 188
167 184 196
162 178 188
148 166 171
158 176 183
159 176 185
160 178 188
159 176 187
166 183 195
106 129 110
76 103 62
75 101 61
82 110 67
78 106 65
76 104 63
78 106 65
78 105 65
78 106 65
71 96 56
76 103 63
76 102 62
79 107 65
75 103 63
75 102 62
76 103 63
77 104 64
75 102 62
79 106 68
159 176 184
155 173 180
164 181 191
168 184 197
170 187 198
163 180 189
163 179 191
168 185 198
168 184 196
165 182 195
165 181 192
164 181 193
163 180 188
143 161 163
142 160 163
151 168 177
149 166 173
146 164 163
133 153 151
137 157 157
130 149 143
141 160 161
153 169 173
158 176 185
158 175 187
165 183 195
160 178 188
172 189 203
171 187 200
163 180 189
161 178 184
162 181 191
171 188 200
175 190 202
163 180 190
113 134 118
79 107 66
78 104 64
76 102 62
77 105 64
78 106 65
77 104 64
78 106 65
79 107 66
82 110 67
79 107 67
83 112 70
75 103 63
73 100 59
77 104 63
73 100 61
116 135 125
157 175 183
162 179 190
163 180 189
170 185 197
170 187 198
167 184 197
171 188 199
164 181 190
166 183 196
163 180 193
164 182 192
148 166 171
114 137 123
85 112 75
85 111 79
160 179 188
162 179 189
175 191 205
171 188 200
168 186 200
158 176 185
173 191 207
167 185 199
159 177 185
177 194 209
165 184 198
165 183 195
173 190 203
167 185 198
111 133 116
79 107 66
79 106 65
80 107 66
83 109 72
82 110 68
78 105 64
78 105 64
79 106 65
81 110 68
80 108 67
166 181 190
165 182 195
168 187 199
178 195 211
173 191 205
160 177 185
116 140 128
80 108 69
81 110 68
81 109 67
76 103 63
79 107 66
78 106 65
81 109 67
79 106 65
82 110 68
78 106 65
87 114 77
122 143 132
112 132 119
77 105 64
81 109 67
78 106 65
79 107 65
78 105 65
80 107 66
78 107 66
77 105 65
93 118 89
136 154 153
166 183 196
172 189 203
151 169 177
169 186 197
167 184 196
171 188 199
167 183 194
164 180 189
143 162 164
80 108 66
73 100 60
76 103 63
79 106 66
75 102 62
78 106 65
79 107 66
80 108 67
78 106 65
81 109 67
79 107 66
76 103 63
82 111 69
76 103 63
80 108 67
79 106 65
80 108 66
89 115 78
115 137 123
139 158 159
86 112 79
78 106 64
78 105 64
77 105 64
79 107 66
79 106 65
76 103 64
79 107 67
78 105 65
73 100 60
78 106 64
74 99 60
75 102 62
78 106 65
76 104 62
78 105 64
77 104 63
80 109 68
77 104 65
76 103 63
81 107 74
168 185 196
159 175 183
163 180 191
167 185 198
171 189 202
153 169 176
162 180 194
159 176 186
169 185 196
166 184 196
165 182 195
164 180 189
155 173 182
161 178 187
136 156 154
101 123 103
93 118 89
72 99 60
76 104 63
81 109 68
78 106 66
152 170 178
163 180 191
165 182 194
166 183 196
162 179 190
164 181 191
169 185 197
165 182 191
162 178 189
161 178 187
164 180 186
164 181 191
163 181 191
166 184 196
165 181 193
164 183 195
160 177 188
165 181 193
163 180 191
165 183 195
160 176 183
139 157 155
78 105 64
74 101 61
76 103 62
80 107 65
75 102 63
76 103 63
71 96 59
69 94 57
76 104 64
76 103 61
76 104 64
72 98 59
74 101 60
79 107 65
79 106 65
78 106 65
75 102 62
75 103 62
77 104 63
77 105 64
100 123 102
121 141 132
109 129 110
92 115 93
77 104 63
73 100 60
75 102 61
70 96 58
77 105 64
74 101 61
72 99 60
73 99 60
75 102 62
75 101 62
75 101 62
75 101 60
76 103 63
75 102 62
79 106 65
74 101 60
76 102 62
75 101 63
79 105 69
167 183 197
150 168 176
165 183 196
158 175 186
160 177 185
160 176 186
156 173 181
162 180 189
152 170 178
162 179 190
164 181 191
167 183 195
153 170 177
151 167 172
168 184 199
160 176 187
157 174 182
157 174 184
171 187 197
166 182 194
167 183 194
123 143 133
73 99 60
72 98 59
80 107 65
77 104 64
76 103 63
75 101 61
74 101 61
76 103 63
78 106 65
74 100 61
74 100 61
71 97 58
72 99 60
74 100 61
77 105 63
73 99 59
76 102 62
77 103 63
76 103 63
77 104 64
110 130 117
161 178 189
171 186 197
163 180 191
164 181 191
163 179 186
168 186 201
159 174 181
163 181 192
164 181 192
164 181 194
155 172 180
157 174 183
157 174 182
162 179 190
165 181 192
167 183 195
159 177 186
157 174 181
166 184 199
166 184 196
134 153 151
109 130 115
128 149 144
132 150 145
131 150 149
129 146 141
151 168 172
151 170 177
164 180 188
163 179 191
161 177 187
150 167 172
167 184 196
164 181 192
165 183 195
161 178 189
163 180 193
158 175 183
162 178 188
159 175 186
160 178 190
96 117 99
75 102 63
74 101 60
72 99 60
75 102 61
74 100 60
71 97 58
72 99 60
78 106 64
78 106 64
81 109 68
73 100 60
74 101 61
74 102 61
73 99 60
75 103 62
75 103 63
76 103 63
75 102 62
78 106 64
146 163 166
166 182 189
166 182 192
168 185 196
158 175 184
157 174 183
159 175 185
161 179 191
164 181 194
162 179 188
171 188 199
171 187 200
163 181 194
163 181 192
152 170 180
155 173 178
163 180 193
163 180 190
172 188 201
150 168 175
72 98 60
68 94 55
73 100 60
75 102 62
75 102 62
76 102 62
76 102 61
77 105 65
75 101 61
77 104 63
76 102 62
76 102 62
72 99 59
74 101 61
77 104 64
73 99 60
76 104 64
78 105 64
116 138 125
167 183 194
164 182 194
172 188 199
166 183 194
173 190 204
163 181 193
162 180 190
164 181 188
161 177 187
171 189 202
168 183 193
170 186 198
170 186 199
161 179 187
148 165 170
158 175 185
173 189 202
145 162 164
76 103 63
78 106 65
73 99 59
77 105 64
78 106 65
76 103 66
86 113 81
95 119 94
110 131 117
126 147 138
132 151 148
147 166 170
137 156 156
157 176 186
168 184 193
154 172 178
157 175 183
83 111 74
74 100 61
80 108 66
80 108 66
79 107 66
78 105 64
76 103 62
79 106 65
80 108 66
78 106 65
81 109 68
77 105 64
76 104 63
81 109 67
79 106 64
74 100 61
148 166 170
171 187 198
174 192 206
169 186 200
164 181 192
171 189 204
173 190 207
171 187 200
146 166 169
129 151 146
89 116 82
80 108 66
79 107 65
79 107 66
76 104 64
107 130 114
169 187 200
176 193 207
170 189 206
163 182 194
168 186 201
170 189 202
162 180 190
166 183 194
162 180 190
174 192 206
163 180 191
170 188 202
167 184 197
161 179 189
92 117 86
80 109 67
80 108 66
82 110 68
81 109 68
82 110 69
76 103 62
80 107 66
77 105 63
89 114 85
168 185 196
170 187 201
163 181 190
145 164 167
107 130 110
80 108 66
81 109 66
77 104 64
81 109 67
81 108 66
81 110 68
81 109 67
80 108 67
78 106 65
80 107 66
80 108 67
79 108 66
82 110 68
97 122 96
175 191 205
160 178 190
149 168 172
102 126 103
84 111 76
82 110 68
83 110 70
116 138 124
158 175 181
168 186 196
169 186 200
164 182 193
163 180 190
166 183 193
160 177 186
181 197 212
168 185 196
169 186 198
177 192 204
154 172 176
78 105 64
78 105 65
81 109 67
79 107 66
76 104 64
77 105 64
78 106 64
79 106 64
76 104 64
75 102 62
78 106 64
82 110 68
77 104 64
78 105 64
79 107 66
100 123 99
129 149 144
164 180 189
168 185 199
158 176 188
89 115 85
77 105 64
80 107 66
70 96 57
73 99 58
81 110 68
82 111 68
78 104 63
82 111 69
78 105 64
75 102 62
80 108 67
76 103 63
75 102 63
77 105 64
78 106 65
77 104 62
76 103 63
79 107 66
78 106 65
75 102 62
166 182 189
168 185 197
166 183 193
160 176 187
162 180 192
164 180 191
161 179 190
162 179 189
158 176 185
162 179 189
161 178 187
130 150 145
93 115 93
76 104 63
77 103 62
75 102 62
80 109 67
75 103 63
75 102 61
78 105 64
78 105 65
141 160 160
158 175 184
165 183 196
161 177 187
145 162 167
163 179 189
170 186 199
166 183 194
162 180 192
161 178 189
162 178 188
163 180 193
166 183 194
163 181 191
158 174 184
161 178 185
162 179 190
168 184 194
167 184 195
157 175 184
158 174 182
153 171 181
74 100 61
77 105 65
75 102 62
77 104 64
75 102 61
75 102 61
80 108 65
75 102 62
80 108 66
76 103 63
74 100 60
75 101 61
74 100 61
81 109 67
73 99 60
76 103 64
93 117 93
129 147 143
142 160 161
151 169 176
168 184 197
119 138 129
75 102 61
76 103 62
70 96 56
75 103 63
73 99 60
78 106 65
77 104 64
73 100 60
72 99 60
74 101 61
78 105 65
72 98 58
76 103 63
78 105 64
75 102 62
80 108 67
76 104 64
77 104 64
78 104 63
75 102 62
76 103 63
146 164 168
167 184 198
169 185 198
168 185 196
165 181 193
165 182 196
162 179 188
153 170 177
163 182 195
167 183 194
159 176 188
165 182 194
164 181 192
153 170 176
170 185 198
160 178 187
152 169 177
168 184 196
171 188 201
169 186 197
151 169 174
144 161 162
78 106 65
72 98 59
75 102 62
73 99 59
75 102 62
76 102 62
77 103 63
76 103 63
73 99 59
74 101 61
71 98 59
74 100 61
78 105 65
75 102 61
76 103 62
76 103 63
79 106 64
74 101 61
74 100 60
70 96 57
82 108 72
161 178 186
162 180 192
165 182 193
163 180 188
151 169 178
152 169 174
154 170 175
159 176 186
164 181 192
151 168 176
153 171 179
149 166 169
137 154 154
126 145 140
124 143 133
96 117 103
96 119 99
77 102 68
76 103 63
79 107 66
75 101 61
155 172 176
157 173 182
165 180 191
156 173 182
158 175 184
151 169 178
160 178 190
160 176 186
166 182 193
166 184 196
168 184 194
158 174 182
160 177 186
163 178 188
160 177 188
148 166 173
159 175 186
160 177 186
172 189 202
164 181 192
137 156 156
79 106 65
69 95 56
75 101 61
76 102 62
73 100 61
72 98 59
75 101 61
73 99 59
75 102 63
74 101 61
76 103 62
74 101 60
75 101 61
79 106 65
75 101 61
78 105 64
77 105 65
77 105 64
78 105 65
93 117 94
162 179 191
163 179 191
162 181 193
165 183 193
166 183 193
161 177 186
169 186 200
162 180 191
158 176 186
164 181 191
171 188 199
172 189 201
161 178 189
153 171 178
156 174 182
169 185 196
155 173 183
162 179 188
161 178 186
102 124 107
79 107 65
75 101 61
77 103 63
80 109 67
69 95 56
79 106 65
76 103 62
76 103 63
74 101 61
75 102 61
78 105 64
77 104 63
79 107 67
78 105 64
73 99 59
78 106 66
74 101 62
81 109 67
154 172 180
157 174 183
163 179 190
155 174 182
168 186 200
166 183 194
166 183 196
169 186 197
162 178 188
160 178 188
176 193 207
165 182 193
168 185 197
164 181 192
164 182 194
165 183 197
158 174 182
158 177 188
104 128 111
78 106 65
79 106 65
82 110 68
77 104 63
77 104 63
77 105 64
80 108 66
76 105 64
84 112 69
74 101 61
75 102 62
79 106 65
84 112 70
74 101 61
85 113 69
95 117 97
125 146 140
135 155 153
128 148 144
117 138 129
107 129 116
95 120 98
82 109 71
79 106 65
82 110 68
76 104 63
76 104 63
81 109 67
80 108 66
78 105 65
79 106 64
79 107 66
94 118 91
156 174 184
169 186 198
170 185 196
161 178 188
143 161 166
124 144 135
87 112 82
82 110 68
80 108 67
82 110 68
76 103 62
77 103 62
77 104 63
80 108 67
77 105 64
144 164 166
170 187 199
169 187 199
170 189 203
168 185 198
173 190 203
169 186 200
171 188 199
168 186 198
164 182 191
167 185 198
172 189 202
168 187 202
168 185 198
164 182 193
84 111 74
80 108 67
78 105 63
80 108 66
80 108 66
81 109 68
81 109 67
84 113 71
103 127 104
170 188 201
151 170 176
108 130 112
79 108 66
85 114 72
78 106 65
81 110 68
78 106 65
79 108 66
80 108 67
82 110 68
76 104 64
80 109 67
80 108 67
81 109 67
74 100 61
79 108 67
83 112 68
93 116 91
165 182 193
165 182 193
171 188 201
163 180 189
159 177 186
100 123 99
123 143 136
172 189 202
177 194 208
170 188 201
165 183 194
174 191 204
167 185 198
165 181 193
160 177 186
166 183 193
174 191 205
161 179 190
172 189 204
137 156 154
80 109 68
82 111 70
76 103 63
77 104 63
77 104 63
78 105 64
77 105 65
78 106 65
75 102 61
77 105 63
81 110 69
75 102 62
87 114 78
132 151 147
151 169 176
157 174 183
163 181 191
156 172 183
158 174 184
167 184 195
99 124 101
78 105 64
79 107 66
75 102 62
76 104 63
80 107 66
77 105 64
75 102 61
81 110 68
81 109 67
78 106 66
81 110 68
78 106 64
75 101 62
77 103 62
78 105 64
78 105 64
80 108 67
80 109 67
77 105 64
76 103 62
156 174 180
160 177 188
167 185 196
166 184 198
171 188 201
170 186 197
160 177 187
144 162 166
127 146 139
99 123 104
76 102 62
77 104 63
85 113 70
76 103 63
78 104 63
78 105 65
81 109 67
76 103 62
78 106 65
79 107 66
75 101 62
131 151 148
168 186 198
169 185 195
153 171 178
163 180 190
162 181 193
163 180 192
161 178 189
161 179 190
176 193 209
158 175 185
160 178 190
161 178 188
159 176 183
165 181 191
167 184 200
169 187 199
166 182 194
160 178 188
166 183 195
147 164 171
164 182 194
80 107 70
78 106 64
78 106 65
76 103 62
76 103 62
75 103 63
76 102 62
76 103 63
78 105 64
76 102 62
76 103 62
78 104 69
111 134 118
126 146 142
150 166 169
153 171 179
168 184 198
169 186 199
153 171 177
169 186 198
164 181 192
135 154 154
75 102 62
80 107 66
78 105 64
78 105 64
78 104 63
79 106 65
77 103 63
75 102 62
76 103 62
76 103 63
78 106 64
74 101 62
75 102 62
78 105 64
77 103 61
69 95 56
78 106 65
79 106 66
76 103 61
71 98 60
79 107 66
120 141 133
161 178 186
161 179 188
153 169 175
168 184 195
162 179 188
168 184 193
172 188 202
150 168 175
158 175 185
155 173 186
161 178 188
170 186 198
160 176 185
166 184 197
164 180 191
158 176 185
165 182 195
170 187 199
164 180 192
165 181 192
156 174 182
86 112 78
74 100 61
71 98 59
75 101 60
76 102 61
77 103 63
78 106 65
74 101 61
77 104 63
77 104 63
75 102 61
79 107 66
79 106 65
76 102 62
76 102 62
73 99 60
71 97 58
74 100 60
80 108 67
73 99 60
76 102 62
125 144 139
166 182 193
167 183 191
141 158 158
127 146 144
130 149 147
116 137 130
104 126 108
90 114 87
77 104 67
75 102 62
74 101 61
78 105 65
78 106 65
80 107 66
75 101 60
75 102 63
73 100 61
78 105 65
77 103 63
78 106 65
127 146 141
155 171 177
155 171 179
167 184 196
166 182 193
164 180 192
159 177 187
161 179 189
151 169 177
166 183 194
169 186 198
167 185 196
157 173 180
162 180 190
169 184 195
167 185 197
159 177 187
153 169 177
173 189 202
167 183 193
159 176 186
91 116 93
74 100 60
73 99 60
74 101 61
79 106 64
79 107 66
72 98 59
78 105 65
74 101 61
78 105 64
76 104 64
79 106 65
81 109 67
73 100 59
76 102 62
73 99 59
76 102 62
78 106 65
77 104 63
72 99 58
140 158 160
163 181 192
166 182 192
168 185 197
164 182 194
160 178 191
165 181 193
159 176 187
170 187 200
158 174 183
170 188 203
164 181 189
167 184 194
169 186 199
163 179 189
160 177 186
156 174 184
167 184 194
169 186 200
158 176 185
75 103 63
78 106 65
79 107 66
77 105 64
79 106 65
75 103 63
76 103 62
78 106 65
78 105 65
80 108 66
76 104 63
75 101 61
75 102 62
78 105 64
78 106 65
77 104 64
77 104 63
75 102 62
111 132 116
160 177 185
164 181 190
161 180 192
173 189 202
166 184 197
166 183 197
160 176 185
159 175 184
166 183 195
164 180 192
172 189 202
160 178 187
164 181 193
160 176 184
164 181 193
167 184 196
170 187 201
159 177 187
81 108 69
73 100 61
75 102 61
84 113 71
77 104 63
79 107 66
78 106 65
78 105 65
79 106 64
79 106 64
76 103 63
77 104 64
79 107 66
78 106 66
77 105 65
77 105 64
81 108 68
155 173 183
163 179 189
167 185 195
166 183 193
171 188 200
169 186 196
162 180 191
152 169 176
143 163 166
121 141 132
115 138 121
93 119 90
85 110 75
79 107 66
81 110 68
80 108 67
130 149 146
144 162 166
109 131 118
83 109 75
78 106 65
77 104 63
77 106 65
76 103 63
79 107 66
80 107 67
77 105 64
80 108 66
78 107 66
79 107 66
80 108 67
87 111 80
158 176 185
166 185 196
164 182 192
173 190 205
169 186 198
171 190 206
150 168 172
165 183 196
164 182 194
164 183 194
179 196 213
177 194 210
167 186 199
171 189 202
136 156 154
79 107 65
82 111 69
82 111 68
80 108 67
84 113 70
79 106 65
83 109 75
118 140 130
102 125 103
81 109 67
79 107 66
83 111 69
81 109 67
80 109 67
81 110 69
77 104 64
77 104 63
79 107 66
77 105 64
79 106 65
82 110 68
79 106 65
79 106 65
78 106 65
79 107 66
75 103 62
107 131 112
158 176 184
167 183 193
152 169 172
118 139 129
80 108 66
80 108 66
82 110 68
82 110 69
100 123 101
141 161 161
148 167 169
167 184 195
177 193 205
173 190 205
162 180 191
164 181 192
171 189 201
162 180 193
170 187 198
142 161 162
77 104 63
78 106 64
77 105 64
80 107 65
78 105 64
79 106 65
78 106 65
80 108 66
82 110 68
83 110 74
112 133 118
147 164 166
168 185 195
172 188 199
164 181 191
167 184 196
162 179 188
166 184 195
169 185 197
169 185 197
94 118 97
75 102 62
76 103 63
79 107 65
81 110 68
77 104 63
80 107 66
78 105 64
78 106 65
77 105 64
79 107 66
77 104 63
80 108 66
81 109 68
79 107 66
74 101 62
81 108 66
77 104 63
75 103 62
74 100 61
81 109 67
146 164 171
160 176 188
170 187 200
164 180 191
140 159 158
130 150 144
89 115 83
77 104 64
75 101 60
80 108 66
76 103 62
77 105 64
78 104 63
80 108 66
72 98 59
81 109 67
79 107 66
79 106 67
80 108 66
78 105 64
80 107 65
109 130 117
164 182 194
172 188 200
168 184 193
165 182 192
161 178 189
159 176 185
154 171 179
168 183 196
163 180 191
161 179 190
163 180 190
152 169 178
158 175 186
166 183 193
164 181 190
161 177 184
161 178 187
165 182 196
153 169 177
157 174 180
164 179 188
107 130 114
73 100 60
74 101 61
74 101 62
79 107 66
75 101 61
74 101 60
75 100 63
104 126 110
138 157 155
145 164 166
159 175 183
162 179 189
164 180 192
157 174 183
159 177 187
164 180 191
156 174 183
163 180 190
165 183 196
166 183 196
163 179 190
82 108 69
75 102 61
74 101 61
81 108 67
73 100 60
79 106 66
76 104 64
78 106 65
77 104 64
77 104 63
80 107 65
83 111 68
74 101 62
75 103 63
79 107 66
75 101 61
80 108 66
72 97 59
75 102 62
78 105 65
69 96 57
109 131 116
162 178 185
164 180 191
167 183 195
164 180 188
165 182 194
158 175 182
163 179 188
164 181 191
162 180 190
168 185 199
159 175 184
153 170 178
165 182 193
168 184 193
159 177 187
157 175 185
158 175 184
163 179 188
159 176 183
157 174 183
167 183 194
108 129 118
77 105 64
77 105 64
77 104 63
74 100 60
73 98 60
77 104 64
76 102 63
74 100 60
76 103 63
79 106 64
77 104 64
77 105 64
73 99 60
74 101 61
68 93 54
98 122 100
96 120 96
137 156 156
135 153 150
149 167 170
153 171 179
80 106 71
75 101 61
73 99 60
77 104 64
75 102 62
75 102 62
75 102 62
76 104 63
77 105 64
73 100 60
75 103 62
76 103 63
74 100 61
76 103 63
76 103 63
75 101 62
79 107 66
72 99 60
75 102 62
74 101 61
91 116 82
159 175 184
160 177 187
157 174 184
159 177 189
165 182 192
161 176 182
158 176 186
167 184 196
168 185 196
170 186 200
154 172 183
152 170 179
169 186 200
157 174 181
164 181 190
157 174 182
174 192 207
164 180 190
173 189 201
157 174 180
133 154 151
76 104 64
76 103 63
78 106 65
75 102 62
72 99 59
78 105 64
73 99 60
73 99 60
77 103 62
76 103 63
78 105 63
78 105 64
77 105 64
78 105 64
74 101 62
78 105 64
77 105 64
80 107 66
79 107 66
107 128 115
161 178 190
157 174 181
161 178 188
165 182 193
158 176 186
165 182 196
165 183 197
161 178 190
170 188 201
171 187 198
172 188 203
159 177 187
162 180 193
167 184 196
168 186 199
165 181 191
162 178 189
161 177 186
157 174 186
117 138 129
77 104 64
74 101 61
80 107 65
76 104 63
79 106 65
76 103 63
76 103 63
76 103 62
82 109 67
75 101 61
76 103 63
81 110 68
77 104 64
74 102 62
74 102 62
72 97 58
77 105 65
76 103 63
140 159 161
171 188 204
161 178 188
165 183 196
164 181 191
158 176 184
161 179 191
164 181 192
164 182 195
170 186 200
168 185 196
172 189 206
168 185 197
169 187 201
161 178 187
171 188 202
164 182 192
164 181 192
126 145 136
75 102 62
77 105 64
76 104 63
82 112 70
78 105 65
77 105 65
79 107 66
76 103 63
73 99 59
76 103 63
81 110 68
78 105 64
80 108 66
78 106 64
78 105 64
79 106 65
111 133 118
164 182 194
167 185 197
166 182 192
162 178 188
169 186 198
170 186 197
164 182 195
156 173 181
161 177 186
172 189 202
172 190 202
165 182 193
136 154 155
108 132 114
101 125 99
133 152 147
97 122 94
88 112 83
75 102 63
78 105 65
79 106 65
79 106 65
79 107 65
79 106 65
75 102 62
79 106 64
75 102 62
79 107 65
80 109 68
81 110 68
79 107 66
98 120 97
169 186 198
181 198 215
170 188 200
166 185 200
175 192 208
166 184 195
165 183 195
177 194 209
176 192 206
166 183 195
171 188 202
173 190 205
168 186 197
166 184 196
112 135 121
81 109 67
81 108 66
76 104 63
92 118 87
142 163 162
166 184 197
146 166 171
79 107 66
81 110 68
80 108 66
81 108 67
79 107 65
79 106 65
80 108 67
79 107 66
77 105 64
78 106 65
78 106 66
80 108 66
81 109 68
80 107 66
79 107 66
79 107 66
79 106 65
80 108 67
98 123 102
139 159 157
106 128 111
78 105 64
81 108 67
81 109 68
75 102 62
78 106 65
85 113 71
80 107 66
82 110 68
81 110 69
87 113 83
131 151 145
139 158 158
165 182 191
169 186 198
168 185 195
168 183 192
176 192 206
148 167 172
74 102 61
78 105 63
79 106 65
80 108 66
78 106 65
83 111 69
78 105 65
114 136 120
128 149 143
157 174 183
175 192 205
174 191 205
172 189 200
163 180 192
173 189 202
163 180 191
162 179 191
172 190 204
175 192 205
166 184 196
110 131 117
84 113 71
82 109 67
77 105 64
82 111 69
79 107 67
78 106 66
79 106 65
77 104 64
73 100 60
80 107 66
80 108 66
77 104 64
76 103 62
80 108 67
80 108 67
78 105 65
79 107 67
75 102 62
78 106 64
77 104 63
151 171 175
159 177 183
125 146 140
90 115 83
78 105 64
83 111 69
75 102 62
78 106 65
78 105 65
78 105 65
79 107 65
79 106 65
74 101 61
82 110 68
80 108 66
75 102 62
76 103 63
77 104 63
72 97 58
73 100 61
78 106 66
105 128 105
164 180 191
168 185 196
164 180 190
165 181 191
166 184 199
174 191 201
165 182 194
157 174 186
158 175 185
167 183 194
162 179 190
169 186 199
165 182 196
162 179 188
162 179 192
165 181 191
165 182 195
159 176 184
161 179 191
162 178 188
172 188 201
127 146 141
81 108 66
76 103 63
78 105 64
98 121 102
123 144 138
150 167 172
164 180 189
166 183 194
161 178 189
163 180 191
166 183 193
160 176 185
168 184 195
155 172 182
165 183 195
156 173 182
160 176 185
167 184 193
156 174 187
166 181 192
161 178 188
108 129 114
74 100 61
81 108 67
72 99 59
76 104 63
76 103 63
75 102 62
77 105 65
79 106 65
78 105 64
73 99 61
71 98 59
75 102 62
72 99 60
81 108 67
74 100 60
77 104 64
74 101 62
81 108 66
74 101 61
77 105 65
80 108 69
158 176 184
164 181 188
160 176 185
156 172 181
160 177 185
171 189 204
173 189 202
169 187 197
153 169 176
158 176 185
163 179 189
165 181 192
155 173 180
170 188 202
170 186 197
160 177 187
156 173 182
165 181 193
160 177 187
157 174 182
165 182 193
144 162 165
78 105 64
77 104 62
77 104 63
73 100 61
77 105 64
76 103 62
76 102 61
76 103 62
90 115 85
105 127 107
125 144 141
127 147 143
144 163 168
157 174 182
167 183 195
151 166 174
161 178 188
162 178 187
162 178 188
167 183 195
166 183 193
98 122 97
76 102 61
72 99 59
74 100 60
73 99 59
77 104 64
80 108 67
77 103 63
73 99 60
78 105 65
76 102 62
70 96 57
76 103 63
77 104 63
75 101 62
75 101 61
75 103 63
81 109 68
77 104 64
75 101 61
77 104 64
137 156 153
165 182 193
167 184 195
166 182 193
163 179 193
158 176 185
165 182 193
156 173 182
161 180 190
166 183 196
163 180 192
168 185 196
163 180 192
160 176 184
161 179 187
161 179 189
162 178 186
166 182 193
173 189 201
165 184 197
165 182 193
82 108 74
75 102 62
79 108 67
77 104 63
76 103 62
77 105 64
77 105 64
76 103 63
74 100 60
79 106 65
77 104 64
78 105 64
77 105 64
74 101 61
78 106 66
77 105 65
75 102 62
79 106 64
77 104 63
72 99 59
153 170 176
163 181 190
171 188 199
159 176 183
170 187 198
168 185 197
162 178 189
165 182 192
168 184 193
169 188 202
167 185 199
157 174 180
155 173 182
169 186 198
160 177 186
158 175 184
166 182 194
167 184 196
172 190 205
167 185 194
79 106 68
79 107 65
78 105 65
74 101 61
78 105 64
80 108 67
78 105 64
79 107 66
75 101 61
80 108 67
82 110 68
79 106 66
79 106 65
76 103 62
80 108 66
73 99 60
78 106 64
75 102 62
103 127 107
163 180 189
161 178 188
172 188 196
161 178 187
172 189 202
173 190 204
175 193 208
174 192 206
173 189 203
164 181 195
171 187 198
169 186 198
165 184 198
159 177 188
157 176 185
168 186 201
161 178 188
165 182 193
95 119 94
77 105 64
77 105 64
78 106 65
77 104 63
78 106 65
79 107 66
77 104 64
76 103 62
82 110 68
78 106 66
78 106 65
81 110 68
81 108 66
80 109 67
77 105 64
77 104 63
133 152 149
177 195 212
162 179 190
172 190 205
160 177 187
166 181 193
171 189 205
160 177 188
171 188 202
149 167 173
125 145 138
94 117 94
80 108 66
75 102 62
77 104 64
81 109 67
109 134 111
162 180 188
166 183 197
144 163 164
141 161 162
131 151 147
110 133 116
102 126 101
81 109 67
81 109 67
79 106 65
78 106 64
84 113 70
78 106 65
82 110 68
84 112 70
146 165 166
169 187 198
173 191 205
164 182 193
169 185 198
172 190 204
176 193 207
173 190 201
169 187 201
175 192 205
176 192 205
174 193 210
173 192 207
168 187 202
156 174 186
91 118 86
93 119 88
147 167 172
161 178 186
173 191 205
170 187 200
133 154 149
82 111 69
82 111 69
82 110 69
78 106 65
79 106 65
78 106 65
79 107 66
79 107 65
81 109 68
76 104 63
83 112 69
78 106 66
78 106 66
78 107 66
79 107 66
82 110 68
88 113 79
136 156 154
142 162 161
80 108 66
77 105 64
79 108 68
81 109 68
77 103 62
76 103 62
78 105 64
77 105 64
75 102 62
76 103 63
78 106 65
82 110 68
77 105 64
77 105 65
77 105 64
92 118 85
130 150 146
148 167 171
163 181 190
141 160 162
80 107 66
82 110 68
81 110 68
77 105 65
80 107 72
121 142 130
160 177 186
169 187 198
164 181 191
174 191 203
168 185 197
160 178 190
157 174 184
175 190 203
167 184 197
171 187 200
164 181 192
168 185 197
164 182 194
176 192 207
108 130 115
77 104 64
81 110 68
81 109 68
80 108 66
73 99 59
81 109 68
76 104 63
78 105 64
79 107 66
80 108 66
78 106 64
79 107 66
77 105 64
75 102 62
78 105 65
78 105 64
79 106 65
82 109 69
103 126 107
142 160 159
122 142 131
76 102 62
77 104 63
78 106 66
79 106 65
78 105 64
78 105 64
80 108 66
77 104 63
75 103 63
80 108 67
80 108 66
80 108 66
77 104 63
78 106 65
78 106 64
76 103 62
77 104 64
78 105 64
76 104 64
78 105 64
88 112 87
162 180 189
171 188 199
172 189 202
167 185 200
170 185 197
172 188 201
171 188 200
164 181 193
173 190 205
165 182 196
160 177 186
160 179 191
167 184 197
172 189 202
161 179 189
168 185 198
165 181 192
166 182 194
164 181 192
169 187 201
158 176 185
137 156 155
117 139 129
142 162 162
157 174 182
168 183 195
161 179 190
164 181 191
154 173 185
163 180 193
163 179 190
162 177 186
166 183 194
173 190 206
164 181 193
163 181 193
167 184 194
159 177 187
164 182 194
159 176 185
165 183 195
177 195 211
164 181 193
129 148 144
77 103 63
79 106 65
74 100 61
80 108 65
76 104 64
76 104 63
75 102 62
77 106 65
76 103 62
82 110 67
78 106 64
78 107 65
80 107 65
75 102 62
79 106 65
80 107 66
81 109 67
80 107 65
78 107 65
77 104 63
75 102 61
144 163 164
171 188 199
167 183 193
163 180 190
169 186 200
162 180 189
162 179 191
158 174 185
169 186 197
166 183 195
167 185 196
160 177 186
167 184 194
162 179 190
165 181 191
160 177 187
163 179 189
162 179 186
157 174 181
165 182 194
165 182 192
159 177 187
83 109 78
75 102 61
91 115 87
104 127 109
110 132 119
136 155 155
146 166 171
161 178 189
155 172 179
159 177 186
156 172 177
171 189 202
163 180 191
161 177 187
155 173 183
159 176 186
168 185 197
167 184 196
166 184 198
150 167 174
163 180 189
130 149 148
80 108 66
76 103 63
76 103 63
79 107 66
76 103 62
79 106 65
77 104 63
77 104 64
79 107 65
79 107 66
74 102 62
81 109 68
77 103 63
78 105 64
76 104 63
73 100 61
76 102 61
74 101 61
79 107 66
72 99 60
107 129 115
165 183 195
170 187 201
163 179 190
165 181 191
176 193 208
159 176 187
166 182 193
168 183 193
164 182 192
157 175 183
163 182 195
157 175 185
162 180 193
159 176 187
148 165 174
162 179 190
157 173 181
171 188 202
159 176 184
160 179 189
122 143 134
78 106 65
78 106 64
74 101 62
81 109 67
77 104 64
77 105 64
76 103 62
74 100 61
73 99 60
75 102 62
73 100 61
78 105 64
78 106 65
77 104 63
75 102 62
74 101 61
76 103 62
77 105 65
77 104 63
112 133 120
163 180 192
179 196 212
168 185 196
164 181 188
166 183 196
164 180 190
167 184 194
167 185 197
163 181 192
156 174 181
164 181 193
164 182 195
157 176 187
161 178 188
173 189 203
163 180 190
161 178 187
166 182 192
167 185 200
114 135 126
80 108 66
79 106 65
80 109 67
79 106 65
77 105 64
82 110 68
78 106 65
74 101 61
75 102 62
76 103 63
75 103 62
78 106 65
80 108 66
77 105 64
79 106 64
79 106 65
77 104 63
78 105 64
136 155 156
170 187 201
160 178 187
168 185 198
166 183 194
166 182 195
167 183 194
165 183 194
164 182 193
171 188 200
164 182 194
171 188 201
174 191 204
172 189 201
172 190 205
170 187 201
163 181 193
163 181 190
132 150 147
79 107 66
76 103 62
77 105 64
76 104 64
81 109 67
80 107 66
79 106 65
78 106 65
77 105 65
77 105 64
73 100 61
80 108 67
75 104 63
80 108 65
78 105 64
77 104 63
80 107 68
151 169 174
161 179 190
159 176 186
163 180 189
160 177 186
123 142 134
103 126 105
79 107 67
79 107 66
81 109 67
78 106 65
81 109 67
79 106 65
82 109 67
77 104 64
77 104 64
121 142 131
165 181 192
168 186 198
175 191 204
171 187 199
170 186 197
168 184 194
169 187 200
145 163 164
130 149 149
116 138 126
99 123 102
89 115 86
70 97 58
77 105 65
82 110 69
151 170 175
172 189 203
177 195 209
166 183 198
172 189 204
170 186 200
168 186 199
181 197 214
174 190 203
170 188 201
168 185 195
164 183 195
173 190 205
168 186 199
159 177 185
170 189 204
175 192 206
170 187 201
180 197 213
176 193 210
133 153 149
85 114 71
79 107 66
79 107 66
82 111 69
80 108 67
82 110 68
83 111 69
83 111 69
76 104 63
82 110 68
79 107 66
81 109 67
79 107 66
75 102 62
116 138 125
145 164 165
172 188 200
175 192 206
145 166 168
77 104 64
76 104 63
78 105 65
82 110 68
81 110 68
81 109 67
83 111 69
79 107 65
81 109 67
79 107 66
79 107 66
78 106 66
78 106 65
75 103 63
81 109 67
77 105 64
74 101 62
72 99 60
81 107 70
118 139 129
136 156 150
117 139 126
105 129 107
135 152 148
168 186 201
173 189 202
161 178 189
174 193 209
164 182 196
175 192 207
168 186 200
165 181 192
169 186 200
163 181 193
166 184 198
173 190 204
164 181 191
164 181 192
164 182 194
167 185 199
119 139 128
79 106 65
79 107 66
79 108 67
77 105 64
78 106 65
78 106 65
82 111 69
83 111 69
80 108 67
79 107 66
77 105 64
76 103 63
79 106 65
78 105 65
77 105 64
106 129 111
128 147 140
170 187 199
172 189 203
164 182 191
125 146 136
79 107 66
77 104 64
78 106 65
74 101 62
77 104 63
80 108 67
73 101 61
80 108 66
77 105 64
76 103 63
78 106 65
77 105 64
78 105 64
81 108 65
78 105 64
78 106 65
80 108 67
77 105 64
83 111 68
78 106 65
73 98 59
168 186 200
166 182 193
169 187 198
171 188 202
156 173 182
171 188 203
164 182 194
162 177 186
170 187 200
159 175 183
163 179 191
157 174 183
169 185 198
173 190 202
164 182 193
153 170 175
160 177 185
168 184 198
131 149 150
113 134 121
86 112 79
104 126 108
169 186 196
160 177 187
169 186 198
164 181 194
164 182 194
159 175 182
161 178 187
162 180 192
161 178 187
161 177 187
155 172 177
167 183 196
169 187 200
158 176 186
166 182 194
168 185 198
165 182 194
165 183 196
169 185 197
163 181 194
165 182 193
137 156 154
74 100 61
78 106 65
78 105 65
82 110 69
78 106 66
76 104 64
78 105 64
75 102 62
78 106 65
77 103 63
80 108 65
77 104 63
77 105 64
77 105 64
78 105 63
80 108 66
78 105 64
73 100 60
72 99 59
79 107 66
78 106 65
122 141 133
165 183 195
178 195 212
167 184 195
160 177 187
165 182 194
168 185 197
163 180 193
162 179 187
173 189 203
158 174 182
170 187 201
173 189 203
162 181 192
167 185 197
161 178 187
167 186 197
149 166 172
160 176 186
145 164 166
136 155 156
116 135 126
135 154 153
152 169 177
159 176 189
157 175 183
156 173 181
154 171 180
163 181 191
168 185 198
168 185 196
165 182 193
166 182 193
161 179 191
162 179 190
167 183 194
164 181 191
163 181 192
151 168 176
166 182 194
165 182 193
165 182 194
164 181 192
153 171 178
76 104 63
75 102 62
74 101 62
74 100 61
77 104 64
77 104 63
77 105 64
78 106 65
70 95 58
81 109 67
76 104 63
78 105 65
79 106 65
79 107 66
70 96 57
76 103 62
73 99 60
79 107 65
78 106 65
78 105 65
83 110 73
153 169 175
169 186 199
173 190 204
160 176 186
167 185 197
164 181 194
165 182 195
167 185 199
174 191 206
161 178 187
158 175 183
164 180 190
169 187 199
159 177 185
164 182 194
162 179 190
165 182 194
161 179 190
167 184 197
168 185 196
163 181 189
78 106 65
76 103 63
76 104 64
77 104 64
79 107 65
74 101 61
80 108 67
75 102 62
79 107 66
77 105 64
80 109 67
75 102 62
79 107 65
74 101 61
77 104 63
76 103 63
76 103 63
78 105 64
77 104 63
76 103 62
152 171 175
165 183 194
163 180 190
165 181 193
165 182 193
173 190 205
165 182 194
165 183 196
165 182 194
170 187 200
177 194 210
165 182 194
171 187 201
174 190 202
169 186 197
172 189 203
171 188 203
173 191 203
163 181 192
148 166 169
83 108 73
78 105 64
72 99 58
79 107 65
78 106 65
79 106 64
77 104 64
75 102 61
80 108 66
75 101 62
80 108 66
72 99 59
77 104 63
80 107 65
75 101 62
80 107 66
75 102 63
76 103 62
104 128 106
171 188 199
155 170 176
171 189 205
171 188 200
167 186 201
160 177 187
172 189 203
172 189 202
165 182 192
159 177 187
157 173 180
167 184 198
178 195 213
173 189 201
166 183 197
167 185 200
167 184 196
174 191 205
109 131 116
75 102 62
82 110 68
80 108 67
83 112 69
78 105 65
76 104 63
81 109 67
76 103 62
76 102 62
79 107 66
77 104 64
76 103 63
76 103 62
80 108 65
77 105 64
87 113 81
130 149 144
135 155 150
107 130 110
82 108 72
83 111 69
78 105 65
83 110 68
79 107 66
82 111 69
83 111 69
79 107 66
77 105 64
76 103 63
84 112 70
80 107 66
79 107 65
77 105 64
148 167 171
170 186 199
176 193 207
162 180 189
161 178 185
170 187 199
167 184 198
170 189 203
164 180 189
172 190 205
174 192 207
160 177 187
155 173 183
137 156 155
135 155 151
129 149 145
159 177 187
179 197 213
170 188 201
169 187 200
166 183 195
174 192 206
169 186 196
171 189 203
171 188 201
170 187 200
173 191 205
171 189 203
173 191 209
170 187 201
162 180 192
169 187 200
169 187 199
170 188 201
166 184 197
116 139 124
79 107 66
74 102 63
80 108 67
77 103 62
81 109 67
79 107 65
80 108 66
77 105 63
80 108 66
78 106 65
79 107 65
84 111 73
113 134 126
161 179 189
163 181 193
169 186 198
171 188 200
165 183 194
149 167 168
74 101 61
80 108 67
77 105 65
83 111 69
81 110 67
79 107 66
80 108 66
75 101 62
81 109 67
77 105 64
79 107 65
77 104 63
77 105 64
78 106 66
80 109 68
79 107 66
81 109 68
79 107 67
74 102 62
106 127 111
147 166 170
110 134 120
82 109 69
99 123 100
126 145 141
136 154 152
158 176 186
160 178 186
170 188 200
170 187 199
164 181 191
171 188 203
166 183 196
172 190 204
178 195 210
169 185 197
162 179 188
167 184 196
158 174 181
168 185 198
129 149 142
80 108 66
77 104 65
78 104 63
76 104 64
82 110 68
78 106 65
78 106 65
79 107 65
76 103 62
79 107 66
73 99 59
81 110 68
99 123 100
124 143 136
160 178 189
159 176 187
166 183 193
162 180 191
169 187 200
166 183 196
148 167 169
78 106 64
79 108 67
79 106 65
76 103 63
80 107 66
75 103 62
75 102 62
76 103 62
74 101 61
75 102 63
75 102 61
77 105 65
79 106 65
76 104 63
84 111 69
81 109 68
77 105 65
80 108 66
76 103 64
81 109 67
74 101 61
148 167 169
160 176 184
173 191 207
159 176 184
167 183 195
164 182 195
170 186 199
174 190 205
170 188 201
169 187 200
170 186 197
159 176 187
168 183 195
174 192 207
150 168 173
127 147 139
108 131 113
83 110 70
78 105 63
80 108 66
79 106 65
79 107 68
163 181 192
160 177 189
171 188 202
163 180 192
170 186 197
157 175 183
166 183 195
162 180 190
166 184 197
162 178 189
165 181 190
155 172 177
158 174 182
156 172 179
158 174 182
159 177 190
169 187 198
172 187 199
170 189 205
160 178 191
164 182 193
152 171 177
81 108 69
77 104 63
79 107 65
79 106 65
76 103 62
77 105 64
73 100 60
76 103 63
79 107 66
76 104 63
74 101 61
75 102 62
75 102 62
76 102 62
79 106 65
79 107 65
79 107 66
75 102 62
78 105 64
75 100 61
77 104 63
96 121 95
161 178 186
153 171 178
167 185 197
167 183 195
166 183 193
165 182 193
168 184 195
164 179 187
165 182 194
156 173 179
164 181 194
156 173 182
142 161 167
138 157 158
122 144 137
107 129 111
87 114 82
79 107 66
74 102 61
75 103 64
77 105 64
101 123 104
169 185 198
160 177 188
172 188 202
162 179 186
163 180 190
169 185 197
164 182 193
157 173 179
165 182 194
156 174 182
158 175 182
156 172 178
163 179 188
163 181 190
166 183 194
158 175 183
166 184 198
165 182 191
165 182 193
170 188 202
170 186 200
114 134 120
78 105 65
81 109 67
75 101 61
79 107 66
74 101 62
78 106 64
77 104 63
77 105 64
75 102 62
77 104 64
74 101 61
79 107 65
76 103 62
78 106 64
75 101 61
75 102 61
72 98 59
76 102 61
75 102 62
75 103 63
122 142 133
158 176 184
175 191 202
171 189 202
162 178 186
161 179 189
161 178 190
169 186 199
170 187 199
156 173 181
162 180 193
171 186 198
162 180 190
171 186 198
165 184 196
160 177 187
172 188 200
169 186 199
166 183 195
155 173 182
162 179 189
107 128 114
80 107 66
79 106 65
78 106 65
77 104 63
76 104 63
79 106 65
79 107 66
77 105 64
78 106 64
79 106 64
77 105 64
77 104 63
81 108 67
76 103 63
80 107 66
74 101 61
77 104 63
77 104 64
79 106 65
123 143 135
157 175 184
170 187 200
164 180 191
158 176 187
163 180 192
161 177 186
168 185 195
159 175 185
157 175 183
168 184 195
174 191 204
162 179 187
168 185 196
157 176 186
161 179 188
161 179 190
170 188 199
165 182 192
163 180 192
121 143 135
73 100 60
83 111 69
78 105 64
79 108 66
73 99 60
80 109 66
82 110 68
77 104 63
78 106 65
79 108 67
81 109 67
83 110 68
77 104 63
78 107 66
71 97 57
78 106 65
76 103 64
80 108 66
139 158 163
169 186 199
166 182 192
163 180 191
164 180 190
161 179 191
161 178 188
164 180 192
172 188 203
171 188 200
169 188 201
164 181 190
162 180 188
158 176 185
165 184 199
169 186 197
166 184 195
163 180 191
159 176 186
78 106 66
80 107 65
80 108 66
79 107 66
78 106 65
79 107 65
74 100 60
76 104 63
80 108 67
76 103 63
83 111 69
83 109 75
122 143 133
130 149 143
159 176 183
168 185 197
166 184 195
122 143 133
81 109 67
75 102 62
81 110 67
75 102 61
81 109 67
81 109 68
79 106 65
78 106 64
81 109 68
79 107 66
76 103 63
79 107 66
80 109 67
81 109 67
82 111 69
96 122 97
164 180 191
179 196 212
173 189 202
161 180 189
167 184 193
166 183 193
171 190 205
167 185 198
162 181 190
170 186 198
173 189 200
169 186 198
176 193 207
173 191 204
170 186 196
134 155 153
88 114 82
113 135 123
137 156 155
150 169 174
166 183 192
171 189 204
163 181 189
168 186 201
170 187 199
161 180 190
171 189 205
159 176 185
172 189 202
171 189 203
174 190 202
165 183 193
167 185 197
164 182 196
96 121 95
80 108 67
79 107 65
78 105 64
81 109 67
80 108 66
75 102 63
79 107 65
82 110 68
78 106 64
79 106 66
119 141 129
169 187 198
162 178 187
171 187 201
172 189 203
164 181 190
177 195 213
170 187 199
133 153 149
82 110 68
82 111 69
78 105 64
79 107 65
79 106 64
76 104 64
78 105 64
79 107 66
78 105 65
81 110 68
81 110 68
80 109 67
77 105 64
78 106 66
78 106 65
81 109 67
78 106 65
102 126 103
141 161 162
149 169 172
82 111 68
79 106 66
77 105 64
82 110 69
79 107 65
76 104 64
77 105 65
88 113 82
116 137 122
128 148 146
155 173 181
167 183 193
156 174 182
172 189 202
171 187 201
169 187 198
161 178 189
164 181 193
167 184 195
171 188 201
117 137 128
78 106 65
75 102 62
80 108 66
76 103 62
79 107 65
74 101 62
78 106 65
83 111 68
78 105 64
99 125 100
127 148 144
156 174 183
172 189 202
162 180 192
168 184 196
166 182 191
163 180 190
161 178 189
164 181 193
164 181 190
140 159 161
75 101 61
80 108 65
78 106 65
75 103 62
79 107 66
81 109 67
78 105 64
73 99 60
80 107 66
75 102 63
78 105 65
79 107 66
77 104 63
77 103 63
76 102 62
82 110 68
78 105 65
80 107 65
79 106 65
79 107 65
74 101 60
140 158 160
164 181 191
169 187 198
162 179 188
163 179 188
162 179 188
162 180 193
165 183 196
169 185 195
153 171 179
161 178 187
138 158 155
117 137 126
93 119 86
77 104 63
79 107 66
76 103 63
79 106 65
80 107 66
79 107 65
83 111 69
80 108 67
147 165 171
159 177 190
168 185 197
168 185 197
160 178 188
156 174 181
159 177 185
164 181 190
167 183 192
175 192 206
154 171 181
166 183 195
157 175 184
175 191 204
165 183 194
169 186 196
172 188 200
159 178 189
167 184 195
158 176 182
159 175 184
171 188 202
97 120 100
78 106 65
80 108 67
78 106 66
76 103 62
77 105 64
78 106 65
80 108 67
71 98 59
78 105 64
71 97 58
74 101 62
76 102 62
76 102 62
75 102 62
75 102 62
79 107 64
82 110 68
77 105 64
73 100 61
76 103 63
74 101 62
156 173 180
168 184 192
159 176 185
166 182 193
171 187 199
171 188 203
164 181 192
143 161 161
128 148 145
112 133 120
91 114 91
87 112 77
73 99 60
79 107 66
79 106 65
77 105 64
77 105 65
79 107 66
77 105 64
74 101 61
74 100 60
93 118 90
155 173 180
161 178 189
154 173 182
157 174 182
161 178 189
164 182 195
167 184 196
158 176 187
163 180 189
158 175 183
156 173 183
157 173 180
154 170 174
159 175 184
157 174 183
160 177 186
155 172 180
153 172 181
161 179 189
174 192 206
164 181 195
139 156 157
74 101 61
76 104 63
76 104 64
75 102 62
81 108 66
80 108 67
77 104 64
77 104 63
78 106 65
74 100 61
75 101 61
76 104 63
71 97 57
75 102 61
76 103 62
77 104 63
77 104 63
74 101 62
77 104 64
77 105 65
85 109 80
161 179 189
169 186 196
167 185 197
159 177 190
163 180 190
162 178 189
159 177 187
160 178 188
171 187 199
164 182 193
158 175 184
156 173 182
169 186 198
170 187 200
175 191 206
161 178 188
165 182 194
161 178 188
167 184 196
166 183 195
146 165 171
75 103 63
77 104 64
76 103 62
75 102 62
76 103 63
79 107 66
77 104 63
76 104 63
79 107 65
76 103 63
78 106 65
77 103 63
77 104 63
76 103 63
80 108 67
77 104 63
80 108 66
79 107 65
77 104 64
80 107 71
160 178 185
167 185 197
164 182 193
171 188 199
166 184 196
171 188 199
165 182 192
160 176 185
168 185 197
163 181 190
164 182 193
161 179 193
164 182 195
163 180 191
166 182 193
165 182 194
167 183 197
162 180 194
166 183 193
162 178 189
83 109 77
81 109 68
81 109 67
79 107 66
79 107 66
76 103 64
81 109 67
75 102 62
81 110 68
81 109 68
80 107 66
79 106 65
75 101 62
76 104 64
77 105 65
78 106 66
78 106 64
82 111 69
83 110 73
164 181 191
175 192 207
171 188 200
173 190 207
163 181 194
174 191 204
171 189 203
164 182 195
162 180 190
163 181 193
163 181 193
167 184 196
166 184 196
164 182 195
177 194 211
169 186 198
174 192 208
171 188 201
107 129 111
77 104 64
76 104 63
80 108 66
77 105 64
77 104 64
83 110 73
109 132 118
133 153 149
132 152 150
151 170 175
174 190 205
171 188 200
167 184 195
170 188 202
171 188 201
155 172 181
158 176 185
84 110 75
80 108 66
79 107 66
78 106 65
78 106 65
79 107 66
77 104 64
80 108 66
82 111 68
77 104 63
82 110 69
79 106 65
78 105 64
74 101 60
76 104 64
79 107 66
129 149 146
176 192 207
177 194 209
175 192 208
166 183 196
163 180 189
166 183 193
159 176 184
170 187 202
168 186 197
172 190 203
173 190 206
171 190 204
178 196 212
172 189 202
162 180 189
115 137 123
79 107 66
81 109 67
82 110 68
78 105 65
92 117 89
115 138 126
141 161 161
152 170 176
172 190 206
172 188 204
180 198 215
173 189 200
160 178 188
174 192 206
175 193 207
175 191 206
165 184 195
87 114 79
75 102 61
81 109 68
79 106 65
82 110 68
80 108 66
83 112 70
79 107 66
96 121 95
126 147 142
168 185 197
171 188 201
174 190 205
175 193 208
166 182 191
174 192 205
166 184 195
172 190 203
175 192 204
143 163 164
80 109 68
83 112 69
79 107 68
80 108 65
78 105 63
80 108 66
81 109 68
80 108 67
77 105 64
77 104 64
76 104 63
83 111 69
75 103 63
78 106 66
80 108 67
119 141 134
158 177 183
175 192 209
176 194 209
143 161 162
80 107 65
84 113 70
83 112 70
81 109 68
75 102 62
78 105 65
74 101 61
78 106 65
79 107 66
82 110 68
76 104 63
89 116 82
98 123 98
122 143 132
141 161 163
164 182 192
156 175 184
171 188 202
177 194 209
166 183 195
128 148 146
76 103 63
75 102 62
80 109 67
80 107 66
75 102 63
79 107 67
80 106 73
118 140 129
155 172 179
175 192 207
171 188 201
168 185 197
166 183 194
160 178 192
172 188 200
166 184 196
163 181 194
169 186 199
167 183 196
171 187 199
152 170 175
76 103 62
81 110 68
78 106 65
79 106 65
79 107 65
76 102 61
78 106 65
79 106 65
76 103 63
79 107 65
76 103 63
80 108 67
77 103 63
73 100 60
76 104 65
78 106 65
83 111 69
75 102 63
75 102 62
74 100 61
77 104 64
131 150 143
160 177 186
176 192 204
172 189 203
173 189 199
162 178 185
170 187 200
151 169 176
139 159 157
102 126 105
76 103 63
78 105 64
80 107 66
74 100 60
77 104 63
78 105 64
81 109 68
80 108 66
80 108 66
83 112 69
83 111 70
78 106 65
138 157 156
166 184 196
166 183 195
152 170 175
164 180 189
163 179 189
161 178 188
167 184 195
163 180 190
160 178 189
153 172 178
161 177 185
161 179 189
158 176 184
165 182 195
171 189 204
161 178 188
156 174 183
161 179 190
165 183 196
165 181 192
163 181 193
123 143 136
78 106 65
80 109 67
78 106 64
75 102 62
79 106 65
72 98 59
79 107 66
77 105 65
73 99 60
73 100 60
78 105 64
79 106 64
76 102 62
79 106 65
77 104 64
73 100 61
76 103 62
81 109 68
78 106 65
77 104 63
76 102 63
136 154 157
153 170 177
151 169 173
124 146 137
106 129 115
93 118 90
83 111 71
75 102 62
76 103 62
77 104 63
74 101 60
72 99 60
78 106 64
75 102 62
75 102 61
75 101 61
77 104 63
75 102 63
78 106 65
77 104 63
74 102 62
78 105 65
143 161 161
166 183 196
158 176 188
167 185 196
168 185 197
165 180 188
165 183 194
164 182 195
168 184 195
165 183 196
164 180 188
163 181 190
168 184 196
166 184 195
169 186 197
168 185 201
169 187 201
156 174 182
160 179 191
149 166 175
162 180 192
164 181 190
76 103 66
76 104 64
80 107 65
77 104 64
78 105 65
77 104 63
75 102 62
76 103 64
73 99 59
76 103 63
78 107 66
79 107 66
76 103 64
79 107 66
76 104 64
80 108 68
81 110 68
79 107 66
77 105 64
78 105 64
80 107 66
141 159 161
164 180 190
163 180 191
164 180 192
161 178 187
167 184 195
164 182 196
165 183 194
168 186 200
163 179 187
164 181 192
165 181 191
170 187 201
164 181 194
164 181 191
171 187 199
164 181 192
166 183 195
162 179 189
163 180 189
172 189 201
104 124 107
76 103 62
76 103 62
78 105 63
75 102 62
82 111 69
80 107 65
76 103 62
81 109 67
77 104 64
78 105 64
73 100 60
81 109 68
74 101 61
75 102 62
82 109 66
77 104 63
72 99 60
78 106 65
74 100 61
124 144 137
168 184 193
158 175 182
160 177 186
165 182 194
173 190 204
171 187 200
162 179 191
175 192 205
160 177 186
168 185 198
166 183 195
161 179 189
158 176 184
166 183 195
148 166 172
162 180 192
163 179 189
151 169 174
162 180 191
118 140 127
78 107 66
78 106 65
78 105 64
80 108 66
81 109 68
76 103 62
77 104 64
73 100 60
81 109 67
79 106 64
78 105 65
79 107 66
83 112 69
77 104 64
79 107 66
83 111 69
79 106 65
79 106 66
121 141 136
162 179 190
167 184 195
172 188 203
175 192 207
162 180 188
171 188 201
167 184 195
163 181 192
165 182 194
159 176 187
166 184 197
171 188 201
165 182 193
172 189 204
166 182 195
174 191 208
168 185 196
159 176 183
84 110 74
95 119 92
116 138 124
135 154 149
155 173 181
164 181 192
173 189 202
164 183 196
171 188 200
164 183 194
162 180 192
164 182 192
161 180 191
161 179 191
171 189 204
168 184 195
155 173 181
131 151 147
76 103 62
79 106 66
78 105 64
81 109 66
79 107 65
77 105 64
80 108 67
82 110 68
80 107 66
74 101 62
81 109 68
83 111 69
80 108 67
77 105 64
82 110 68
78 106 65
160 179 189
163 181 191
170 187 201
171 188 200
163 181 191
166 184 194
167 185 196
170 188 204
179 195 209
172 189 202
169 186 200
161 179 191
172 188 201
168 186 199
170 187 200
165 184 198
90 117 87
78 105 64
81 110 69
81 109 67
79 107 66
81 110 68
80 107 65
80 108 66
80 108 68
106 130 109
123 142 138
156 174 180
171 187 200
172 191 204
175 192 207
174 192 208
170 187 199
82 111 70
80 109 68
75 104 64
81 109 67
81 110 68
80 107 65
100 125 99
146 166 170
165 183 192
167 185 199
176 193 208
170 188 200
173 190 205
180 197 214
172 190 204
162 181 191
173 189 201
172 189 205
171 189 205
126 147 139
81 109 67
82 110 68
76 103 62
81 109 68
82 110 68
82 111 69
81 109 67
80 108 67
81 110 68
77 104 63
79 106 64
82 110 68
97 123 93
145 163 164
175 192 206
163 181 192
168 186 200
163 181 192
172 189 205
151 168 171
74 101 61
76 104 63
78 105 64
81 109 67
81 110 68
78 105 64
78 105 65
77 105 64
81 110 68
82 110 68
78 105 65
83 111 69
83 111 69
81 109 67
82 110 67
81 110 68
86 113 75
115 137 121
120 142 131
138 157 155
125 145 137
83 111 71
78 105 65
84 112 70
80 106 70
114 137 123
152 171 175
171 187 201
163 181 192
159 177 190
166 182 192
162 180 191
174 191 206
171 188 201
166 185 200
167 184 194
163 181 192
176 194 209
167 185 198
166 183 192
159 177 187
171 189 201
75 102 61
77 104 63
75 101 61
77 105 63
81 109 67
78 106 65
80 108 66
77 104 64
76 102 62
74 101 61
76 103 63
80 107 66
77 105 64
78 106 65
79 108 67
82 110 68
80 108 66
79 107 65
78 105 64
74 100 60
76 103 62
111 133 119
166 183 193
157 174 186
161 178 186
150 168 173
104 126 110
99 122 98
79 106 65
82 110 67
77 104 64
76 103 63
80 108 67
78 106 64
77 106 65
76 103 63
81 109 67
80 109 67
79 106 66
77 104 64
77 105 64
76 104 63
80 108 67
124 145 136
161 178 188
168 185 198
170 187 200
160 177 185
160 178 190
169 186 199
169 186 197
166 184 195
166 183 195
163 180 189
164 180 192
170 187 200
163 179 190
172 189 203
147 165 171
165 183 193
165 182 194
169 186 199
157 175 184
162 179 190
165 182 192
143 162 161
76 104 63
79 106 65
80 108 66
79 106 64
76 104 63
75 102 62
75 101 61
80 108 67
74 101 61
74 102 61
75 102 62
76 104 64
78 106 65
77 106 65
79 106 65
77 104 63
76 103 62
86 113 77
107 130 112
116 136 121
136 154 153
141 160 161
80 107 66
78 105 64
75 103 63
78 106 65
77 104 64
78 106 65
75 103 62
77 104 63
76 103 63
75 102 63
76 103 63
76 103 63
77 104 63
81 109 67
77 105 64
72 98 59
76 104 63
76 102 63
82 110 69
77 104 64
76 103 63
114 134 121
164 181 192
167 184 193
170 187 200
166 183 194
169 186 199
150 168 174
170 187 199
168 186 199
165 182 194
162 179 191
167 184 196
153 170 176
153 169 178
172 189 203
170 188 200
166 183 192
158 174 184
172 189 202
170 188 198
168 184 196
168 185 198
107 128 115
76 103 63
72 99 59
79 107 66
75 102 62
79 107 66
76 103 63
82 110 69
74 101 62
80 109 68
79 107 66
79 107 65
77 104 63
76 102 62
79 106 65
78 106 64
77 105 64
80 108 67
76 103 63
76 104 64
71 96 56
120 140 129
174 190 204
162 179 188
159 175 184
163 181 192
151 169 176
161 178 186
168 184 195
170 187 200
159 176 186
159 176 185
168 185 196
161 178 191
164 181 190
162 179 190
168 184 196
161 177 187
171 188 200
159 177 186
160 177 185
164 181 190
128 148 145
75 103 63
75 103 62
71 98 58
80 108 67
77 105 65
76 104 63
75 102 62
76 104 64
77 105 64
80 108 66
77 104 64
76 104 64
78 105 64
78 106 66
78 105 65
77 105 65
79 107 65
73 99 60
75 102 62
80 108 67
163 181 193
173 189 204
163 180 192
159 177 186
182 198 214
169 186 198
170 187 201
160 178 188
171 187 200
171 187 199
159 176 187
157 175 186
169 186 198
165 182 195
166 183 195
160 177 188
174 190 203
169 187 200
163 181 191
163 180 191
82 108 71
79 106 65
80 108 66
76 104 63
74 101 62
83 112 69
79 107 66
81 109 68
75 101 61
74 101 61
79 107 66
78 106 65
75 102 62
80 109 67
84 113 70
81 109 67
80 108 67
76 103 62
81 108 70
152 170 176
164 182 194
167 185 200
165 184 198
168 186 199
168 185 197
164 182 196
172 189 204
166 182 195
170 187 201
174 191 206
161 179 190
177 193 207
168 183 193
164 183 193
133 152 152
129 150 145
100 124 105
121 143 134
169 186 198
162 181 192
164 182 194
164 182 194
167 185 195
174 191 207
169 186 200
170 188 203
163 179 190
167 185 198
160 178 187
170 188 201
168 185 197
173 190 204
168 186 198
167 184 195
169 187 201
90 115 88
81 110 67
75 102 62
77 104 63
80 109 67
77 104 63
74 100 61
81 109 67
79 107 67
81 109 68
79 108 66
82 110 69
82 110 68
78 106 66
78 106 65
80 107 65
102 127 104
159 177 187
171 187 198
165 184 196
167 185 197
183 200 219
173 191 205
168 185 197
174 191 207
177 194 211
167 185 198
166 184 193
174 192 208
172 189 203
166 185 197
163 182 192
148 169 173
80 108 67
76 104 64
80 108 66
78 106 65
81 110 68
81 110 68
81 110 68
81 109 68
79 107 66
81 110 68
80 108 66
171 188 202
176 194 210
175 193 210
174 193 209
169 187 198
79 107 66
78 106 65
80 108 66
79 107 66
105 128 108
141 160 162
167 184 195
176 193 210
167 184 194
168 185 194
174 192 207
181 198 213
166 184 196
165 183 199
167 185 197
167 184 198
172 190 205
167 184 195
172 190 202
129 149 141
83 111 69
80 109 67
82 110 68
79 107 66
83 111 69
79 107 66
82 112 69
81 109 67
82 111 69
82 111 69
110 131 114
159 179 190
170 186 198
168 186 199
173 189 202
167 184 196
166 184 195
163 182 193
166 183 196
147 165 167
75 103 63
80 108 66
80 108 66
83 112 70
81 110 68
83 111 69
82 110 67
82 110 68
77 105 64
75 103 64
80 107 66
79 107 66
77 105 65
80 109 68
79 106 65
79 106 65
83 111 69
77 105 64
75 102 62
78 106 66
125 146 140
167 184 198
146 164 168
91 116 89
124 145 140
157 175 181
164 182 193
170 187 199
174 192 210
166 184 197
173 190 202
161 178 187
160 177 185
162 180 190
179 196 214
173 190 205
168 185 196
171 187 200
166 183 191
170 187 199
161 178 189
158 175 182
82 110 72
79 106 65
82 110 68
80 108 67
78 106 65
74 100 60
77 105 64
78 107 66
78 106 65
78 106 65
78 105 65
80 108 66
77 104 63
81 109 67
77 105 65
76 103 63
76 104 64
80 108 66
77 105 64
80 109 67
81 110 68
113 136 123
133 153 152
109 129 114
79 107 69
78 106 65
76 103 63
79 107 66
77 104 64
83 112 69
77 103 63
76 103 63
79 107 65
76 104 63
78 105 65
83 111 69
78 105 65
79 106 65
78 106 64
77 104 63
79 107 66
75 102 62
79 107 66
109 132 115
167 184 197
170 187 200
171 188 200
162 179 191
169 187 199
163 180 189
173 189 204
167 184 195
163 180 191
171 187 201
172 188 203
162 178 188
168 185 197
173 189 206
163 181 190
168 185 196
160 178 188
164 181 190
173 189 203
162 180 193
165 182 192
159 177 185
75 103 62
75 103 62
75 102 62
79 107 66
71 97 58
78 107 66
76 103 62
83 111 68
77 104 64
72 98 59
79 107 66
78 106 64
77 104 64
102 124 104
112 135 120
151 169 174
161 178 189
164 182 193
161 178 189
169 185 198
172 189 203
155 173 180
79 106 67
81 109 68
77 104 63
78 104 63
80 109 68
78 105 64
81 110 68
77 105 64
78 106 65
81 110 68
78 105 64
75 102 61
79 106 65
75 102 62
81 109 67
77 104 63
74 102 62
77 103 63
77 104 63
78 105 64
77 105 64
88 112 81
163 180 190
170 187 200
172 190 205
166 184 197
163 180 191
160 178 187
161 177 185
161 179 192
158 176 185
171 188 199
167 183 193
154 173 181
171 188 200
156 174 181
165 181 191
169 186 199
167 183 198
161 179 189
164 181 192
163 180 190
166 183 196
138 156 157
77 103 63
78 106 63
81 110 68
81 109 67
78 106 66
77 104 64
75 101 61
81 109 67
73 99 60
79 106 65
73 101 61
78 106 66
78 105 63
79 106 66
76 103 63
78 106 64
80 108 67
78 106 66
77 104 63
76 103 63
87 113 78
166 183 196
174 191 204
169 186 198
162 179 186
173 190 203
168 184 196
169 187 199
171 189 203
170 187 199
164 181 193
167 185 198
161 178 189
152 169 175
166 183 194
164 181 191
166 183 197
166 183 197
164 181 192
164 182 193
166 183 193
162 179 188
85 111 74
80 107 65
75 102 62
80 107 66
74 101 61
81 109 67
79 106 65
76 103 62
77 104 63
80 108 67
78 106 66
72 97 58
73 100 61
78 105 65
79 107 66
77 105 64
81 110 68
75 102 61
77 105 64
78 105 65
124 145 137
158 175 183
159 177 188
166 183 196
168 185 198
157 175 180
157 175 184
163 180 190
168 185 197
170 187 199
160 177 188
167 183 194
162 181 195
161 180 192
158 175 185
166 182 195
159 176 184
170 187 199
163 179 188
165 182 193
135 155 153
82 110 67
79 106 66
80 107 66
78 106 65
79 107 66
79 107 66
79 107 65
76 102 62
73 100 61
81 109 67
78 105 64
81 109 67
79 107 65
82 110 68
79 108 67
81 110 68
81 109 68
77 103 62
125 145 137
173 189 203
164 181 195
173 190 202
171 189 204
167 185 197
172 189 202
164 182 194
163 182 193
153 172 177
136 156 155
118 139 130
95 119 91
77 103 69
81 110 68
78 106 64
80 108 67
76 104 63
76 102 65
157 176 184
172 189 203
168 185 197
175 192 207
163 181 193
159 176 186
172 190 204
168 184 197
171 187 198
164 181 193
173 190 204
172 190 204
166 184 195
169 185 199
172 189 204
174 191 205
168 186 198
158 177 184
80 107 65
78 107 66
77 104 63
80 108 66
80 109 67
74 101 62
79 107 66
77 105 65
77 105 64
80 109 68
79 107 65
79 108 67
83 112 70
81 110 68
80 108 67
81 109 67
131 152 150
166 183 195
163 180 187
172 190 204
173 190 205
173 191 206
175 192 207
169 187 200
175 193 208
174 192 208
175 192 206
171 190 205
172 189 202
173 190 207
167 186 198
166 183 195
122 145 132
80 109 67
75 103 63
79 106 65
82 110 67
80 109 68
80 109 67
79 106 65
78 106 64
79 108 66
79 107 66
169 186 197
174 192 207
168 186 201
174 191 204
165 182 191
80 108 67
81 109 67
115 138 125
156 175 183
171 188 200
174 189 201
176 193 208
173 191 206
166 183 196
172 189 203
176 194 210
168 186 199
168 186 200
172 189 203
179 197 213
170 188 200
168 186 199
172 189 204
171 187 200
108 129 111
78 105 65
75 103 63
81 109 67
78 105 64
79 106 65
80 109 67
81 109 68
84 110 78
133 153 153
147 166 174
172 189 203
173 191 208
171 189 202
172 188 200
164 181 192
169 185 198
154 172 182
164 181 192
169 188 202
153 172 178
80 108 67
77 105 64
79 107 66
76 104 64
82 110 69
82 111 69
80 108 66
79 107 67
82 110 69
77 106 65
79 106 65
78 105 64
79 106 65
82 110 68
81 110 68
81 109 68
82 110 68
82 110 68
80 109 67
96 119 95
142 161 159
103 127 106
82 111 68
78 106 66
83 111 69
76 103 63
80 109 67
81 108 72
110 132 116
126 146 141
155 173 177
150 168 175
167 184 198
179 195 211
172 189 203
172 190 205
166 182 194
169 186 201
167 184 195
179 196 212
169 187 202
168 185 197
106 129 108
81 109 67
77 104 63
77 103 62
83 112 70
79 107 66
81 109 67
81 109 67
79 107 66
76 104 64
80 108 66
80 109 67
76 102 62
79 108 66
81 109 67
76 104 64
79 106 65
81 108 66
99 122 100
128 148 140
149 168 173
157 174 180
78 106 65
78 106 65
79 107 67
83 110 68
78 104 63
73 99 59
76 104 63
75 101 61
76 102 63
79 108 66
76 104 63
81 108 67
78 107 66
76 103 63
80 109 67
80 107 67
77 104 64
78 105 65
80 108 66
78 105 64
76 104 64
84 112 74
163 180 193
161 178 187
165 183 193
174 191 205
158 175 187
171 188 201
155 174 183
160 178 187
164 182 191
156 173 182
165 183 196
169 187 199
153 170 178
160 177 186
167 184 195
157 174 183
166 182 193
159 176 185
166 183 194
168 185 197
164 181 192
173 190 205
91 115 92
76 104 63
79 107 65
74 100 60
76 102 63
80 108 65
80 107 65
74 101 61
78 105 66
119 139 128
126 146 141
149 167 173
163 181 192
169 186 200
162 179 189
163 180 193
163 180 191
161 180 190
175 191 204
171 188 203
163 181 190
162 180 191
104 128 107
75 102 61
76 103 62
75 101 61
75 102 62
77 104 63
73 100 60
74 100 61
78 106 64
77 104 64
77 105 64
77 106 66
77 105 65
80 108 66
75 102 62
77 105 64
78 105 63
76 104 63
80 108 66
82 110 67
80 107 65
79 107 66
156 175 182
165 184 195
165 183 194
166 184 196
157 173 180
159 176 183
162 179 190
167 183 195
170 188 202
161 180 191
167 184 200
167 185 200
156 173 182
156 175 185
155 173 179
166 182 194
169 187 199
159 177 190
154 172 180
160 177 188
166 183 195
160 179 189
81 108 73
79 106 65
80 107 66
77 104 63
79 106 65
78 106 65
83 111 68
74 102 61
77 105 64
73 99 60
73 100 60
79 107 66
79 106 65
77 105 64
77 105 64
75 103 63
79 107 66
76 103 63
75 102 62
79 106 65
74 101 61
141 158 157
171 189 202
160 177 186
163 179 189
171 188 203
166 184 196
167 184 196
161 178 185
165 183 196
161 178 187
164 180 190
156 173 182
171 187 201
171 188 201
166 182 195
169 186 198
163 181 193
161 178 190
161 179 190
161 178 188
167 184 196
142 160 162
81 109 67
80 109 67
80 108 66
77 105 64
79 107 66
77 104 65
75 102 62
76 103 63
81 109 67
79 107 65
77 104 64
80 108 67
80 108 66
77 104 63
77 104 63
87 113 78
87 113 83
95 119 94
85 110 78
108 131 113
152 171 179
149 168 172
139 157 156
144 162 165
137 157 155
127 146 140
143 162 166
137 156 155
127 148 138
127 148 144
123 144 140
130 149 143
125 145 138
128 148 143
113 134 126
125 146 137
116 138 129
123 145 133
120 141 130
112 133 115
134 154 148
139 158 157
140 159 158
141 160 162
141 160 160
131 151 146
139 158 157
129 148 146
124 145 139
137 156 156
122 143 135
134 154 149
123 144 136
118 140 124
114 136 121
117 137 128
117 139 129
115 136 125
106 128 113
157 174 182
169 186 198
158 176 184
149 167 173
122 143 136
101 124 106
81 106 72
77 105 64
81 110 68
76 104 63
76 103 63
82 110 68
78 107 66
78 106 66
80 107 66
78 106 64
78 106 65
77 105 63
121 143 130
173 191 204
177 195 213
180 197 212
171 189 200
169 189 204
180 197 214
165 182 193
165 183 194
170 188 205
170 188 202
180 197 212
172 189 202
163 180 190
169 186 199
169 187 199
164 182 196
170 187 199
113 134 120
78 106 65
79 107 66
79 107 66
81 109 67
79 107 65
84 113 70
78 106 65
77 104 63
81 109 66
77 105 64
83 112 70
79 107 66
79 107 67
84 112 70
81 109 67
81 108 72
161 178 188
173 191 206
158 176 184
164 182 193
168 186 199
169 187 201
171 188 199
170 189 204
172 189 205
168 184 199
177 195 212
170 186 198
166 185 197
174 191 203
175 192 207
170 188 201
89 116 79
80 108 67
82 110 68
79 107 66
82 111 69
81 110 68
81 110 69
77 105 65
81 108 66
82 110 68
171 189 202
165 182 194
170 189 204
172 189 201
146 165 163
119 142 129
162 180 191
173 190 202
177 195 211
167 184 197
165 183 195
164 183 193
176 193 207
172 190 205
169 187 201
175 193 207
175 193 207
171 189 204
174 191 205
170 189 205
172 189 200
172 189 203
162 182 193
168 186 198
114 136 119
79 108 66
81 109 68
79 108 67
80 108 66
81 109 67
106 130 113
144 164 164
170 187 200
175 192 207
166 184 198
177 196 211
177 194 209
177 193 208
165 184 197
171 188 202
167 184 196
168 187 200
170 188 202
169 188 201
141 159 161
81 109 67
82 110 68
79 107 65
79 107 66
78 105 64
78 106 65
82 110 69
79 107 65
77 105 64
78 106 66
74 101 60
78 106 65
80 108 67
75 103 63
80 108 67
82 111 69
83 112 75
122 144 132
157 175 183
164 182 194
141 160 161
78 106 65
81 109 68
78 105 65
77 104 64
83 111 69
81 109 68
76 104 64
81 109 67
80 108 66
79 107 66
77 105 65
80 109 66
88 114 81
101 126 106
122 141 133
142 160 159
143 163 162
164 181 190
165 182 195
163 180 190
159 177 187
102 126 103
81 108 66
84 112 70
80 108 67
80 108 66
79 107 67
79 107 66
80 108 67
77 105 64
78 106 65
80 108 67
76 104 64
77 103 62
79 107 66
77 104 63
105 129 108
133 153 149
154 171 176
166 183 191
172 187 196
170 188 202
151 169 178
97 122 94
81 109 68
80 108 67
76 103 63
77 104 65
80 109 67
79 108 66
79 107 66
78 106 65
80 108 66
82 110 67
76 103 62
76 104 63
79 106 64
78 105 64
79 107 66
79 107 66
76 104 63
75 103 64
81 109 67
80 108 67
77 104 64
171 188 200
161 178 187
168 185 196
167 184 195
166 183 195
157 175 184
167 183 193
165 182 191
168 184 194
167 185 198
171 187 201
173 190 202
170 187 201
169 186 200
173 191 206
166 184 196
156 173 181
163 180 189
164 181 191
167 184 198
167 184 194
171 188 202
119 138 128
75 102 62
80 108 67
75 102 62
83 108 79
115 136 123
138 155 157
142 161 162
169 186 200
173 191 204
161 179 193
159 175 184
166 184 199
159 177 187
161 178 188
167 184 196
158 175 183
170 187 199
163 182 195
169 186 196
171 188 202
165 182 193
138 157 159
75 102 61
80 108 66
79 107 65
78 106 65
76 103 63
75 102 62
79 107 66
80 108 66
79 107 66
78 106 66
74 101 60
74 101 61
79 107 66
79 106 65
76 104 64
75 102 62
81 109 68
77 105 65
80 108 67
78 105 65
78 106 65
125 145 135
165 182 195
160 178 185
162 180 190
164 182 194
168 186 199
157 175 180
173 189 200
162 179 189
164 181 195
166 182 193
167 184 196
170 187 200
165 182 192
164 180 193
170 187 201
169 185 197
169 188 201
164 181 193
170 187 199
159 176 186
163 181 195
121 142 131
79 106 65
80 108 66
80 107 66
76 103 62
77 105 64
77 103 63
75 102 62
71 98 57
79 107 66
81 109 68
79 107 66
80 109 67
75 101 61
74 101 61
78 106 65
76 103 62
78 106 65
78 106 66
76 103 63
79 107 66
105 128 104
162 180 189
157 174 181
163 180 192
168 184 194
176 191 205
176 193 205
155 172 181
161 178 186
168 185 197
168 185 195
166 184 195
160 178 189
160 177 187
173 189 201
172 189 202
158 175 184
166 184 194
166 184 194
166 184 196
167 184 196
145 163 167
106 128 109
112 134 120
113 135 118
119 140 130
122 143 134
139 158 159
128 147 146
138 157 155
143 162 164
155 174 182
151 169 174
152 170 174
156 175 182
154 171 177
162 180 188
170 188 203
166 183 195
169 187 200
164 179 187
163 180 192
118 139 130
82 110 68
76 102 62
78 106 65
79 107 66
78 106 65
80 108 67
77 105 63
79 107 65
77 104 64
79 106 65
74 101 62
76 104 63
75 102 61
77 104 64
77 105 64
78 106 64
80 108 66
77 104 64
79 106 65
134 154 151
166 184 193
160 177 189
164 181 194
153 171 180
162 180 189
170 187 201
171 187 199
169 185 200
169 187 199
170 188 201
163 181 193
161 179 190
167 184 198
156 173 179
151 168 172
141 161 161
106 128 112
98 122 99
115 136 121
169 186 201
172 190 207
167 184 195
168 187 201
160 177 187
164 182 192
159 177 186
153 172 179
149 166 170
154 172 179
142 163 165
134 154 153
138 157 157
126 147 139
111 134 117
119 139 128
119 141 130
98 123 102
146 165 171
167 184 194
165 183 195
162 179 193
166 184 198
172 189 205
178 194 207
169 187 201
172 189 202
168 186 197
172 191 208
170 187 200
173 191 207
166 183 195
170 189 203
165 183 197
168 184 198
165 183 196
91 117 89
78 106 65
77 105 65
81 109 67
78 105 65
79 108 66
78 105 65
80 108 66
78 106 64
76 104 64
76 103 63
84 112 68
79 107 65
75 103 63
82 110 68
80 108 66
105 128 110
174 191 206
164 183 197
168 187 200
167 184 193
173 191 206
172 189 203
169 186 198
170 187 200
160 178 189
175 194 210
173 191 209
177 195 210
173 190 205
173 191 203
176 192 207
149 169 176
78 106 65
81 110 67
80 109 67
81 110 68
79 108 67
83 112 69
78 105 65
81 109 67
79 108 66
171 189 201
173 191 208
173 190 204
137 157 156
143 162 162
181 199 217
169 187 203
164 182 194
174 191 204
169 186 199
167 185 197
174 192 209
166 183 194
173 190 202
174 191 204
172 190 204
167 186 200
168 186 200
174 191 207
173 191 205
164 182 193
167 186 203
172 189 203
172 190 205
110 133 115
81 109 68
77 105 64
80 108 67
111 133 119
168 185 199
172 191 207
164 181 194
172 190 202
162 181 191
170 187 200
161 180 192
171 189 204
173 191 206
168 185 195
169 185 196
168 184 195
162 179 189
175 194 212
165 182 195
141 161 161
79 107 66
79 107 66
80 108 66
83 111 69
79 106 65
78 106 66
80 108 67
77 105 65
80 107 66
78 107 66
83 111 69
77 104 64
78 106 64
78 104 63
104 128 105
140 160 159
162 181 192
166 184 196
171 190 204
168 185 197
155 173 179
78 106 65
81 109 68
79 107 66
79 106 65
79 106 65
78 105 64
79 107 66
77 105 63
78 105 65
79 108 66
81 109 67
80 108 67
77 105 64
81 109 68
77 105 65
79 107 66
79 107 66
84 112 70
81 107 70
102 125 105
124 145 138
135 155 153
117 138 126
111 134 120
83 107 76
79 107 65
73 100 60
80 108 66
78 105 63
77 104 64
80 109 67
77 103 62
79 106 66
111 133 117
132 152 150
163 181 192
160 178 185
168 186 200
170 188 203
166 184 195
170 188 203
165 182 195
157 175 183
121 142 132
78 105 64
80 108 68
73 99 59
78 105 64
76 102 62
78 106 66
79 107 66
77 104 63
77 106 64
78 107 66
81 108 67
79 107 65
76 103 62
75 102 62
75 102 62
78 106 65
73 99 59
81 110 68
82 110 68
75 103 63
82 109 67
138 157 157
165 182 190
171 188 200
155 172 178
166 182 192
165 183 196
164 182 192
173 190 204
174 190 203
171 188 202
169 187 198
166 184 197
166 184 196
172 189 202
164 180 191
163 181 193
160 177 185
166 184 197
170 187 201
172 188 201
166 183 195
160 178 188
122 144 137
117 138 125
136 156 154
155 173 181
169 186 199
170 187 200
171 188 200
166 183 194
166 184 196
164 181 195
163 181 192
172 189 204
160 177 188
155 174 184
168 185 197
175 193 208
163 181 190
167 184 195
165 181 191
170 186 198
170 187 201
165 182 196
155 173 182
77 105 64
76 103 63
79 107 65
74 101 60
77 104 63
72 100 60
75 102 62
81 110 68
74 101 61
79 106 65
73 100 60
76 103 63
76 103 62
81 108 67
76 103 63
80 108 65
78 105 65
81 108 67
78 105 64
76 103 62
78 106 66
100 123 100
160 176 183
160 177 188
172 189 203
163 181 193
168 185 198
166 183 194
160 177 187
163 180 190
167 184 195
163 180 190
170 187 201
163 181 194
166 183 195
168 185 197
162 180 189
166 183 192
164 180 193
165 183 196
167 184 197
161 178 187
175 192 208
143 161 168
77 105 64
79 107 66
75 102 63
71 96 57
76 103 63
75 102 60
74 102 62
75 102 62
73 100 61
81 109 67
76 103 63
75 102 62
78 105 64
80 108 66
80 107 65
75 103 63
74 101 60
80 108 66
75 102 62
77 104 63
76 103 63
148 167 169
162 179 189
157 175 185
167 185 198
173 189 201
167 185 197
172 188 199
161 178 190
153 172 178
151 169 175
141 158 160
130 149 144
138 158 160
124 145 137
111 133 122
114 136 121
100 124 104
96 121 93
81 107 71
78 106 65
76 104 64
141 161 164
163 181 191
164 180 192
170 186 195
169 187 202
162 180 189
156 173 181
160 178 185
165 182 195
165 181 191
171 189 204
158 175 189
163 180 192
166 184 195
162 179 189
169 186 201
169 185 198
171 189 204
161 179 190
164 182 194
161 179 188
82 111 69
80 108 67
77 105 63
79 107 66
81 109 67
79 107 65
79 107 66
74 102 62
80 108 67
81 110 68
74 101 62
78 105 64
76 104 63
83 111 69
76 103 63
81 109 68
80 108 67
76 103 63
79 107 65
94 120 89
161 179 192
161 177 188
167 185 198
175 192 206
166 184 198
164 182 193
168 186 200
156 175 182
135 154 152
141 161 163
110 132 117
93 118 91
82 109 71
77 105 63
79 107 65
79 107 66
78 105 65
80 108 67
79 107 66
159 177 185
173 190 204
166 183 196
170 189 205
172 189 201
163 181 190
172 190 203
170 187 201
178 194 209
173 191 205
159 177 185
171 188 200
162 179 191
169 185 196
165 183 194
171 187 200
164 183 197
171 188 202
154 173 178
79 107 65
75 102 62
93 116 90
110 133 117
109 131 118
129 149 143
123 144 136
142 162 164
125 145 138
145 162 164
155 173 178
155 173 180
172 189 200
169 187 198
174 192 207
166 186 200
174 192 205
134 155 152
81 110 68
77 104 64
78 105 64
73 101 62
80 108 68
81 110 68
82 111 69
78 106 65
78 105 64
78 106 65
82 111 69
78 106 65
78 106 65
79 106 65
82 110 68
81 110 68
153 172 177
167 185 199
170 188 202
179 196 211
168 185 198
170 187 197
165 183 193
172 188 202
167 184 196
170 187 198
173 191 205
178 195 209
171 189 202
175 192 206
161 179 190
169 187 201
123 145 136
80 109 68
83 112 69
82 110 68
81 110 68
83 112 70
82 110 68
80 108 66
80 108 67
172 190 203
139 159 158
102 126 108
84 113 70
135 158 158
166 183 195
171 187 199
178 194 209
168 185 195
173 190 203
171 189 204
174 191 204
172 190 206
172 190 206
177 194 209
176 195 212
169 186 197
176 193 206
172 189 204
166 183 197
173 191 206
170 188 201
170 189 203
174 191 207
116 139 126
86 113 75
129 151 141
158 176 184
167 185 197
174 191 206
179 196 213
175 192 206
170 187 200
174 191 205
173 189 202
170 187 202
175 191 206
171 188 202
167 185 199
165 182 193
170 187 201
167 185 198
176 194 209
172 188 201
150 168 173
78 105 63
82 110 69
78 105 65
83 112 70
80 109 67
80 108 67
75 102 63
80 107 66
83 111 68
83 111 69
79 107 66
87 115 76
129 150 140
148 166 170
168 185 198
167 184 194
165 183 192
167 184 198
175 192 207
166 184 196
164 180 189
81 109 68
79 107 65
84 113 70
79 107 66
79 107 66
76 104 62
80 108 66
80 108 66
81 109 67
74 101 61
82 111 69
79 107 66
79 107 66
81 110 68
80 107 65
77 104 64
79 106 66
78 105 64
77 105 64
74 101 61
79 106 65
134 156 153
172 189 202
166 182 192
174 190 205
162 180 191
156 174 182
145 163 166
137 156 159
122 142 134
91 116 88
115 136 124
162 179 191
166 183 194
167 185 197
165 182 194
161 178 188
161 178 187
172 189 201
164 182 195
168 186 200
172 189 204
167 186 200
127 148 139
79 107 66
81 109 68
77 105 64
74 102 63
78 105 64
78 105 64
81 109 67
79 106 65
76 103 62
78 105 65
78 105 64
77 104 64
79 107 66
75 101 61
79 106 64
77 104 65
78 105 64
78 105 64
79 108 66
82 111 68
79 106 65
128 148 138
164 181 190
157 174 180
163 181 192
162 179 188
166 183 198
167 183 195
168 185 196
171 188 202
161 178 188
164 181 194
167 184 193
166 184 197
169 187 200
165 181 189
168 186 198
166 184 198
167 183 194
148 166 171
138 156 152
111 132 119
92 118 92
109 133 117
161 179 189
162 179 191
172 190 207
168 186 198
163 179 189
167 184 197
168 187 198
164 180 191
162 179 190
168 185 197
163 180 190
166 183 194
168 186 199
174 190 205
165 183 196
168 186 198
173 190 203
154 171 178
167 184 197
154 173 181
165 183 193
164 181 191
88 113 82
79 106 65
78 105 64
76 103 62
82 110 69
78 106 64
77 104 64
75 103 62
77 105 63
76 103 62
75 102 62
79 107 66
76 104 63
78 104 63
79 107 65
79 107 66
78 106 64
78 106 65
78 106 65
82 110 68
81 109 69
78 106 65
148 167 172
172 190 204
160 176 186
169 185 195
164 183 195
171 188 203
174 191 206
165 182 195
166 184 196
161 179 190
158 175 185
159 178 189
163 180 190
173 190 203
162 178 187
162 179 189
161 179 191
167 183 195
176 191 203
159 175 182
174 191 205
171 188 202
84 109 77
79 107 65
79 107 66
82 111 69
77 104 64
79 107 65
79 106 65
74 101 60
76 103 63
76 104 63
77 105 64
78 106 64
80 108 66
78 107 66
76 104 62
80 107 66
80 108 67
75 103 62
74 101 61
99 123 100
105 128 110
131 151 147
138 158 159
137 156 155
116 136 126
104 129 107
109 132 114
92 119 86
78 106 65
77 104 64
76 102 62
77 104 63
76 104 64
78 104 64
77 104 65
77 105 64
77 105 65
77 105 64
80 108 66
79 106 65
79 107 67
74 101 61
102 126 101
162 180 190
165 182 192
174 191 203
170 187 200
160 178 188
172 189 203
170 185 197
158 175 185
173 191 205
163 180 192
166 184 196
157 175 182
176 194 210
162 180 192
170 188 203
166 183 195
161 179 189
168 186 198
169 187 199
172 189 200
118 141 127
80 108 67
80 108 67
79 108 67
82 110 68
80 109 67
76 104 63
75 102 62
77 104 64
77 105 65
79 107 65
80 108 67
79 106 64
78 105 64
78 106 65
75 103 63
78 105 65
75 102 62
90 115 83
101 124 108
138 157 156
145 166 172
124 143 137
121 140 132
100 124 101
85 113 75
76 102 63
80 108 67
77 104 63
75 103 63
78 106 65
79 107 65
79 106 65
74 101 61
79 106 64
79 106 65
76 103 63
81 109 67
82 110 68
111 133 120
176 193 209
167 183 191
170 187 199
167 185 199
168 185 196
162 180 191
178 195 211
172 190 205
168 186 200
162 179 190
164 181 194
166 183 196
169 186 201
166 183 196
169 186 200
166 183 195
177 194 209
163 180 190
132 152 147
77 105 64
75 102 62
79 107 66
78 106 66
76 103 62
80 108 68
77 105 64
78 106 65
82 111 69
79 107 66
75 102 62
82 109 72
100 125 101
102 125 105
118 139 131
122 143 134
144 163 166
99 124 99
111 134 119
88 114 83
83 111 71
80 108 66
80 108 66
82 110 68
79 107 65
79 106 65
82 111 69
85 113 70
79 106 65
83 113 70
82 110 68
80 109 67
80 108 67
90 117 82
157 175 183
177 195 211
180 197 214
163 182 191
177 195 211
173 190 203
170 188 203
170 188 203
165 185 199
171 188 200
173 192 207
171 190 208
169 186 196
171 191 207
165 182 194
164 181 194
99 123 101
79 107 66
81 109 68
84 113 71
81 110 68
77 106 65
81 109 68
77 105 65
94 121 89
78 106 65
82 110 68
78 106 65
151 170 174
175 193 209
172 190 205
173 191 206
175 192 205
166 184 194
170 187 198
168 186 199
168 186 200
170 189 205
175 192 207
172 190 205
172 191 206
163 182 194
178 196 212
173 190 205
174 193 209
171 189 205
183 200 216
166 184 195
142 162 162
174 192 206
164 182 194
174 191 206
168 186 201
172 190 204
168 186 199
168 185 197
164 184 195
170 188 200
168 185 196
177 194 208
175 192 207
165 182 195
174 192 208
169 186 197
164 182 195
168 186 197
181 197 212
163 181 193
148 166 170
80 108 67
77 104 64
80 108 67
81 110 69
83 112 70
81 110 68
73 101 61
80 108 67
81 110 68
112 135 118
144 162 167
164 182 192
176 193 210
171 187 199
163 180 191
164 182 195
159 177 188
173 191 207
171 189 201
172 190 204
154 172 179
79 107 67
80 108 67
76 104 63
78 107 66
82 111 68
80 107 66
73 100 60
76 103 63
75 102 62
78 106 65
79 106 65
80 108 66
80 108 66
76 104 64
78 106 65
78 106 66
80 108 67
82 110 69
78 106 65
81 109 68
77 105 64
116 137 127
168 184 194
169 187 201
170 188 201
174 192 206
167 184 198
144 163 167
126 147 141
99 125 98
80 108 66
77 104 63
76 103 63
98 123 96
107 130 109
123 145 136
123 143 137
141 162 164
148 168 174
160 177 185
152 171 176
165 182 195
173 189 202
132 152 150
79 106 65
77 104 63
77 105 64
85 114 71
80 107 66
76 103 62
78 106 65
76 103 63
78 106 66
80 108 67
83 111 69
76 102 62
80 107 66
82 110 67
76 104 62
77 105 64
81 109 67
77 105 64
78 105 65
76 104 63
78 105 64
103 125 106
175 192 207
167 185 197
155 172 180
161 178 187
172 190 206
168 185 197
169 187 202
170 186 198
165 182 192
165 182 194
169 185 198
170 187 200
169 186 197
147 165 167
134 153 151
112 134 120
88 114 81
74 101 60
78 106 64
75 102 62
77 104 63
80 106 69
158 176 185
161 178 187
167 185 197
163 181 194
169 186 198
173 190 205
167 183 196
167 184 194
174 190 202
164 181 194
163 181 192
162 179 192
167 185 196
169 186 199
169 187 199
165 183 196
160 178 186
175 192 206
168 185 197
161 179 190
166 183 195
163 181 193
125 146 138
79 107 67
80 108 67
79 107 66
76 103 62
76 102 63
81 109 67
78 106 65
81 109 67
77 104 64
76 103 63
76 103 63
80 108 66
74 101 62
79 107 66
79 107 66
77 105 65
77 103 63
78 106 65
82 110 69
80 107 65
79 107 66
141 161 162
164 181 194
164 181 192
165 183 193
170 188 201
166 182 191
171 189 202
163 181 192
162 179 192
159 176 185
165 183 196
162 179 187
174 192 208
166 183 192
162 180 190
156 173 181
158 175 183
174 189 204
169 186 198
169 186 200
159 176 183
174 190 203
126 147 137
76 103 63
75 102 61
76 103 63
82 111 70
80 108 67
76 103 63
74 101 62
77 104 63
79 106 65
80 107 71
104 128 107
101 123 107
113 134 121
129 149 146
139 159 161
153 171 178
164 181 190
167 184 197
173 190 203
169 186 196
156 175 185
82 108 71
79 108 67
75 103 63
78 105 64
76 103 63
77 105 64
80 107 65
76 103 63
79 106 65
79 106 65
80 108 66
78 105 65
75 102 62
80 109 67
77 105 64
78 105 64
82 110 68
77 105 64
77 105 65
76 103 62
81 109 68
153 171 180
165 183 195
169 187 200
167 185 197
160 178 189
171 189 203
169 187 200
162 180 189
170 187 198
166 184 196
170 187 201
171 187 201
167 186 199
171 187 200
174 190 201
158 175 184
169 186 199
168 186 199
173 191 207
161 178 188
155 173 180
76 103 62
83 112 70
78 106 65
76 103 63
77 104 63
80 108 67
83 112 70
80 109 67
80 108 66
92 117 89
95 119 94
126 147 138
124 146 136
141 161 163
148 168 171
152 171 180
153 169 179
166 184 199
174 191 206
163 180 192
86 113 77
75 102 62
81 110 68
81 110 67
77 106 65
83 112 70
83 112 70
78 105 64
77 104 63
77 105 65
76 103 63
76 102 63
79 107 65
80 108 67
79 106 65
80 108 66
83 112 70
75 103 63
78 106 65
141 161 162
169 186 198
161 179 190
168 185 196
168 186 198
167 185 197
171 188 199
166 184 196
175 193 208
173 190 203
168 184 195
163 181 191
169 187 201
173 190 203
169 187 201
166 183 194
160 178 188
176 193 207
164 180 190
83 110 71
79 108 67
82 111 69
77 105 64
81 109 68
80 108 66
76 103 63
81 108 66
77 105 65
77 105 64
79 107 65
81 110 68
78 106 65
80 108 67
78 106 66
81 110 68
77 105 64
114 137 120
172 189 202
177 194 209
168 185 197
160 177 185
162 181 190
134 155 152
128 148 145
122 143 132
104 128 112
88 114 81
82 110 67
77 104 64
83 112 70
78 105 64
84 113 70
78 106 65
115 138 126
169 187 203
173 190 205
168 185 197
178 196 213
170 188 203
172 190 204
170 188 202
172 190 204
176 194 211
178 195 211
175 193 207
176 194 211
170 188 202
176 192 207
171 188 201
160 177 184
80 109 67
78 106 65
82 111 69
83 112 70
79 107 66
77 104 63
83 112 71
80 108 68
82 112 69
84 113 70
79 108 67
150 168 172
172 191 205
172 190 203
173 191 207
168 185 196
176 194 209
175 192 206
174 192 208
165 182 193
170 188 203
171 188 201
167 184 196
172 190 204
166 183 195
172 190 206
169 186 199
172 190 206
154 172 178
119 141 126
84 113 70
167 185 197
174 191 204
174 191 205
168 186 200
172 190 203
170 189 202
175 193 210
168 186 199
168 185 197
176 192 205
172 189 205
168 186 200
172 190 205
175 193 208
173 190 204
171 189 202
167 184 196
177 195 211
163 182 193
173 189 202
161 179 186
78 107 66
80 109 67
81 109 67
80 108 67
85 115 72
79 107 65
86 113 78
122 144 137
157 175 184
171 188 199
167 186 199
171 189 203
171 188 202
162 179 189
167 183 195
161 179 190
175 192 208
161 179 190
167 185 199
169 186 197
168 187 199
80 107 65
76 104 64
83 111 69
81 110 67
79 107 66
78 106 65
81 109 68
80 108 66
79 106 65
84 113 70
77 105 64
80 109 67
75 102 63
78 105 65
82 111 68
82 111 68
83 111 70
78 106 66
77 105 65
76 104 63
81 109 67
116 138 128
170 188 203
166 184 197
144 163 166
116 138 127
88 116 78
73 100 59
80 107 65
79 106 65
81 109 66
78 106 66
78 105 64
80 109 68
80 108 68
77 105 64
78 106 65
77 104 63
76 104 64
82 111 68
80 108 66
77 105 63
93 115 93
111 134 116
145 163 162
140 159 160
128 147 140
112 134 117
109 132 115
98 123 100
82 109 73
78 106 65
77 105 65
80 108 67
77 104 63
81 109 68
77 104 64
79 107 66
83 111 69
82 110 68
78 105 64
76 102 62
79 106 65
77 104 63
77 103 63
89 116 82
161 179 189
168 185 197
168 185 198
170 187 200
171 187 202
163 182 195
168 184 195
168 186 200
168 184 196
162 179 188
142 161 161
116 139 128
87 114 81
77 105 64
81 109 68
76 104 63
82 111 69
81 109 67
80 108 67
80 108 66
76 103 63
75 102 62
162 179 190
161 179 189
174 190 203
171 188 202
166 184 197
167 185 199
161 178 191
167 186 202
168 185 200
160 179 191
159 176 185
163 179 188
166 184 198
173 191 205
160 177 184
170 187 201
172 188 199
165 183 193
171 186 197
158 174 182
160 178 186
165 184 195
133 154 155
79 107 65
76 104 63
77 103 63
77 104 64
72 99 60
79 106 65
77 105 64
78 105 63
79 107 66
80 108 67
83 112 70
79 107 66
79 107 66
81 109 68
81 110 68
80 108 66
78 105 64
78 105 64
78 106 65
76 103 64
78 105 64
99 123 102
151 170 178
176 192 206
162 179 188
163 179 187
164 180 192
168 187 199
168 185 195
165 182 192
167 185 198
162 180 191
168 185 198
164 182 191
164 182 194
171 188 202
161 179 189
171 187 199
167 184 196
173 189 202
168 186 200
158 176 186
168 186 198
138 157 158
78 105 64
76 103 62
86 113 80
106 128 113
117 138 128
139 158 156
141 159 159
147 164 172
160 178 187
165 183 195
174 191 205
158 173 181
167 185 200
155 172 180
171 187 201
165 183 193
173 189 204
160 177 186
176 193 209
166 185 198
165 182 192
123 144 138
74 101 61
84 113 70
77 104 64
75 102 62
78 105 64
73 99 60
73 100 60
75 102 61
76 103 63
80 108 66
78 105 63
78 105 63
78 106 65
79 107 66
81 109 68
79 107 66
78 105 64
74 102 62
78 106 64
76 104 64
120 140 128
166 183 194
169 186 197
169 185 197
156 173 181
163 180 189
161 178 187
165 183 196
161 179 188
171 188 199
164 181 193
170 187 200
164 183 195
165 183 194
160 177 188
173 191 205
158 176 187
169 186 199
168 185 196
162 181 193
163 180 191
108 131 115
118 139 128
118 139 127
119 140 130
144 162 163
145 164 165
145 164 166
148 166 171
161 179 189
169 186 196
170 187 201
168 185 199
169 188 203
169 186 201
167 184 196
157 175 184
164 182 192
169 185 196
167 185 199
170 187 200
121 142 136
78 105 64
84 113 70
77 105 64
78 106 64
77 105 64
80 108 67
76 104 63
76 104 64
76 104 63
77 104 63
78 106 65
77 105 65
78 106 65
77 105 64
80 108 67
81 109 67
82 111 69
83 112 71
102 124 105
162 180 192
176 192 206
173 191 206
167 184 194
160 179 190
168 186 199
165 183 193
161 179 190
170 187 199
176 194 210
167 184 195
167 185 197
170 187 198
166 183 195
167 184 196
162 180 190
175 194 211
177 195 211
132 151 149
76 104 63
76 104 63
77 104 62
79 106 65
78 106 64
80 108 66
82 110 68
82 111 69
83 113 71
82 111 68
79 107 66
77 105 64
83 111 69
79 106 65
77 104 64
80 109 67
80 108 66
139 161 162
169 187 200
175 193 208
168 186 199
172 190 204
169 187 200
180 198 218
171 190 203
163 181 191
169 187 200
161 179 188
155 174 179
142 161 161
132 155 151
111 134 123
97 123 98
92 116 90
150 168 173
173 191 206
176 193 211
172 190 205
165 184 197
173 191 205
172 190 205
170 189 203
169 187 199
173 190 205
170 188 202
176 193 210
166 186 202
171 190 205
173 191 204
170 187 200
126 146 138
78 105 63
83 112 69
77 105 65
79 107 66
80 108 67
80 109 68
81 110 69
84 113 70
81 110 68
81 110 68
167 185 197
169 186 200
175 192 207
174 192 206
177 196 211
169 187 203
179 195 211
172 190 204
169 185 196
167 186 201
178 197 213
177 194 209
170 188 203
167 185 197
171 189 202
147 167 170
114 137 124
85 114 70
79 107 66
82 110 68
173 192 207
172 190 206
166 185 200
177 195 211
169 186 198
169 186 197
174 192 206
165 183 194
172 190 204
170 188 200
175 193 209
170 188 203
177 195 210
169 186 200
168 185 198
172 189 202
174 192 209
174 191 205
166 183 196
162 180 189
155 174 181
83 112 70
77 106 65
80 107 67
83 111 72
115 138 125
141 160 160
169 186 197
167 185 198
172 189 202
170 187 201
179 196 213
169 187 202
167 184 195
168 186 199
168 184 196
170 187 199
175 192 206
176 192 205
169 187 200
178 195 211
168 185 199
84 113 73
81 109 69
78 104 64
77 104 64
76 103 63
82 110 68
77 105 64
80 108 67
81 109 68
77 104 64
82 110 68
78 107 66
81 109 67
79 107 65
80 108 67
79 105 64
75 102 63
80 108 66
79 108 66
78 106 64
88 115 79
121 142 131
120 141 134
88 116 78
79 107 66
77 104 63
80 108 67
81 109 68
76 104 63
80 108 66
79 108 67
81 109 67
80 109 69
77 105 64
80 109 67
81 109 67
82 111 68
77 103 63
80 108 66
79 107 65
79 107 65
78 106 65
77 105 64
108 131 112
173 191 206
167 184 199
172 190 203
163 181 194
163 181 192
162 180 190
167 184 195
163 181 190
160 179 191
146 165 169
145 162 163
144 164 165
133 154 148
122 141 136
107 128 114
118 139 126
96 119 93
80 107 69
79 108 66
75 103 63
79 107 65
77 106 65
161 179 189
175 192 205
157 175 187
174 191 204
174 190 205
164 181 190
144 162 163
114 137 126
85 111 81
82 110 68
80 109 67
81 109 68
85 115 73
80 108 67
76 103 63
81 109 67
78 106 64
79 107 66
76 104 63
83 111 68
81 109 67
77 104 63
139 158 157
172 188 200
167 184 196
167 184 196
165 183 197
163 181 192
167 185 198
169 185 200
169 186 199
159 178 191
158 174 182
172 190 202
179 196 210
165 182 193
171 188 202
175 192 207
168 186 196
169 187 202
168 184 195
166 184 198
173 189 203
165 182 195
145 164 169
79 106 65
77 105 64
78 106 65
79 107 66
76 104 63
80 108 66
78 105 64
75 101 61
79 107 65
78 105 64
81 109 68
79 107 65
83 112 70
79 107 65
77 105 64
83 111 69
79 107 66
79 107 66
75 102 63
78 106 65
78 105 63
83 111 71
160 177 187
173 189 203
168 185 197
167 183 194
167 184 196
171 188 200
166 183 194
160 177 184
172 189 203
167 185 196
166 184 196
169 188 204
169 185 196
171 189 204
170 187 200
169 187 200
168 185 196
157 175 182
155 174 182
134 154 151
121 143 134
104 127 109
155 171 178
169 186 199
170 187 198
175 192 207
160 178 189
165 182 191
171 189 202
167 184 198
169 187 200
175 192 207
166 184 195
160 178 189
161 179 190
172 190 203
169 187 201
159 178 187
156 173 181
166 183 195
176 193 207
167 185 197
164 181 191
148 167 173
77 104 64
81 110 68
81 109 68
80 108 66
74 101 61
75 102 62
78 105 64
81 108 66
82 111 68
79 108 67
78 105 64
76 104 63
79 107 65
78 105 64
80 108 66
76 103 62
79 106 66
78 105 64
74 102 62
80 108 66
87 113 80
169 186 199
171 189 204
164 182 192
163 181 191
166 183 193
158 176 185
170 187 200
168 185 197
167 186 199
166 184 196
149 168 170
143 163 167
137 156 157
139 159 160
132 152 150
114 135 128
105 129 106
95 119 97
82 109 73
82 110 69
112 135 120
166 185 197
175 193 210
173 191 205
163 181 192
166 182 191
165 182 192
160 177 186
168 184 196
164 182 195
170 188 203
172 189 203
164 181 190
166 183 194
164 182 195
162 179 189
168 185 196
165 181 190
168 186 199
175 192 209
154 172 178
86 112 79
77 105 64
80 108 66
83 112 70
80 108 66
80 108 66
79 107 65
80 108 67
81 109 67
77 104 63
77 105 64
76 103 63
81 109 67
79 107 66
80 107 66
80 108 67
80 108 65
82 110 68
80 108 67
138 158 158
170 187 199
160 179 188
165 183 196
170 186 197
167 185 198
168 186 200
171 189 204
169 187 200
174 192 207
164 183 193
170 189 202
174 192 207
171 188 202
169 187 200
168 185 199
167 184 197
172 189 201
173 190 204
91 115 88
74 102 63
80 108 67
77 105 64
79 107 66
78 106 66
81 109 67
82 111 69
79 107 65
79 107 66
78 107 66
75 103 62
80 109 68
78 105 65
81 110 68
79 108 67
84 113 70
86 114 76
170 189 202
168 185 199
164 181 192
173 190 204
176 193 207
176 193 209
177 194 209
180 197 213
166 183 194
169 188 204
167 187 204
164 183 195
178 195 210
165 182 191
167 185 199
169 188 201
165 183 194
120 140 129
123 144 136
126 148 141
148 167 174
153 173 182
170 186 196
169 187 202
175 192 207
165 184 197
169 187 202
173 191 207
166 185 199
178 196 214
173 192 209
167 185 198
176 195 211
99 124 99
83 112 70
82 110 68
82 111 69
81 109 67
82 111 69
85 114 72
80 109 67
84 113 71
83 112 69
167 185 197
172 190 204
169 187 200
173 191 207
176 193 208
176 193 208
166 184 196
175 193 208
181 197 213
174 193 210
175 192 206
167 184 195
163 181 192
134 156 154
106 132 113
80 108 67
78 106 64
85 114 71
81 110 68
82 110 68
170 187 200
178 195 211
175 193 209
169 186 198
172 189 204
161 179 188
173 190 204
174 191 205
168 186 200
176 193 206
177 195 211
170 188 202
165 182 195
168 185 199
165 182 193
174 192 208
167 186 198
178 195 210
172 189 202
167 186 200
151 169 174
84 113 70
90 116 84
132 152 148
161 178 189
175 191 203
179 196 212
174 192 209
168 186 200
160 179 190
175 192 206
163 181 191
164 181 189
161 178 187
167 183 191
180 198 214
168 184 194
175 192 207
163 180 190
167 184 196
162 180 190
170 187 202
89 116 82
75 103 62
84 114 72
80 108 66
81 108 66
83 111 69
81 109 68
81 109 67
78 106 65
78 106 65
79 107 66
79 107 65
79 107 65
79 106 65
78 106 65
82 111 68
76 104 64
81 109 67
110 132 117
142 161 162
169 186 198
151 169 173
84 113 71
79 108 66
79 107 65
81 109 67
80 108 66
81 108 66
80 108 67
78 106 65
77 105 65
82 111 70
82 110 68
78 106 65
81 108 66
83 112 70
78 106 64
76 103 63
78 105 64
81 109 68
80 108 67
76 103 63
79 106 65
96 122 92
169 186 200
173 190 205
160 176 186
161 179 191
163 180 189
176 193 211
171 189 201
171 187 200
167 184 196
176 192 206
171 188 202
163 181 190
159 176 185
169 186 200
166 183 194
170 187 201
163 181 192
162 178 187
168 184 195
153 171 174
143 162 166
142 160 162
133 153 147
126 147 141
153 170 176
148 167 172
130 150 145
114 137 122
110 131 117
92 116 90
90 116 88
77 104 66
76 104 64
81 109 68
79 107 65
80 107 66
75 102 62
79 107 66
76 102 62
82 110 68
80 108 67
81 109 67
80 108 66
80 108 66
121 143 133
165 182 190
163 180 189
167 184 197
173 190 204
162 179 190
169 186 199
158 175 184
168 185 196
165 182 195
167 184 195
178 195 210
161 179 189
169 187 200
166 183 195
165 182 195
167 184 194
169 186 200
173 190 202
173 191 205
167 184 195
166 183 195
179 195 211
80 105 69
76 104 63
77 105 64
82 110 68
80 109 66
82 111 68
76 103 63
77 105 64
78 106 65
74 101 61
76 102 62
77 105 64
77 104 63
77 105 64
77 105 64
82 109 67
79 106 65
76 103 63
81 108 66
77 105 65
76 104 63
76 103 62
138 157 160
168 185 199
167 185 195
168 185 195
169 187 201
159 177 185
172 189 201
165 183 195
161 179 186
176 193 211
160 179 188
154 172 178
140 159 155
140 160 159
113 134 121
99 123 100
89 114 80
75 103 62
83 111 68
78 106 65
81 109 68
79 106 65
133 152 149
172 190 204
162 180 190
168 186 201
179 194 209
170 186 199
173 190 202
169 187 202
173 190 204
159 176 185
179 196 211
171 188 201
175 192 205
160 178 190
159 176 184
162 180 190
159 177 186
170 186 199
172 189 205
176 193 208
163 180 191
173 190 205
102 126 104
79 106 65
78 105 64
78 105 65
78 105 65
80 108 67
80 107 65
77 104 64
81 109 67
81 109 67
83 111 69
81 109 67
78 106 64
79 107 67
79 106 66
82 110 70
85 111 77
98 123 97
97 121 97
105 128 106
130 148 140
141 160 162
137 156 157
130 151 144
120 142 130
116 139 127
110 133 116
109 133 114
82 108 71
77 105 64
81 109 67
79 106 65
83 111 68
81 109 67
79 107 66
79 106 65
79 108 67
76 103 63
73 101 61
75 102 61
81 110 68
78 105 65
160 178 185
165 183 194
173 191 205
170 188 201
169 187 199
166 184 198
161 179 191
170 187 203
175 193 211
167 185 196
170 186 197
167 185 198
166 184 195
172 189 203
176 193 208
166 184 194
164 182 192
168 186 196
165 182 192
163 180 193
125 146 137
80 108 66
80 109 67
80 108 67
79 107 66
82 109 67
82 110 68
76 103 63
80 107 65
83 112 69
78 106 64
74 101 61
80 109 67
77 104 64
80 108 66
80 108 67
81 109 68
80 108 66
78 106 65
95 121 91
167 184 195
176 194 212
176 193 207
167 185 197
164 182 195
168 185 195
174 192 209
172 189 202
163 179 188
176 193 208
167 186 199
170 188 205
166 184 197
170 187 203
166 184 197
175 192 206
175 192 207
165 184 197
135 155 152
81 109 67
84 112 70
83 111 69
79 107 66
82 110 67
82 111 69
82 111 69
80 108 67
81 110 68
80 108 67
78 105 65
84 113 70
82 110 67
81 109 68
81 110 69
78 106 65
79 106 64
126 148 139
166 184 195
176 193 209
165 183 195
171 188 201
170 187 198
172 190 204
173 192 207
167 184 196
168 186 198
171 188 202
164 183 196
173 190 207
175 193 207
169 187 201
167 184 196
171 188 200
145 166 171
84 113 70
78 106 65
78 106 66
79 107 66
83 110 76
111 135 120
132 152 147
148 168 169
147 167 172
163 182 194
172 189 204
170 188 200
171 190 207
175 193 209
170 187 202
149 168 172
81 109 67
80 108 67
84 113 70
79 107 66
81 111 69
82 111 68
79 108 67
80 108 67
82 110 71
171 189 202
180 197 213
174 191 204
165 184 198
172 189 205
174 192 206
174 191 204
171 188 204
171 189 203
164 182 194
171 188 201
136 157 154
90 118 84
85 113 70
83 112 69
80 108 66
80 108 66
82 111 68
86 116 72
82 110 71
179 197 215
170 187 199
165 182 195
167 186 200
173 191 205
175 192 209
171 190 206
171 189 203
176 194 210
168 186 200
167 184 196
177 195 211
169 187 201
163 180 191
174 191 204
175 193 209
175 192 207
171 189 203
170 187 201
173 191 203
146 165 167
150 169 171
167 184 197
179 196 213
173 191 206
165 184 198
174 191 204
174 193 208
169 187 201
172 190 205
168 186 200
168 185 198
173 190 204
167 184 196
168 184 197
168 186 202
161 179 189
172 190 204
170 187 200
163 182 192
170 188 203
172 189 202
86 112 81
81 109 68
84 113 71
78 106 65
78 106 65
79 107 66
81 109 67
82 110 68
85 114 72
81 110 68
77 105 65
83 111 69
82 111 68
75 103 63
80 109 68
105 129 111
130 148 144
168 187 199
174 191 207
170 186 199
171 188 201
165 184 195
79 107 66
78 106 64
83 112 70
78 106 64
84 112 70
78 106 66
79 107 65
78 106 65
77 105 64
81 109 67
77 105 65
81 109 68
77 104 64
79 107 65
79 107 65
76 104 64
82 111 69
81 110 68
79 107 65
77 104 64
77 105 63
80 108 67
161 178 189
177 195 212
169 187 200
175 191 207
170 188 204
169 187 202
164 181 191
161 180 192
178 196 211
170 187 199
164 182 191
164 181 191
171 188 200
163 182 191
172 189 202
160 178 191
160 177 185
159 178 189
166 184 197
165 181 191
160 179 189
129 150 146
141 159 158
165 182 191
177 194 211
164 182 192
168 187 200
171 187 201
173 191 205
173 190 205
175 191 206
162 180 189
160 178 190
160 179 188
149 167 170
148 166 171
138 157 153
138 157 158
143 163 168
133 152 151
111 133 118
119 141 130
113 136 123
108 129 112
111 132 116
159 177 188
163 180 189
168 186 198
155 173 179
170 187 199
168 185 199
170 188 202
170 188 200
176 192 205
167 184 197
165 183 195
170 188 201
169 187 200
159 177 185
167 184 196
161 179 189
174 191 209
159 177 187
169 186 197
167 184 198
163 179 188
172 189 204
120 141 131
77 104 64
78 105 64
75 103 63
82 110 69
79 107 66
79 107 67
79 107 66
79 108 67
75 102 62
76 103 63
81 109 67
82 110 68
84 112 70
76 104 63
78 107 66
82 110 68
78 105 64
80 107 66
76 103 62
81 110 67
79 107 66
107 130 115
169 185 196
166 182 192
172 189 202
161 179 192
152 171 179
137 156 156
124 144 140
115 136 123
88 113 84
73 100 61
78 105 64
79 107 66
75 102 63
74 101 62
81 109 66
79 107 65
72 99 60
79 107 65
79 107 65
77 104 64
84 113 70
112 133 119
174 192 207
166 184 195
163 180 190
168 184 196
166 184 195
176 193 207
172 188 201
160 178 189
170 187 200
163 180 191
165 183 196
165 182 194
166 183 197
170 187 201
165 183 197
166 183 195
172 188 201
161 179 189
166 183 194
167 183 194
169 187 201
126 146 140
93 117 92
94 116 94
120 141 130
126 147 138
129 148 143
118 140 128
139 158 161
138 158 161
143 163 167
148 166 172
149 168 174
145 164 167
162 180 188
159 177 187
161 179 188
162 180 190
167 185 197
169 186 199
176 192 207
165 182 192
158 176 182
78 106 64
81 110 68
82 110 68
82 110 69
80 108 67
79 106 65
81 109 67
76 103 63
84 113 70
81 109 67
74 101 61
83 111 68
81 109 67
80 108 66
81 110 69
80 108 67
75 102 61
79 107 67
76 103 63
82 111 69
111 134 119
178 194 209
173 191 206
164 183 196
154 173 180
165 182 193
169 186 196
164 181 193
165 181 192
162 180 192
169 188 201
170 188 202
161 179 187
171 186 199
166 184 195
166 184 196
164 180 188
159 177 188
162 179 189
168 187 202
151 169 175
84 111 74
82 111 70
78 106 65
82 110 67
78 106 65
79 107 66
78 106 65
78 106 64
79 108 66
81 109 67
80 108 67
81 110 68
80 107 66
79 107 67
80 109 67
80 109 67
83 112 70
77 104 63
77 104 63
138 157 157
168 186 198
177 194 211
172 189 201
175 192 207
167 184 196
165 182 192
171 188 202
167 185 198
165 182 192
164 182 194
172 189 204
172 189 203
170 188 203
162 182 194
165 183 196
176 193 209
172 190 203
170 188 200
103 128 107
78 106 65
79 107 65
78 106 65
81 109 67
80 108 68
80 108 67
80 108 67
79 108 67
79 107 66
78 105 64
76 104 64
80 109 67
79 108 67
80 108 67
79 107 65
82 111 69
84 113 74
164 181 190
172 190 206
166 184 197
178 195 210
170 187 201
176 193 210
170 188 203
171 189 204
175 192 207
165 183 196
176 194 211
171 188 202
177 194 209
162 180 192
178 196 212
176 193 208
174 192 207
106 129 108
77 105 64
78 106 65
81 110 67
80 108 67
81 109 67
78 106 66
83 112 69
75 103 62
82 111 69
83 110 73
118 141 126
115 137 125
141 162 162
159 179 188
177 193 207
126 147 141
80 108 67
79 108 67
82 111 69
81 110 69
80 109 67
83 112 70
82 111 69
98 123 96
172 190 204
166 184 195
181 199 217
175 193 209
169 188 202
165 183 192
173 191 207
177 194 207
176 193 208
128 149 140
82 111 72
81 109 68
76 103 63
77 105 64
82 111 69
83 112 70
77 104 64
82 110 68
77 106 66
88 114 81
164 183 194
178 197 214
169 187 199
171 189 205
168 186 200
168 187 199
172 189 207
163 182 194
169 186 201
171 189 203
174 191 207
171 189 201
169 189 204
157 174 182
186 203 221
165 182 192
172 189 204
165 183 193
136 155 154
100 122 98
111 135 121
171 190 203
167 187 203
164 181 193
170 188 200
167 186 201
175 192 208
178 195 210
161 180 190
171 189 203
173 191 204
173 191 205
170 188 203
174 192 207
169 186 200
173 190 206
170 189 202
166 184 196
168 187 201
171 189 203
175 193 209
174 192 205
95 120 94
77 104 64
81 109 67
78 106 65
79 108 67
83 112 70
82 110 68
81 109 67
80 108 66
82 110 68
79 108 67
80 109 67
100 124 99
128 148 144
148 168 173
169 186 199
173 190 206
176 193 208
173 190 202
168 186 198
177 193 209
167 185 199
82 109 67
82 111 70
79 107 66
80 108 67
83 112 70
80 108 67
81 109 68
83 112 69
82 111 68
80 108 67
83 112 70
78 106 65
80 108 66
83 111 69
82 111 69
80 108 66
82 110 68
80 109 67
85 113 70
79 107 65
76 103 64
79 106 65
168 185 195
160 179 187
166 184 198
171 188 203
170 187 199
167 185 198
161 178 189
161 179 189
169 186 199
169 187 201
172 189 202
162 179 190
172 189 203
163 180 191
166 184 196
174 190 204
168 186 198
131 151 148
117 139 129
88 114 82
80 108 67
80 108 66
117 138 124
167 184 197
177 194 208
164 182 192
166 184 197
173 189 202
160 177 187
166 185 198
172 190 205
165 184 200
168 184 195
170 188 202
173 190 204
166 184 197
164 182 194
169 185 199
169 187 200
165 183 195
174 193 208
168 186 198
167 184 196
170 187 201
165 183 197
89 114 89
73 100 60
78 106 64
77 104 64
76 104 62
83 110 73
83 110 73
92 116 91
98 123 97
111 132 115
102 125 103
116 137 126
112 133 118
117 137 125
118 139 127
118 138 126
134 154 152
142 162 162
134 155 148
141 158 159
149 167 173
138 156 156
123 146 137
119 139 132
111 133 119
117 139 126
121 142 129
119 142 131
120 141 130
101 125 105
106 127 113
104 127 108
103 126 105
98 122 99
98 122 96
91 115 90
94 118 91
93 119 90
92 117 87
93 118 90
91 116 86
97 123 97
102 127 103
86 113 78
116 138 126
144 164 166
122 143 133
112 134 119
92 119 86
91 117 87
91 115 85
95 121 93
92 117 89
108 132 117
114 137 120
98 122 99
98 122 97
92 117 90
106 130 113
103 125 106
119 140 130
102 127 102
110 131 114
112 135 119
119 141 129
114 136 122
121 142 133
147 166 170
140 159 162
146 165 172
126 146 141
130 151 147
138 158 158
120 140 134
126 146 138
125 145 139
128 149 142
116 139 121
109 131 116
107 130 110
103 125 107
106 128 113
89 115 83
90 116 84
79 107 65
82 110 68
79 107 66
73 100 60
97 121 97
167 184 196
165 184 197
171 189 203
173 189 202
167 184 196
172 190 204
163 182 196
169 187 199
161 178 189
167 185 196
161 178 189
168 186 197
166 182 192
167 185 197
161 179 187
158 176 184
174 190 205
166 183 197
171 188 200
160 178 188
162 179 188
102 125 106
80 108 67
82 110 68
78 104 63
82 110 68
81 110 68
79 107 66
79 107 66
78 107 66
78 106 65
77 104 64
76 104 63
80 109 67
78 106 65
79 107 66
77 104 64
80 108 67
79 107 66
80 108 67
78 107 65
80 107 69
157 175 183
170 187 200
171 188 202
162 179 189
169 186 199
163 180 191
168 184 196
172 189 203
167 184 196
170 188 200
170 187 202
174 191 204
165 181 192
165 183 195
169 188 204
165 181 189
168 186 197
168 186 199
170 188 202
162 180 190
113 134 125
82 111 69
78 106 65
82 111 69
77 105 64
78 106 65
77 105 64
82 111 68
82 111 69
80 108 67
82 109 68
82 111 69
81 109 67
83 111 68
77 105 65
81 109 68
79 107 66
83 111 69
80 109 67
90 115 87
169 187 201
167 184 200
167 185 198
161 179 189
161 179 190
169 187 200
163 180 192
162 180 189
167 185 196
169 188 203
173 190 204
165 183 192
166 182 193
170 187 200
176 194 209
163 181 191
169 186 198
177 195 209
149 168 174
79 106 65
81 109 67
76 104 64
80 108 67
83 112 70
80 107 66
78 107 66
83 112 70
83 112 70
78 105 65
82 110 68
82 110 69
80 108 66
84 112 70
80 108 66
79 107 66
79 107 66
112 135 118
173 190 206
166 183 197
172 189 200
172 189 201
169 186 198
165 184 196
172 189 202
171 188 201
166 184 198
164 183 191
176 194 209
168 186 200
171 190 207
160 179 190
167 185 198
161 180 190
166 184 196
86 112 77
84 113 70
83 112 69
83 112 69
83 112 70
78 106 65
78 106 64
87 116 73
83 112 70
77 105 64
81 110 69
83 112 70
82 110 68
83 112 69
80 109 67
105 129 107
131 151 143
126 147 140
108 132 111
89 117 81
76 103 63
82 111 70
84 112 70
111 135 118
176 193 209
172 190 205
173 191 207
177 195 211
176 194 209
173 190 204
158 175 182
125 147 139
86 115 75
83 113 71
85 114 72
82 112 70
81 109 67
79 108 67
80 109 68
79 108 66
81 109 67
82 111 69
82 111 70
97 122 96
169 187 201
174 192 206
171 188 201
166 184 197
163 182 193
167 185 199
171 188 201
169 187 201
173 190 203
166 183 197
175 194 211
172 189 205
173 191 205
176 193 208
166 184 198
162 180 190
125 146 140
89 116 85
82 110 69
80 108 66
108 132 113
165 183 195
176 193 209
169 188 202
170 186 198
172 190 204
177 195 211
167 185 199
173 191 207
173 190 205
171 189 201
167 185 197
172 189 202
171 187 201
167 185 197
167 184 194
173 190 205
175 192 207
178 195 211
179 198 217
171 188 202
172 190 203
100 126 100
79 106 64
80 108 67
81 109 67
81 108 66
82 111 69
76 103 63
80 107 65
81 109 67
85 112 76
114 137 124
153 172 177
162 181 191
171 188 202
171 188 203
173 190 206
170 188 199
170 188 203
165 181 193
175 192 207
168 186 199
168 186 201
93 117 88
77 105 65
79 106 65
80 107 66
80 108 66
78 106 66
80 109 68
79 107 66
84 113 71
82 109 67
82 111 68
79 107 65
79 108 67
78 106 65
81 109 67
83 111 69
82 110 68
77 104 63
76 103 63
79 108 66
75 103 63
81 109 67
145 164 166
176 193 208
165 183 194
164 183 195
171 189 203
174 191 206
163 181 191
166 184 194
159 177 185
165 181 191
175 192 210
167 185 195
165 182 193
153 172 182
127 147 140
121 143 130
82 110 71
80 109 68
84 113 70
78 106 64
80 108 66
84 113 71
105 127 107
169 187 202
168 186 198
165 181 193
174 190 200
172 189 203
168 186 198
171 188 200
158 176 185
167 184 196
161 179 188
167 184 197
175 194 209
164 182 192
158 175 186
172 190 204
174 191 205
169 186 199
167 185 197
169 187 199
168 186 197
164 182 195
164 183 197
119 138 131
79 107 65
79 107 66
76 103 63
78 106 65
79 107 67
78 106 65
82 110 68
76 103 63
77 105 65
79 108 66
79 108 68
78 106 65
81 109 68
80 109 67
81 109 67
78 106 65
74 102 63
77 105 64
83 111 69
80 108 66
82 111 69
92 115 89
159 176 182
173 190 205
167 185 198
163 181 193
175 192 203
166 183 193
163 181 193
164 182 194
174 192 207
154 171 181
175 192 207
172 189 203
169 186 197
167 185 198
160 177 186
162 181 193
143 163 163
129 150 143
96 119 95
88 113 84
81 109 68
78 105 64
139 158 159
156 173 180
172 189 201
166 184 196
180 197 212
167 185 197
171 188 201
154 173 181
171 187 199
165 183 194
167 184 195
173 189 201
174 193 210
170 188 202
155 173 182
163 181 190
156 175 181
160 178 191
171 189 203
158 176 184
167 185 198
171 188 204
129 151 144
76 103 63
80 108 67
78 107 65
81 109 66
77 105 63
79 107 66
76 103 62
79 107 66
82 111 68
78 105 65
70 96 57
82 110 68
79 107 66
78 106 65
79 107 66
78 105 64
77 105 64
81 108 67
79 107 66
75 102 61
80 109 68
157 176 186
171 188 203
166 184 194
167 185 199
162 179 187
161 178 187
169 186 199
172 189 201
171 188 201
168 186 200
171 188 203
164 181 191
169 186 200
168 186 198
161 179 188
165 183 195
166 183 198
166 183 197
173 189 203
170 187 200
167 185 198
139 157 157
82 110 68
81 110 68
81 110 68
77 105 64
76 104 64
74 101 62
78 106 66
78 105 64
78 106 66
77 105 64
78 106 65
75 102 62
79 107 66
78 106 66
76 103 63
84 113 70
84 113 70
78 106 65
78 106 65
79 107 65
131 153 149
170 189 203
173 190 203
168 186 198
162 179 190
159 176 183
170 186 200
162 180 191
156 174 183
163 180 192
174 192 208
169 187 198
161 179 188
169 187 201
166 184 197
171 189 200
172 189 201
162 180 188
171 189 205
173 190 204
156 174 180
83 111 68
78 106 66
83 111 68
78 106 64
79 107 65
81 108 66
84 113 69
80 108 66
81 109 68
80 108 66
81 109 67
82 110 68
81 109 68
79 107 66
76 103 63
78 106 66
77 104 64
80 108 66
78 106 64
130 151 147
164 181 192
156 174 183
175 192 208
165 182 190
170 188 202
164 183 195
180 197 213
168 186 198
172 190 203
170 187 198
167 184 197
174 191 203
166 183 192
169 186 199
171 188 202
169 188 201
167 185 200
174 192 206
121 144 131
80 108 67
76 104 64
80 108 66
77 105 65
81 110 68
84 112 69
75 102 62
76 103 63
81 110 68
77 105 64
79 107 65
83 113 71
84 112 70
77 105 64
79 108 66
83 113 70
81 110 69
152 171 175
170 189 203
162 181 192
171 188 200
171 190 204
168 185 198
165 182 192
173 191 206
165 182 192
178 194 209
170 188 202
173 191 208
168 185 199
175 193 207
164 184 199
169 187 201
165 182 193
134 154 150
81 109 68
83 112 70
81 110 68
81 109 67
86 115 72
84 113 71
81 109 68
81 109 68
83 112 71
81 109 68
79 107 67
85 115 72
83 111 69
84 112 69
80 109 68
124 146 134
175 193 209
172 191 208
168 186 200
83 112 70
85 115 73
84 112 70
120 141 129
178 196 214
174 193 208
180 197 213
175 192 207
160 179 187
109 133 116
78 106 65
85 114 72
80 109 67
83 112 70
80 108 67
83 111 68
79 108 67
82 110 68
76 104 63
85 114 72
81 110 68
82 110 68
82 110 68
95 120 91
180 197 214
173 191 208
172 189 201
177 194 209
173 190 204
177 195 210
169 185 200
169 187 200
175 192 209
167 184 197
172 191 205
170 187 201
161 178 186
152 170 177
111 134 119
80 109 68
80 108 67
82 111 69
79 107 66
81 110 68
120 143 128
174 191 206
181 198 215
169 187 200
173 191 204
168 185 198
168 186 199
176 193 209
169 186 198
169 186 202
173 190 205
174 191 203
175 193 209
162 179 191
168 185 198
167 185 197
171 188 201
173 190 205
177 195 212
168 186 200
178 195 213
172 189 205
111 135 117
76 104 63
79 107 66
81 108 66
81 109 67
82 110 68
77 105 65
114 137 125
149 167 172
168 186 199
166 183 195
161 180 191
170 187 199
171 189 203
174 191 205
172 188 201
163 181 194
167 186 200
169 186 199
165 183 196
167 185 198
169 187 201
94 119 90
81 109 68
79 107 66
79 108 65
79 107 66
81 110 68
78 105 64
77 105 65
82 110 69
80 108 66
77 104 64
84 113 71
81 109 68
80 108 66
85 114 71
81 109 67
79 107 65
78 106 66
82 111 69
79 107 66
79 107 66
80 108 66
133 153 151
174 193 210
175 192 205
173 191 205
164 182 194
161 178 187
169 187 198
168 186 197
168 186 198
167 185 196
145 163 165
113 135 120
93 118 92
79 107 66
81 109 68
79 107 65
81 109 68
79 106 65
78 106 64
79 107 66
78 105 65
78 106 66
83 110 68
175 192 206
164 182 196
159 177 186
175 191 203
168 186 198
168 185 197
167 183 193
170 188 203
169 187 203
177 195 212
166 183 194
170 186 199
166 182 196
172 190 205
173 190 203
173 191 206
173 189 200
156 174 181
169 186 198
164 180 191
163 181 193
169 186 199
145 165 167
82 110 68
77 105 64
80 108 66
80 108 67
81 109 67
78 105 65
79 107 65
79 106 65
79 107 66
75 102 62
74 101 60
78 106 65
78 106 65
82 110 68
76 104 63
80 107 66
82 111 70
77 104 63
77 105 65
83 111 70
79 107 66
83 112 69
157 176 186
169 187 202
168 184 194
176 192 207
171 188 201
173 189 201
162 180 192
166 183 195
176 194 207
167 185 195
153 171 177
142 160 161
129 149 141
97 120 98
77 104 63
80 109 68
77 104 63
83 112 69
79 108 66
80 108 67
80 108 67
78 105 64
132 150 146
170 188 203
168 185 199
164 182 192
169 186 200
163 180 189
161 179 188
173 191 205
166 184 196
173 191 206
163 180 189
177 194 208
167 184 194
168 186 199
161 177 185
171 188 202
161 179 187
170 187 202
165 182 196
169 187 200
168 185 200
161 178 188
159 178 189
78 106 66
76 104 63
81 109 68
79 107 66
84 112 70
75 103 62
81 109 67
77 105 65
76 104 64
78 107 65
79 107 65
77 105 64
81 109 66
79 107 65
78 105 63
74 101 61
78 106 65
77 105 65
79 108 67
82 110 67
79 107 66
111 132 115
164 181 191
168 186 201
166 184 196
160 179 187
174 192 207
171 189 204
169 185 197
162 180 191
161 179 191
164 181 194
171 188 200
165 183 195
173 189 201
177 194 209
161 178 190
160 177 188
165 183 196
168 187 200
166 183 196
172 188 201
165 183 195
93 117 87
78 105 64
79 107 66
78 106 65
78 106 66
82 110 69
80 109 68
76 103 61
81 109 67
79 107 65
83 111 69
82 110 68
78 105 65
78 106 65
76 104 63
77 104 63
82 110 68
74 101 60
77 106 64
81 110 68
89 115 84
169 187 201
172 190 204
171 188 202
176 193 208
166 185 198
168 184 195
170 188 202
162 179 188
175 193 210
168 186 201
166 182 192
169 186 198
173 191 205
175 192 208
174 191 205
174 192 206
176 192 205
160 178 190
168 185 198
167 185 196
119 140 132
81 109 67
84 112 70
76 103 61
78 106 65
82 110 69
78 105 64
80 108 67
79 106 65
79 108 67
80 109 67
77 105 64
79 107 67
81 109 67
79 108 67
79 107 65
84 113 70
79 107 65
77 105 65
86 113 79
166 184 198
165 183 196
169 186 200
163 181 194
172 190 204
175 193 208
170 187 201
168 186 199
166 184 195
170 187 201
158 176 185
169 186 197
169 187 202
171 187 199
171 188 201
170 187 198
172 190 205
165 183 192
166 184 194
80 107 65
79 106 64
77 105 63
82 110 68
76 104 63
84 112 69
80 108 67
82 111 68
79 107 65
79 107 66
78 106 66
84 113 70
79 108 67
82 111 69
81 109 66
84 113 71
84 113 71
98 123 96
171 188 200
173 191 206
174 191 207
174 191 206
169 188 203
174 191 207
172 189 202
165 183 195
170 188 200
172 190 206
174 192 206
169 187 201
177 194 210
170 187 200
172 189 204
176 193 208
172 189 202
93 119 85
76 104 63
82 111 69
77 105 65
83 111 69
83 112 70
76 103 62
82 111 69
78 106 65
82 111 69
81 109 68
80 109 67
82 111 68
86 115 72
82 111 68
84 114 71
146 166 167
172 189 202
180 197 215
80 108 66
83 113 71
79 107 65
132 154 153
173 190 203
169 186 200
154 173 177
107 131 112
80 109 69
79 108 66
80 109 68
81 110 68
82 111 69
83 112 70
79 107 67
81 110 67
82 111 69
80 109 67
83 112 70
85 114 71
80 108 66
82 110 68
83 112 70
105 128 105
176 192 205
175 193 209
171 189 202
180 197 214
177 194 209
174 190 204
165 183 196
174 191 206
163 181 193
165 184 197
157 175 182
131 151 144
87 111 78
81 109 68
80 108 67
80 109 67
82 110 68
79 108 66
83 112 69
81 110 68
106 131 112
184 201 219
178 195 211
179 197 214
172 189 202
174 193 209
171 189 204
171 189 204
171 189 205
171 187 200
171 188 201
168 186 200
169 187 199
173 189 205
176 194 210
170 187 199
175 192 207
175 192 206
168 185 197
164 182 193
170 188 202
170 187 198
117 139 129
83 111 69
79 107 66
81 109 67
106 130 113
146 165 167
166 184 196
179 196 213
177 194 210
171 188 199
169 187 199
167 184 197
163 181 194
175 193 208
165 183 196
173 192 207
167 183 194
178 194 209
167 184 199
167 185 199
164 182 194
177 194 211
111 134 116
77 105 64
80 108 66
76 102 61
83 112 69
82 110 68
81 110 68
77 105 64
80 108 66
76 104 64
77 105 63
85 114 71
81 109 68
80 109 68
77 105 65
83 111 69
76 104 64
84 112 69
78 106 65
78 107 66
81 110 68
79 107 65
126 146 139
172 189 204
169 186 200
166 183 197
170 187 200
165 183 194
160 177 186
139 159 156
117 138 126
85 111 76
78 106 66
83 112 69
79 107 66
80 109 67
80 108 66
78 106 65
79 107 66
79 107 67
78 105 65
81 109 68
77 105 64
80 109 67
82 110 68
159 178 187
168 187 201
166 182 194
168 187 201
171 188 202
181 198 213
174 192 206
172 190 204
164 182 194
170 187 200
174 191 206
162 180 191
163 182 195
166 184 197
176 194 210
172 189 199
173 192 210
167 184 196
173 191 206
166 184 195
167 186 200
171 189 205
156 174 181
77 105 64
82 111 69
76 103 63
76 104 63
80 108 66
79 106 65
80 108 67
80 108 66
78 106 65
77 104 63
78 106 66
82 110 68
80 107 66
78 106 64
78 106 65
81 109 67
78 105 65
77 104 64
80 108 67
79 106 64
78 106 66
81 109 67
145 165 167
179 196 213
173 190 206
164 181 192
172 189 201
152 170 174
143 161 161
119 141 131
86 112 82
78 104 63
78 106 65
80 108 66
74 101 61
78 105 64
78 106 65
77 105 64
80 108 67
77 105 64
81 109 68
81 109 67
76 104 63
81 109 68
86 111 81
168 185 197
166 184 196
175 193 206
168 186 197
168 186 200
158 175 184
168 186 200
170 188 201
176 193 207
166 184 198
169 187 200
172 190 205
171 189 203
164 181 191
171 188 202
168 185 197
169 187 199
168 187 199
169 186 198
169 186 200
166 184 197
171 189 203
90 114 87
77 105 64
78 106 65
78 106 65
78 106 65
80 108 67
77 104 64
77 105 64
82 111 69
78 105 64
79 106 66
81 109 67
83 112 70
82 111 68
76 104 63
74 101 61
79 106 65
78 105 65
78 104 63
83 111 70
81 109 68
79 106 68
171 189 204
165 183 198
171 189 203
178 196 212
169 187 201
167 184 198
164 182 196
167 184 196
171 187 200
167 184 198
170 188 202
171 188 200
173 190 207
169 185 197
165 182 191
159 178 190
165 182 191
168 186 200
167 184 193
175 193 209
174 191 207
126 146 139
77 104 64
80 109 67
80 108 67
77 105 64
82 111 68
82 110 69
78 106 65
81 109 67
80 107 66
77 105 65
77 104 64
78 106 65
78 106 65
80 108 67
82 110 68
79 107 66
83 112 70
81 109 67
79 107 66
81 109 67
132 152 147
172 189 202
160 179 189
178 195 210
179 195 209
171 188 200
171 189 202
162 180 191
167 186 199
167 184 197
165 182 194
168 185 200
168 185 195
165 183 194
166 183 198
171 188 201
170 186 199
173 191 204
177 195 210
164 183 194
150 170 176
82 110 67
75 102 62
82 111 70
78 106 66
79 107 65
81 110 68
78 106 66
80 108 66
83 111 69
80 108 66
81 110 67
77 104 63
82 110 69
80 108 67
81 109 68
78 105 64
80 108 67
81 110 68
73 100 60
128 149 143
169 187 201
163 182 194
172 189 202
171 188 200
172 189 203
171 188 201
166 183 195
169 187 201
174 192 208
168 186 198
168 186 200
175 193 206
167 185 197
172 191 208
171 188 200
178 195 210
176 194 211
171 189 203
125 146 138
83 113 70
83 113 71
79 107 67
84 114 71
81 110 67
78 106 65
79 107 66
83 112 70
83 113 70
82 111 69
82 111 69
79 108 67
78 106 65
77 105 65
80 108 67
81 109 68
77 105 65
142 161 161
169 186 197
167 186 200
164 181 191
170 188 200
175 193 207
163 181 189
177 194 209
181 198 216
172 188 202
174 190 204
174 191 204
169 188 201
176 193 208
177 194 211
166 184 194
163 182 193
153 172 179
82 111 69
77 105 64
79 107 66
81 110 68
85 114 71
85 113 70
84 112 69
80 108 66
80 110 68
83 112 70
78 106 66
79 107 66
81 109 68
83 111 69
82 110 68
98 124 92
170 187 201
174 191 205
81 110 69
81 111 69
83 113 70
130 151 148
145 164 168
102 128 103
85 114 71
80 108 66
83 112 70
84 113 70
82 110 68
81 110 69
83 112 69
84 114 72
85 114 72
85 115 73
81 109 68
80 108 67
81 110 68
85 115 72
81 110 67
80 107 65
83 112 69
110 134 115
173 190 204
177 194 209
171 190 206
171 191 206
165 183 195
168 185 200
175 193 208
176 193 207
160 178 187
129 149 142
82 111 68
81 110 69
82 111 69
79 108 67
79 108 67
81 110 69
84 112 70
81 110 68
83 111 69
81 109 67
111 134 120
177 195 212
170 189 203
171 189 202
175 193 210
169 187 200
171 188 201
171 189 204
175 193 208
172 189 203
174 191 206
174 191 203
173 192 209
168 186 198
168 186 199
170 188 202
172 191 207
170 189 202
169 186 200
173 190 204
169 185 196
178 194 209
123 145 136
92 118 87
121 142 132
161 180 191
170 188 204
166 183 194
162 180 189
173 190 205
173 189 205
174 192 208
164 183 196
174 190 203
169 188 202
173 191 205
176 194 210
170 187 200
177 194 208
175 192 206
179 196 213
171 189 203
172 189 203
175 194 209
120 141 131
77 105 64
82 110 68
78 105 64
79 107 65
78 106 66
80 108 67
84 113 70
84 113 70
79 107 66
80 108 67
77 104 63
77 104 64
77 103 62
78 106 65
80 108 67
83 112 70
77 105 65
84 113 71
81 110 68
80 109 67
79 107 66
112 135 118
174 192 206
171 189 200
158 177 186
138 158 158
109 132 111
79 108 66
73 101 61
77 105 65
79 107 66
80 109 67
80 107 66
77 105 65
76 103 63
78 106 65
80 108 66
78 106 65
78 105 65
80 108 67
80 107 66
79 107 66
81 110 68
84 112 70
143 163 164
168 185 196
171 188 199
176 195 211
172 188 204
174 191 204
164 182 193
171 188 201
162 179 189
175 192 208
172 189 203
172 189 202
171 188 201
177 195 210
167 184 197
166 184 197
171 189 204
168 184 195
173 190 206
170 188 201
174 192 206
169 186 198
165 181 191
85 112 77
79 107 67
78 105 64
79 107 66
74 101 61
79 107 67
76 104 64
78 105 64
78 106 65
81 111 70
79 107 66
82 111 69
77 106 65
81 109 67
77 104 64
81 109 68
80 109 67
80 108 67
82 110 68
83 111 69
81 109 68
78 105 67
122 143 133
140 158 158
123 144 136
95 120 88
81 110 68
80 109 68
78 105 64
80 109 68
79 107 66
79 107 66
83 112 70
78 106 66
81 108 65
81 109 67
76 103 62
76 104 63
77 104 63
78 105 64
80 108 67
80 108 67
81 109 67
81 109 68
82 110 68
163 180 188
172 189 204
159 176 186
164 182 192
168 185 199
167 185 197
171 189 203
173 191 207
165 183 196
171 190 205
171 189 203
170 187 199
170 188 205
171 190 204
163 180 190
170 187 199
168 184 195
174 191 204
173 190 204
174 192 206
163 181 191
171 189 202
128 148 143
82 110 69
81 109 67
79 107 66
79 108 66
73 99 60
79 107 65
78 106 65
79 107 65
81 109 67
80 108 66
79 107 66
82 110 68
80 108 66
78 106 65
81 109 67
79 107 66
77 105 64
77 105 64
77 105 64
79 107 66
75 102 62
143 163 164
173 190 203
176 193 208
167 183 194
170 186 199
170 187 201
166 182 192
165 182 194
172 188 201
175 192 207
168 186 197
169 186 199
172 190 202
164 181 192
171 187 201
170 189 203
169 187 201
168 186 196
174 193 209
165 184 198
167 185 197
158 176 184
81 108 69
79 107 66
78 105 63
83 112 69
76 103 63
77 105 64
81 109 68
82 110 68
77 105 64
81 109 68
79 107 66
77 104 64
83 110 68
78 105 65
80 108 67
84 113 70
80 107 66
80 108 66
78 106 65
82 111 69
95 119 92
166 185 198
165 182 192
172 190 203
169 186 200
165 183 196
161 180 192
175 192 205
167 185 198
165 182 191
170 187 200
168 186 199
167 184 196
171 188 200
174 192 207
175 191 205
174 190 204
171 190 205
164 182 194
163 180 191
168 186 201
118 141 127
80 108 67
78 106 65
76 103 62
80 108 66
78 106 66
81 110 68
79 107 66
83 112 70
79 107 66
81 110 69
83 111 69
83 112 69
79 107 66
78 106 66
76 104 63
82 111 69
81 110 68
80 108 66
101 125 101
161 179 191
165 183 197
171 188 200
162 180 192
169 187 200
159 176 183
174 191 206
172 191 206
176 194 210
175 192 207
175 194 211
174 191 205
168 186 199
172 190 203
168 186 200
163 181 193
170 188 202
173 190 204
169 188 201
80 108 69
83 112 70
79 107 67
80 108 67
80 108 66
80 108 66
80 108 67
83 111 69
79 108 67
80 108 67
81 109 68
82 111 68
77 105 64
80 108 66
78 105 64
78 106 65
79 108 66
89 115 84
170 188 197
171 188 201
171 189 205
164 183 194
170 188 200
174 191 203
174 192 207
169 187 203
176 194 211
174 191 206
171 188 201
164 183 197
174 193 209
172 189 203
181 198 216
175 194 210
173 190 204
113 136 121
81 111 69
79 108 67
77 105 64
82 110 69
81 109 68
81 110 67
83 112 70
80 108 67
85 115 72
79 106 65
82 110 68
79 108 67
82 110 68
82 111 69
83 111 69
123 145 137
170 189 203
81 109 67
86 116 75
126 147 141
112 135 119
81 110 68
82 111 70
81 110 68
82 111 69
84 113 70
84 113 70
85 114 72
79 107 65
80 109 68
81 110 67
86 115 72
83 112 69
83 112 69
82 111 70
85 115 71
80 109 67
79 107 67
80 109 68
80 108 68
123 145 139
164 182 196
170 188 201
173 192 209
167 186 197
177 194 210
171 189 202
150 170 171
115 139 122
79 107 66
83 112 69
82 111 69
81 110 67
84 114 70
83 112 70
83 112 70
80 108 67
81 109 68
82 110 68
81 109 67
82 110 68
105 128 109
168 186 198
182 198 213
171 190 207
173 192 207
170 188 201
170 188 201
166 184 197
174 191 205
167 185 199
166 185 198
167 184 197
175 193 210
172 189 203
175 193 210
173 191 205
170 188 203
171 188 200
172 189 202
173 191 206
163 182 196
151 171 176
136 156 151
165 183 196
168 187 202
176 193 208
167 185 197
176 193 207
173 190 207
169 188 201
171 188 204
174 192 208
173 189 201
164 182 194
176 193 208
174 191 206
169 188 202
175 192 207
174 193 209
165 183 196
175 192 208
173 192 207
171 188 202
181 199 216
127 149 142
79 107 66
82 111 69
78 106 65
80 108 66
79 108 67
77 105 64
80 107 66
79 108 66
77 105 64
81 109 67
79 107 66
80 108 66
75 102 61
78 106 66
80 108 66
79 107 65
80 108 67
81 109 67
82 111 69
80 108 67
80 108 67
116 139 127
127 148 142
109 133 113
80 108 66
80 109 67
79 107 66
79 107 67
81 109 68
79 107 66
81 110 69
80 108 67
73 100 60
78 106 65
81 110 68
79 107 66
81 108 66
82 111 69
82 110 68
78 106 65
79 106 65
80 108 67
79 108 67
78 106 66
142 161 161
169 186 200
164 184 197
176 192 204
173 191 205
171 187 199
169 187 202
172 190 204
165 182 193
162 179 189
172 189 203
168 186 200
167 185 198
168 185 198
171 188 203
174 191 205
164 182 194
168 185 198
173 190 205
170 188 204
171 188 202
176 193 208
168 185 197
106 129 111
78 106 64
77 104 64
79 107 66
77 104 64
77 105 63
75 104 63
77 104 64
83 111 69
80 108 67
78 106 64
81 109 67
79 106 65
78 106 65
82 110 67
76 104 63
82 110 68
91 115 89
121 143 130
129 149 145
152 171 174
165 183 196
169 186 200
83 111 69
79 107 66
82 111 69
78 106 65
79 107 66
78 106 66
75 103 63
77 104 64
77 105 64
76 104 64
84 113 71
81 109 67
82 110 68
80 109 66
79 107 66
80 109 67
80 108 67
79 106 65
81 109 67
78 106 64
79 107 66
83 111 69
133 153 147
166 183 195
165 184 198
163 181 191
169 187 200
167 185 196
165 182 194
172 190 203
164 181 189
174 190 203
181 199 216
170 188 201
171 188 203
168 185 195
163 181 192
173 191 204
174 191 204
158 176 183
168 186 197
163 182 194
168 185 198
166 184 196
159 177 184
79 107 66
80 109 68
80 108 66
81 109 68
79 107 66
82 111 68
80 109 67
79 108 66
75 103 63
78 106 65
80 109 67
81 108 67
77 105 65
77 105 63
80 108 67
76 104 63
80 108 67
78 105 65
78 105 63
78 106 64
80 108 67
113 135 119
166 184 197
179 196 212
166 184 195
152 171 176
171 187 199
164 181 194
170 187 201
170 189 204
164 182 194
170 187 199
166 184 196
165 183 195
170 188 204
170 187 200
177 194 211
166 183 194
166 183 191
172 189 203
178 195 212
175 193 210
172 189 202
116 138 123
79 107 66
81 109 68
81 109 68
81 110 68
82 110 68
81 109 67
83 112 69
77 105 65
79 107 65
79 107 66
78 106 64
80 107 66
77 105 65
79 106 65
81 109 68
78 106 65
81 110 68
80 109 67
76 104 62
81 109 68
145 164 167
168 186 202
168 186 196
171 188 203
165 183 192
174 191 205
163 181 192
170 187 200
161 178 187
168 185 199
169 186 200
175 193 209
164 182 195
170 188 201
175 192 208
172 189 201
171 189 203
172 189 204
174 192 205
179 196 211
148 167 171
80 109 68
81 109 68
80 108 67
78 106 66
81 109 68
82 111 69
80 109 68
77 105 65
81 110 68
80 109 68
81 109 68
79 107 65
80 109 67
75 103 63
81 109 68
80 109 67
82 110 68
83 112 70
84 113 70
128 148 141
167 185 199
168 185 199
168 186 201
169 187 200
178 195 213
171 190 203
169 186 201
169 187 201
174 192 207
177 195 212
174 191 204
168 186 199
171 188 202
171 188 199
177 194 208
180 196 210
173 191 207
166 183 194
123 145 135
74 102 61
78 106 65
82 111 69
79 107 65
81 110 68
84 112 70
80 109 67
77 106 65
80 109 68
83 112 69
84 113 71
81 110 68
80 109 68
82 111 69
84 112 69
80 108 67
78 106 65
118 138 128
168 186 200
166 185 198
170 188 200
167 185 198
171 189 202
172 190 204
169 187 200
170 188 202
165 184 197
172 191 204
171 189 204
175 193 210
162 180 191
178 196 213
164 184 197
176 194 209
162 180 191
82 108 73
79 108 66
81 109 67
82 110 69
82 110 68
83 113 70
83 112 70
81 110 68
85 115 72
82 112 70
84 113 70
84 113 71
81 109 67
82 111 70
77 105 65
83 112 70
153 172 177
